%
(1001)
(T1 D=0.25 CR=0. - ZMIN=-0.27 - FLAT END MILL)
N10 G90 G94 G17 G91.1
N15 G20
(-ATTENTION- PROPERTY SAFE RETRACTS IS SET TO CLEARANCE HEIGHT.)
(ENSURE THE CLEARANCE HEIGHT WILL CLEAR THE PART AND OR FIXTURES.)
(RAISE THE Z-AXIS TO A SAFE HEIGHT BEFORE STARTING THE PROGRAM.)
(CENTERHOLE)
N20 T1 M6
N25 S12000 M3
N30 G17 G90 G94
N35 G54
N40 G64 P0.004 Q0.004
N45 M8
N50 G0 X-0.1683 Y0.0406
N55 G43 Z0.6 H1
N60 G0 Z0.2
N65 Z0.102
N70 G3 X-0.0906 Y-0.1183 Z0.0951 R0.1251 F47.48
N75 X-0.0401 Y-0.1247 Z0.0933 R0.1251
N80 X0.0746 Y0.0098 Z0.0865 R0.1249
N85 X0.0603 Y0.0585 Z0.0847 R0.1249
N90 X-0.1085 Y0.1101 Z0.0778 R0.1248
N95 X-0.1475 Y0.0777 Z0.076 R0.1248
N100 X-0.1276 Y-0.0975 Z0.0692 R0.1246
N105 X-0.0824 Y-0.1203 Z0.0674 R0.1246
N110 X0.0702 Y-0.0325 Z0.0605 R0.1245
N115 X0.0731 Y0.0181 Z0.0587 R0.1245
N120 X-0.068 Y0.1229 Z0.0519 R0.1243
N125 X-0.1155 Y0.1055 Z0.0501 R0.1243
N130 X-0.1554 Y-0.0655 Z0.0432 R0.1242
N135 X-0.1206 Y-0.1021 Z0.0414 R0.1242
N140 X0.052 Y-0.0707 Z0.0346 R0.124
N145 X0.0716 Y-0.0242 Z0.0328 R0.124
N150 X-0.0258 Y0.1214 Z0.0259 R0.1239
N155 X-0.0762 Y0.1209 Z0.0241 R0.1239
N160 X-0.1708 Y-0.0262 Z0.0173 R0.1237
N165 X-0.1504 Y-0.0722 Z0.0155 R0.1237
N170 X0.0221 Y-0.1004 Z0.0086 R0.1236
N175 X0.0561 Y-0.0634 Z0.0068 R0.1236
N180 X0.0133 Y0.1059 Z0. R0.1234
N185 X-0.0341 Y0.1223 Z-0.0018 R0.1234
N190 X-0.1722 Y0.0158 Z-0.0087 R0.1233
N195 X-0.1683 Y-0.0342 Z-0.0105 R0.1233
N200 X-0.0159 Y-0.1183 Z-0.0173 R0.1231
N205 X0.0284 Y-0.095 Z-0.0191 R0.1231
N210 X0.0449 Y0.0782 Z-0.026 R0.123
N215 X0.0058 Y0.1095 Z-0.0278 R0.123
N220 X-0.1593 Y0.0557 Z-0.0346 R0.1228
N225 X-0.1725 Y0.0075 Z-0.0364 R0.1228
N230 X-0.0575 Y-0.1225 Z-0.0433 R0.1227
N235 X-0.0081 Y-0.1153 Z-0.0451 R0.1227
N240 X0.0652 Y0.0417 Z-0.0519 R0.1225
N245 X0.039 Y0.0841 Z-0.0537 R0.1225
N250 X-0.134 Y0.0888 Z-0.0606 R0.1224
N255 X-0.1624 Y0.048 Z-0.0624 R0.1224
N260 X-0.098 Y-0.1124 Z-0.0692 R0.1222
N265 X-0.0493 Y-0.1222 Z-0.071 R0.1222
N270 X0.0721 Y0.0006 Z-0.0779 R0.1221
N275 X0.0617 Y0.0491 Z-0.0797 R0.1221
N280 X-0.0991 Y0.1115 Z-0.0865 R0.1219
N285 X-0.1394 Y0.0826 Z-0.0883 R0.1219
N290 X-0.1326 Y-0.0894 Z-0.0952 R0.1218
N295 X-0.0901 Y-0.1149 Z-0.097 R0.1218
N300 X0.0648 Y-0.0403 Z-0.1038 R0.1216
N305 X0.0713 Y0.0088 Z-0.1056 R0.1216
N310 X-0.0588 Y0.121 Z-0.1125 R0.1215
N315 X-0.1063 Y0.1075 Z-0.1143 R0.1215
N320 X-0.1574 Y-0.0563 Z-0.1211 R0.1213
N325 X-0.1261 Y-0.0944 Z-0.1229 R0.1213
N330 X0.0443 Y-0.0761 Z-0.1298 R0.1212
N335 X0.0668 Y-0.0323 Z-0.1316 R0.1212
N340 X-0.0177 Y0.1165 Z-0.1384 R0.121
N345 X-0.0668 Y0.1197 Z-0.1402 R0.121
N350 X-0.1696 Y-0.0169 Z-0.1471 R0.1209
N355 X-0.153 Y-0.0632 Z-0.1489 R0.1209
N360 X0.0131 Y-0.103 Z-0.1557 R0.1207
N365 X0.0488 Y-0.0693 Z-0.1575 R0.1207
N370 X0.0193 Y0.0986 Z-0.1644 R0.1206
N375 X-0.0258 Y0.118 Z-0.1662 R0.1206
N380 X-0.1679 Y0.0241 Z-0.173 R0.1204
N385 X-0.1677 Y-0.0248 Z-0.1748 R0.1204
N390 X-0.0252 Y-0.1177 Z-0.1817 R0.1203
N395 X0.0196 Y-0.0981 Z-0.1835 R0.1203
N400 X0.048 Y0.0694 Z-0.1904 R0.1201
N405 X0.0122 Y0.1026 Z-0.1921 R0.1201
N410 X-0.1525 Y0.0621 Z-0.199 R0.12
N415 X-0.1687 Y0.0161 Z-0.2008 R0.12
N420 X-0.0661 Y-0.1187 Z-0.2077 R0.1198
N425 X-0.0175 Y-0.1153 Z-0.2094 R0.1198
N430 X0.0652 Y0.0323 Z-0.2163 R0.1197
N435 X0.0427 Y0.0755 Z-0.2181 R0.1197
N440 X-0.1254 Y0.0925 Z-0.225 R0.1195
N445 X-0.156 Y0.0548 Z-0.2267 R0.1195
N450 X-0.1048 Y-0.106 Z-0.2336 R0.1194
N455 X-0.058 Y-0.1191 Z-0.2354 R0.1194
N460 X0.0689 Y-0.0082 Z-0.2423 R0.1192
N465 X0.0623 Y0.0399 Z-0.244 R0.1192
N470 X-0.0898 Y0.1121 Z-0.2509 R0.1191
N475 X-0.1312 Y0.0869 Z-0.2527 R0.1191
N480 X-0.1368 Y-0.0812 Z-0.2596 R0.1189
N485 X-0.0973 Y-0.1091 Z-0.2613 R0.1189
N490 X0.0589 Y-0.0474 Z-0.2682 R0.1188
N495 X0.0687 Y-0.0001 Z-0.27 R0.1188
N500 X-0.05 Y0.1186 R0.1188
N505 X-0.1688 Y-0.0001 R0.1188
N510 X-0.05 Y-0.1189 R0.1188
N515 X0.0687 Y-0.0001 R0.1188
N520 G1 X0.0692 Y0.0269
N525 X0.0691 Y0.0329
N530 X0.0684 Y0.0389
N535 X0.0672 Y0.0448
N540 X0.0655 Y0.0505
N545 X0.0635 Y0.0562
N550 X0.061 Y0.0617
N555 X0.0583 Y0.067
N560 X0.0553 Y0.0722
N565 X0.0519 Y0.0772
N570 X0.0484 Y0.082
N575 X0.0445 Y0.0866
N580 X0.0405 Y0.091
N585 X0.0362 Y0.0952
N590 X0.0317 Y0.0992
N595 X0.027 Y0.103
N600 X0.0222 Y0.1065
N605 X0.0172 Y0.1098
N610 X0.012 Y0.1128
N615 X0.0067 Y0.1156
N620 X0.0012 Y0.1182
N625 X-0.0043 Y0.1205
N630 X-0.01 Y0.1225
N635 X-0.0157 Y0.1242
N640 X-0.0215 Y0.1257
N645 X-0.0274 Y0.1269
N650 X-0.0333 Y0.1278
N655 X-0.0393 Y0.1285
N660 X-0.0453 Y0.1288
N665 X-0.0513 Y0.1289
N670 X-0.0573 Y0.1287
N675 X-0.0633 Y0.1283
N680 X-0.0692 Y0.1275
N685 X-0.0751 Y0.1265
N690 X-0.081 Y0.1252
N695 X-0.0868 Y0.1236
N700 X-0.0925 Y0.1218
N705 X-0.0981 Y0.1197
N710 X-0.1036 Y0.1173
N715 X-0.109 Y0.1147
N720 X-0.1143 Y0.1118
N725 X-0.1194 Y0.1087
N730 X-0.1244 Y0.1054
N735 X-0.1292 Y0.1018
N740 X-0.1339 Y0.098
N745 X-0.1383 Y0.094
N750 X-0.1426 Y0.0898
N755 X-0.1467 Y0.0854
N760 X-0.1506 Y0.0808
N765 X-0.1542 Y0.0761
N770 X-0.1577 Y0.0711
N775 X-0.1608 Y0.0661
N780 X-0.1638 Y0.0608
N785 X-0.1665 Y0.0555
N790 X-0.169 Y0.05
N795 X-0.1712 Y0.0444
N800 X-0.1731 Y0.0388
N805 X-0.1748 Y0.033
N810 X-0.1762 Y0.0272
N815 X-0.1773 Y0.0213
N820 X-0.1782 Y0.0153
N825 X-0.1788 Y0.0094
N830 X-0.1791 Y0.0034
N835 Y-0.0026
N840 X-0.1788 Y-0.0086
N845 X-0.1783 Y-0.0146
N850 X-0.1775 Y-0.0206
N855 X-0.1764 Y-0.0265
N860 X-0.175 Y-0.0323
N865 X-0.1734 Y-0.0381
N870 X-0.1715 Y-0.0438
N875 X-0.1693 Y-0.0494
N880 X-0.1669 Y-0.0549
N885 X-0.1643 Y-0.0602
N890 X-0.1613 Y-0.0655
N895 X-0.1582 Y-0.0706
N900 X-0.1548 Y-0.0755
N905 X-0.1512 Y-0.0803
N910 X-0.1473 Y-0.0849
N915 X-0.1433 Y-0.0894
N920 X-0.139 Y-0.0936
N925 X-0.1346 Y-0.0976
N930 X-0.13 Y-0.1015
N935 X-0.1252 Y-0.1051
N940 X-0.1202 Y-0.1084
N945 X-0.1151 Y-0.1116
N950 X-0.1099 Y-0.1145
N955 X-0.1045 Y-0.1171
N960 X-0.099 Y-0.1196
N965 X-0.0934 Y-0.1217
N970 X-0.0877 Y-0.1236
N975 X-0.0819 Y-0.1252
N980 X-0.0761 Y-0.1265
N985 X-0.0702 Y-0.1276
N990 X-0.0642 Y-0.1284
N995 X-0.0582 Y-0.1289
N1000 X-0.0523 Y-0.1292
N1005 X-0.0463
N1010 X-0.0403 Y-0.1288
N1015 X-0.0343 Y-0.1282
N1020 X-0.0284 Y-0.1274
N1025 X-0.0225 Y-0.1262
N1030 X-0.0166 Y-0.1248
N1035 X-0.0109 Y-0.1231
N1040 X-0.0052 Y-0.1212
N1045 X0.0004 Y-0.119
N1050 X0.0058 Y-0.1165
N1055 X0.0112 Y-0.1138
N1060 X0.0164 Y-0.1108
N1065 X0.0215 Y-0.1076
N1070 X0.0264 Y-0.1042
N1075 X0.0311 Y-0.1005
N1080 X0.0357 Y-0.0966
N1085 X0.0401 Y-0.0925
N1090 X0.0443 Y-0.0882
N1095 X0.0483 Y-0.0838
N1100 X0.0521 Y-0.0791
N1105 X0.0556 Y-0.0743
N1110 X0.059 Y-0.0693
N1115 X0.0621 Y-0.0641
N1120 X0.0649 Y-0.0589
N1125 X0.0675 Y-0.0535
N1130 X0.0699 Y-0.0479
N1135 X0.072 Y-0.0423
N1140 X0.0738 Y-0.0366
N1145 X0.0754 Y-0.0308
N1150 X0.0767 Y-0.025
N1155 X0.0781 Y-0.0182
N1160 X0.0792 Y-0.0115
N1165 X0.0801 Y-0.0056
N1170 X0.0807 Y0.0004
N1175 X0.0812 Y0.0063
N1180 X0.0814 Y0.0123
N1185 Y0.0183
N1190 X0.0811 Y0.0243
N1195 X0.0804 Y0.0303
N1200 X0.0795 Y0.0362
N1205 X0.0783 Y0.0421
N1210 X0.0768 Y0.0479
N1215 X0.075 Y0.0536
N1220 X0.0729 Y0.0593
N1225 X0.0705 Y0.0648
N1230 X0.0678 Y0.0701
N1235 X0.0649 Y0.0754
N1240 X0.0617 Y0.0805
N1245 X0.0583 Y0.0854
N1250 X0.0547 Y0.0902
N1255 X0.0508 Y0.0947
N1260 X0.0467 Y0.0991
N1265 X0.0424 Y0.1033
N1270 X0.0379 Y0.1073
N1275 X0.0333 Y0.1111
N1280 X0.0285 Y0.1147
N1285 X0.0235 Y0.118
N1290 X0.0184 Y0.1212
N1295 X0.0131 Y0.124
N1300 X0.0077 Y0.1267
N1305 X0.0022 Y0.1291
N1310 X-0.0034 Y0.1313
N1315 X-0.009 Y0.1332
N1320 X-0.0148 Y0.1349
N1325 X-0.0206 Y0.1363
N1330 X-0.0265 Y0.1375
N1335 X-0.0325 Y0.1384
N1340 X-0.0384 Y0.139
N1345 X-0.0444 Y0.1394
N1350 X-0.0504 Y0.1395
N1355 X-0.0564 Y0.1394
N1360 X-0.0624 Y0.139
N1365 X-0.0684 Y0.1383
N1370 X-0.0743 Y0.1374
N1375 X-0.0802 Y0.1363
N1380 X-0.086 Y0.1349
N1385 X-0.0918 Y0.1332
N1390 X-0.0975 Y0.1313
N1395 X-0.1031 Y0.1291
N1400 X-0.1086 Y0.1267
N1405 X-0.114 Y0.1241
N1410 X-0.1192 Y0.1213
N1415 X-0.1244 Y0.1182
N1420 X-0.1294 Y0.1149
N1425 X-0.1343 Y0.1114
N1430 X-0.139 Y0.1076
N1435 X-0.1435 Y0.1037
N1440 X-0.1479 Y0.0996
N1445 X-0.1521 Y0.0953
N1450 X-0.1561 Y0.0908
N1455 X-0.1599 Y0.0862
N1460 X-0.1635 Y0.0814
N1465 X-0.1669 Y0.0765
N1470 X-0.1701 Y0.0714
N1475 X-0.173 Y0.0662
N1480 X-0.1758 Y0.0608
N1485 X-0.1783 Y0.0554
N1490 X-0.1805 Y0.0498
N1495 X-0.1825 Y0.0442
N1500 X-0.1843 Y0.0384
N1505 X-0.1859 Y0.0326
N1510 X-0.1871 Y0.0268
N1515 X-0.1882 Y0.0209
N1520 X-0.1889 Y0.0149
N1525 X-0.1895 Y0.0089
N1530 X-0.1897 Y0.0029
N1535 Y-0.0031
N1540 X-0.1895 Y-0.0091
N1545 X-0.189 Y-0.015
N1550 X-0.1882 Y-0.021
N1555 X-0.1872 Y-0.0269
N1560 X-0.1859 Y-0.0328
N1565 X-0.1844 Y-0.0386
N1570 X-0.1826 Y-0.0443
N1575 X-0.1806 Y-0.0499
N1580 X-0.1783 Y-0.0555
N1585 X-0.1758 Y-0.061
N1590 X-0.1731 Y-0.0663
N1595 X-0.1701 Y-0.0715
N1600 X-0.167 Y-0.0766
N1605 X-0.1636 Y-0.0816
N1610 X-0.16 Y-0.0864
N1615 X-0.1562 Y-0.091
N1620 X-0.1522 Y-0.0955
N1625 X-0.148 Y-0.0998
N1630 X-0.1436 Y-0.1039
N1635 X-0.139 Y-0.1078
N1640 X-0.1343 Y-0.1115
N1645 X-0.1295 Y-0.115
N1650 X-0.1245 Y-0.1184
N1655 X-0.1193 Y-0.1214
N1660 X-0.1141 Y-0.1243
N1665 X-0.1087 Y-0.1269
N1670 X-0.1032 Y-0.1294
N1675 X-0.0976 Y-0.1315
N1680 X-0.0919 Y-0.1334
N1685 X-0.0861 Y-0.1351
N1690 X-0.0803 Y-0.1365
N1695 X-0.0744 Y-0.1377
N1700 X-0.0685 Y-0.1386
N1705 X-0.0625 Y-0.1393
N1710 X-0.0565 Y-0.1397
N1715 X-0.0505 Y-0.1398
N1720 X-0.0445 Y-0.1397
N1725 X-0.0386 Y-0.1394
N1730 X-0.0326 Y-0.1388
N1735 X-0.0267 Y-0.1379
N1740 X-0.0208 Y-0.1368
N1745 X-0.0149 Y-0.1354
N1750 X-0.0091 Y-0.1337
N1755 X-0.0034 Y-0.1319
N1760 X0.0022 Y-0.1297
N1765 X0.0077 Y-0.1274
N1770 X0.0131 Y-0.1248
N1775 X0.0184 Y-0.122
N1780 X0.0236 Y-0.1189
N1785 X0.0286 Y-0.1156
N1790 X0.0335 Y-0.1122
N1795 X0.0382 Y-0.1085
N1800 X0.0428 Y-0.1046
N1805 X0.0472 Y-0.1005
N1810 X0.0514 Y-0.0962
N1815 X0.0554 Y-0.0918
N1820 X0.0593 Y-0.0872
N1825 X0.0629 Y-0.0824
N1830 X0.0663 Y-0.0775
N1835 X0.0695 Y-0.0724
N1840 X0.0725 Y-0.0672
N1845 X0.0753 Y-0.0619
N1850 X0.0779 Y-0.0565
N1855 X0.0802 Y-0.0509
N1860 X0.0823 Y-0.0453
N1865 X0.0843 Y-0.0397
N1870 X0.0861 Y-0.0339
N1875 X0.0876 Y-0.0281
N1880 X0.089 Y-0.0223
N1885 X0.0902 Y-0.0164
N1890 X0.0911 Y-0.0105
N1895 X0.0919 Y-0.0045
N1900 X0.0924 Y0.0014
N1905 X0.0927 Y0.0074
N1910 Y0.0134
N1915 X0.0925 Y0.0194
N1920 X0.092 Y0.0254
N1925 X0.0913 Y0.0314
N1930 X0.0903 Y0.0373
N1935 X0.089 Y0.0431
N1940 X0.0875 Y0.049
N1945 X0.0858 Y0.0547
N1950 X0.0838 Y0.0603
N1955 X0.0815 Y0.0659
N1960 X0.079 Y0.0713
N1965 X0.0762 Y0.0767
N1970 X0.0732 Y0.0819
N1975 X0.07 Y0.087
N1980 X0.0666 Y0.0919
N1985 X0.063 Y0.0966
N1990 X0.0591 Y0.1012
N1995 X0.0551 Y0.1057
N2000 X0.0508 Y0.1099
N2005 X0.0464 Y0.114
N2010 X0.0419 Y0.1179
N2015 X0.0371 Y0.1216
N2020 X0.0322 Y0.125
N2025 X0.0272 Y0.1283
N2030 X0.022 Y0.1314
N2035 X0.0168 Y0.1342
N2040 X0.0114 Y0.1369
N2045 X0.0059 Y0.1393
N2050 X0.0003 Y0.1414
N2055 X-0.0054 Y0.1434
N2060 X-0.0111 Y0.1451
N2065 X-0.017 Y0.1466
N2070 X-0.0228 Y0.1478
N2075 X-0.0287 Y0.1488
N2080 X-0.0347 Y0.1496
N2085 X-0.0407 Y0.1501
N2090 X-0.0467 Y0.1504
N2095 X-0.0527
N2100 X-0.0587 Y0.1502
N2105 X-0.0646 Y0.1497
N2110 X-0.0706 Y0.149
N2115 X-0.0765 Y0.1481
N2120 X-0.0824 Y0.147
N2125 X-0.0883 Y0.1456
N2130 X-0.094 Y0.1439
N2135 X-0.0997 Y0.1421
N2140 X-0.1054 Y0.14
N2145 X-0.1109 Y0.1377
N2150 X-0.1163 Y0.1352
N2155 X-0.1217 Y0.1324
N2160 X-0.1269 Y0.1294
N2165 X-0.132 Y0.1263
N2170 X-0.137 Y0.1229
N2175 X-0.1418 Y0.1194
N2180 X-0.1465 Y0.1156
N2185 X-0.151 Y0.1117
N2190 X-0.1554 Y0.1076
N2195 X-0.1596 Y0.1033
N2200 X-0.1636 Y0.0989
N2205 X-0.1675 Y0.0943
N2210 X-0.1712 Y0.0895
N2215 X-0.1746 Y0.0846
N2220 X-0.1779 Y0.0796
N2225 X-0.181 Y0.0744
N2230 X-0.1838 Y0.0692
N2235 X-0.1865 Y0.0638
N2240 X-0.1889 Y0.0583
N2245 X-0.1911 Y0.0527
N2250 X-0.1931 Y0.0471
N2255 X-0.1949 Y0.0413
N2260 X-0.1964 Y0.0355
N2265 X-0.1977 Y0.0297
N2270 X-0.1988 Y0.0238
N2275 X-0.1996 Y0.0178
N2280 X-0.2002 Y0.0119
N2285 X-0.2006 Y0.0059
N2290 X-0.2007 Y-0.0001
N2295 X-0.2006 Y-0.0061
N2300 X-0.2002 Y-0.0121
N2305 X-0.1996 Y-0.0181
N2310 X-0.1988 Y-0.024
N2315 X-0.1977 Y-0.0299
N2320 X-0.1964 Y-0.0358
N2325 X-0.1949 Y-0.0416
N2330 X-0.1931 Y-0.0473
N2335 X-0.1911 Y-0.053
N2340 X-0.1889 Y-0.0586
N2345 X-0.1865 Y-0.064
N2350 X-0.1838 Y-0.0694
N2355 X-0.181 Y-0.0747
N2360 X-0.1779 Y-0.0798
N2365 X-0.1746 Y-0.0849
N2370 X-0.1711 Y-0.0898
N2375 X-0.1675 Y-0.0945
N2380 X-0.1636 Y-0.0991
N2385 X-0.1596 Y-0.1036
N2390 X-0.1554 Y-0.1078
N2395 X-0.151 Y-0.112
N2400 X-0.1465 Y-0.1159
N2405 X-0.1418 Y-0.1196
N2410 X-0.137 Y-0.1232
N2415 X-0.132 Y-0.1266
N2420 X-0.1269 Y-0.1297
N2425 X-0.1217 Y-0.1327
N2430 X-0.1164 Y-0.1354
N2435 X-0.1109 Y-0.138
N2440 X-0.1054 Y-0.1403
N2445 X-0.0998 Y-0.1424
N2450 X-0.0941 Y-0.1442
N2455 X-0.0883 Y-0.1459
N2460 X-0.0824 Y-0.1473
N2465 X-0.0766 Y-0.1485
N2470 X-0.0706 Y-0.1494
N2475 X-0.0647 Y-0.1501
N2480 X-0.0587 Y-0.1506
N2485 X-0.0527 Y-0.1508
N2490 X-0.0467
N2495 X-0.0407 Y-0.1505
N2500 X-0.0347 Y-0.15
N2505 X-0.0288 Y-0.1493
N2510 X-0.0229 Y-0.1483
N2515 X-0.017 Y-0.1471
N2520 X-0.0111 Y-0.1457
N2525 X-0.0054 Y-0.144
N2530 X0.0003 Y-0.1422
N2535 X0.0059 Y-0.14
N2540 X0.0115 Y-0.1377
N2545 X0.0169 Y-0.1352
N2550 X0.0222 Y-0.1324
N2555 X0.0274 Y-0.1294
N2560 X0.0325 Y-0.1262
N2565 X0.0375 Y-0.1228
N2570 X0.0423 Y-0.1192
N2575 X0.0469 Y-0.1155
N2580 X0.0514 Y-0.1115
N2585 X0.0558 Y-0.1074
N2590 X0.06 Y-0.1031
N2595 X0.064 Y-0.0986
N2600 X0.0678 Y-0.094
N2605 X0.0715 Y-0.0893
N2610 X0.0749 Y-0.0844
N2615 X0.0782 Y-0.0793
N2620 X0.0813 Y-0.0742
N2625 X0.0842 Y-0.0689
N2630 X0.0869 Y-0.0636
N2635 X0.0894 Y-0.0581
N2640 X0.0918 Y-0.0526
N2645 X0.0939 Y-0.047
N2650 X0.0959 Y-0.0413
N2655 X0.0976 Y-0.0356
N2660 X0.0992 Y-0.0298
N2665 X0.1005 Y-0.0239
N2670 X0.1016 Y-0.018
N2675 X0.1026 Y-0.0121
N2680 X0.1033 Y-0.0062
N2685 X0.1038 Y-0.0002
N2690 X0.104 Y0.0058
N2695 X0.1041 Y0.0118
N2700 X0.1039 Y0.0178
N2705 X0.1034 Y0.0238
N2710 X0.1028 Y0.0298
N2715 X0.1019 Y0.0357
N2720 X0.1007 Y0.0416
N2725 X0.0994 Y0.0474
N2730 X0.0978 Y0.0532
N2735 X0.0959 Y0.0589
N2740 X0.0939 Y0.0646
N2745 X0.0916 Y0.0701
N2750 X0.0891 Y0.0756
N2755 X0.0864 Y0.0809
N2760 X0.0834 Y0.0861
N2765 X0.0803 Y0.0912
N2770 X0.0769 Y0.0962
N2775 X0.0734 Y0.101
N2780 X0.0696 Y0.1057
N2785 X0.0657 Y0.1103
N2790 X0.0616 Y0.1147
N2795 X0.0573 Y0.1189
N2800 X0.0529 Y0.1229
N2805 X0.0483 Y0.1268
N2810 X0.0436 Y0.1305
N2815 X0.0387 Y0.134
N2820 X0.0337 Y0.1373
N2825 X0.0286 Y0.1404
N2830 X0.0233 Y0.1433
N2835 X0.018 Y0.146
N2840 X0.0125 Y0.1485
N2845 X0.007 Y0.1508
N2850 X0.0013 Y0.1529
N2855 X-0.0044 Y0.1547
N2860 X-0.0102 Y0.1563
N2865 X-0.016 Y0.1578
N2870 X-0.0219 Y0.159
N2875 X-0.0278 Y0.1599
N2880 X-0.0337 Y0.1607
N2885 X-0.0397 Y0.1612
N2890 X-0.0457 Y0.1615
N2895 X-0.0517 Y0.1616
N2900 X-0.0577 Y0.1614
N2905 X-0.0637 Y0.1611
N2910 X-0.0697 Y0.1605
N2915 X-0.0756 Y0.1597
N2920 X-0.0815 Y0.1586
N2925 X-0.0874 Y0.1573
N2930 X-0.0932 Y0.1559
N2935 X-0.0989 Y0.1542
N2940 X-0.1046 Y0.1523
N2945 X-0.1102 Y0.1501
N2950 X-0.1158 Y0.1478
N2955 X-0.1212 Y0.1453
N2960 X-0.1266 Y0.1425
N2965 X-0.1318 Y0.1396
N2970 X-0.1369 Y0.1365
N2975 X-0.1419 Y0.1332
N2980 X-0.1468 Y0.1297
N2985 X-0.1516 Y0.126
N2990 X-0.1562 Y0.1222
N2995 X-0.1606 Y0.1182
N3000 X-0.1649 Y0.114
N3005 X-0.1691 Y0.1097
N3010 X-0.1731 Y0.1052
N3015 X-0.1769 Y0.1005
N3020 X-0.1805 Y0.0958
N3025 X-0.184 Y0.0909
N3030 X-0.1873 Y0.0858
N3035 X-0.1904 Y0.0807
N3040 X-0.1933 Y0.0754
N3045 X-0.196 Y0.0701
N3050 X-0.1985 Y0.0646
N3055 X-0.2008 Y0.0591
N3060 X-0.2029 Y0.0535
N3065 X-0.2047 Y0.0478
N3070 X-0.2064 Y0.042
N3075 X-0.2079 Y0.0362
N3080 X-0.2091 Y0.0303
N3085 X-0.2101 Y0.0244
N3090 X-0.2109 Y0.0185
N3095 X-0.2115 Y0.0125
N3100 X-0.2118 Y0.0065
N3105 X-0.212 Y0.0005
N3110 X-0.2119 Y-0.0055
N3115 X-0.2116 Y-0.0115
N3120 X-0.211 Y-0.0175
N3125 X-0.2103 Y-0.0234
N3130 X-0.2093 Y-0.0293
N3135 X-0.2081 Y-0.0352
N3140 X-0.2067 Y-0.0411
N3145 X-0.2051 Y-0.0468
N3150 X-0.2033 Y-0.0525
N3155 X-0.2012 Y-0.0582
N3160 X-0.199 Y-0.0637
N3165 X-0.1965 Y-0.0692
N3170 X-0.1938 Y-0.0746
N3175 X-0.191 Y-0.0799
N3180 X-0.1879 Y-0.085
N3185 X-0.1847 Y-0.0901
N3190 X-0.1813 Y-0.095
N3195 X-0.1777 Y-0.0998
N3200 X-0.1739 Y-0.1045
N3205 X-0.1699 Y-0.109
N3210 X-0.1658 Y-0.1134
N3215 X-0.1615 Y-0.1176
N3220 X-0.1571 Y-0.1216
N3225 X-0.1525 Y-0.1255
N3230 X-0.1478 Y-0.1292
N3235 X-0.143 Y-0.1327
N3240 X-0.138 Y-0.1361
N3245 X-0.1329 Y-0.1393
N3250 X-0.1277 Y-0.1422
N3255 X-0.1224 Y-0.145
N3260 X-0.117 Y-0.1476
N3265 X-0.1115 Y-0.15
N3270 X-0.1059 Y-0.1522
N3275 X-0.1002 Y-0.1541
N3280 X-0.0945 Y-0.1559
N3285 X-0.0887 Y-0.1574
N3290 X-0.0828 Y-0.1587
N3295 X-0.0769 Y-0.1598
N3300 X-0.071 Y-0.1607
N3305 X-0.065 Y-0.1614
N3310 X-0.059 Y-0.1618
N3315 X-0.053 Y-0.162
N3320 X-0.047
N3325 X-0.041 Y-0.1618
N3330 X-0.035 Y-0.1614
N3335 X-0.0291 Y-0.1607
N3340 X-0.0232 Y-0.1598
N3345 X-0.0173 Y-0.1587
N3350 X-0.0114 Y-0.1574
N3355 X-0.0056 Y-0.1559
N3360 X0.0001 Y-0.1541
N3365 X0.0058 Y-0.1522
N3370 X0.0114 Y-0.15
N3375 X0.0169 Y-0.1476
N3380 X0.0223 Y-0.145
N3385 X0.0276 Y-0.1422
N3390 X0.0329 Y-0.1393
N3395 X0.0379 Y-0.1361
N3400 X0.0429 Y-0.1328
N3405 X0.0478 Y-0.1292
N3410 X0.0525 Y-0.1255
N3415 X0.0571 Y-0.1216
N3420 X0.0615 Y-0.1176
N3425 X0.0658 Y-0.1134
N3430 X0.0699 Y-0.109
N3435 X0.0739 Y-0.1045
N3440 X0.0776 Y-0.0999
N3445 X0.0813 Y-0.0951
N3450 X0.0847 Y-0.0902
N3455 X0.088 Y-0.0852
N3460 X0.0912 Y-0.08
N3465 X0.0941 Y-0.0748
N3470 X0.0969 Y-0.0695
N3475 X0.0995 Y-0.0641
N3480 X0.1019 Y-0.0586
N3485 X0.1041 Y-0.053
N3490 X0.1061 Y-0.0474
N3495 X0.108 Y-0.0417
N3500 X0.1096 Y-0.0359
N3505 X0.1111 Y-0.0301
N3510 X0.1124 Y-0.0242
N3515 X0.1134 Y-0.0183
N3520 X0.1143 Y-0.0124
N3525 X0.1149 Y-0.0064
N3530 X0.1153 Y-0.0004
N3535 X0.1156 Y0.0056
N3540 Y0.0116
N3545 X0.1154 Y0.0176
N3550 X0.115 Y0.0236
N3555 X0.1143 Y0.0295
N3560 X0.1135 Y0.0355
N3565 X0.1124 Y0.0414
N3570 X0.1111 Y0.0472
N3575 X0.1096 Y0.053
N3580 X0.1079 Y0.0588
N3585 X0.106 Y0.0645
N3590 X0.1038 Y0.0701
N3595 X0.1015 Y0.0756
N3600 X0.0989 Y0.081
N3605 X0.0962 Y0.0864
N3610 X0.0932 Y0.0916
N3615 X0.0901 Y0.0967
N3620 X0.0868 Y0.1017
N3625 X0.0833 Y0.1066
N3630 X0.0796 Y0.1113
N3635 X0.0758 Y0.1159
N3640 X0.0717 Y0.1204
N3645 X0.0676 Y0.1247
N3650 X0.0632 Y0.1288
N3655 X0.0587 Y0.1328
N3660 X0.0541 Y0.1366
N3665 X0.0493 Y0.1403
N3670 X0.0445 Y0.1438
N3675 X0.0394 Y0.147
N3680 X0.0343 Y0.1502
N3685 X0.0291 Y0.1531
N3690 X0.0237 Y0.1558
N3695 X0.0183 Y0.1584
N3700 X0.0128 Y0.1607
N3705 X0.0072 Y0.1629
N3710 X0.0015 Y0.1648
N3715 X-0.0042 Y0.1666
N3720 X-0.01 Y0.1681
N3725 X-0.0159 Y0.1694
N3730 X-0.0218 Y0.1706
N3735 X-0.0277 Y0.1715
N3740 X-0.0337 Y0.1722
N3745 X-0.0396 Y0.1727
N3750 X-0.0456 Y0.173
N3755 X-0.0516 Y0.1731
N3760 X-0.0576 Y0.1729
N3765 X-0.0636 Y0.1726
N3770 X-0.0696 Y0.172
N3775 X-0.0756 Y0.1713
N3780 X-0.0815 Y0.1703
N3785 X-0.0874 Y0.1691
N3790 X-0.0932 Y0.1678
N3795 X-0.099 Y0.1662
N3800 X-0.1047 Y0.1644
N3805 X-0.1104 Y0.1624
N3810 X-0.116 Y0.1602
N3815 X-0.1215 Y0.1579
N3820 X-0.1269 Y0.1553
N3825 X-0.1322 Y0.1526
N3830 X-0.1375 Y0.1496
N3835 X-0.1426 Y0.1465
N3840 X-0.1476 Y0.1432
N3845 X-0.1525 Y0.1398
N3850 X-0.1573 Y0.1362
N3855 X-0.162 Y0.1324
N3860 X-0.1665 Y0.1284
N3865 X-0.1709 Y0.1243
N3870 X-0.1751 Y0.1201
N3875 X-0.1792 Y0.1157
N3880 X-0.1831 Y0.1112
N3885 X-0.1869 Y0.1065
N3890 X-0.1905 Y0.1017
N3895 X-0.1939 Y0.0968
N3900 X-0.1972 Y0.0917
N3905 X-0.2003 Y0.0866
N3910 X-0.2032 Y0.0813
N3915 X-0.2059 Y0.076
N3920 X-0.2085 Y0.0706
N3925 X-0.2108 Y0.065
N3930 X-0.213 Y0.0594
N3935 X-0.2149 Y0.0538
N3940 X-0.2167 Y0.048
N3945 X-0.2183 Y0.0423
N3950 X-0.2196 Y0.0364
N3955 X-0.2208 Y0.0305
N3960 X-0.2218 Y0.0246
N3965 X-0.2225 Y0.0186
N3970 X-0.2231 Y0.0127
N3975 X-0.2234 Y0.0067
N3980 X-0.2235 Y0.0007
N3985 X-0.2234 Y-0.0053
N3990 X-0.2232 Y-0.0113
N3995 X-0.2227 Y-0.0173
N4000 X-0.222 Y-0.0233
N4005 X-0.2211 Y-0.0292
N4010 X-0.22 Y-0.0351
N4015 X-0.2187 Y-0.0409
N4020 X-0.2172 Y-0.0467
N4025 X-0.2154 Y-0.0525
N4030 X-0.2135 Y-0.0582
N4035 X-0.2114 Y-0.0638
N4040 X-0.2091 Y-0.0693
N4045 X-0.2066 Y-0.0748
N4050 X-0.204 Y-0.0802
N4055 X-0.2011 Y-0.0854
N4060 X-0.1981 Y-0.0906
N4065 X-0.1948 Y-0.0957
N4070 X-0.1914 Y-0.1006
N4075 X-0.1879 Y-0.1055
N4080 X-0.1842 Y-0.1102
N4085 X-0.1803 Y-0.1147
N4090 X-0.1762 Y-0.1192
N4095 X-0.1721 Y-0.1235
N4100 X-0.1677 Y-0.1276
N4105 X-0.1632 Y-0.1316
N4110 X-0.1586 Y-0.1354
N4115 X-0.1539 Y-0.1391
N4120 X-0.149 Y-0.1426
N4125 X-0.144 Y-0.146
N4130 X-0.1389 Y-0.1491
N4135 X-0.1337 Y-0.1521
N4140 X-0.1284 Y-0.1549
N4145 X-0.123 Y-0.1575
N4150 X-0.1175 Y-0.16
N4155 X-0.112 Y-0.1622
N4160 X-0.1063 Y-0.1642
N4165 X-0.1006 Y-0.1661
N4170 X-0.0948 Y-0.1677
N4175 X-0.089 Y-0.1692
N4180 X-0.0832 Y-0.1704
N4185 X-0.0772 Y-0.1715
N4190 X-0.0713 Y-0.1723
N4195 X-0.0653 Y-0.1729
N4200 X-0.0594 Y-0.1734
N4205 X-0.0534 Y-0.1736
N4210 X-0.0474
N4215 X-0.0414 Y-0.1734
N4220 X-0.0354 Y-0.173
N4225 X-0.0294 Y-0.1724
N4230 X-0.0235 Y-0.1716
N4235 X-0.0175 Y-0.1706
N4240 X-0.0117 Y-0.1693
N4245 X-0.0058 Y-0.1679
N4250 X-0.0001 Y-0.1663
N4255 X0.0056 Y-0.1645
N4260 X0.0113 Y-0.1624
N4265 X0.0169 Y-0.1602
N4270 X0.0224 Y-0.1578
N4275 X0.0278 Y-0.1552
N4280 X0.0331 Y-0.1524
N4285 X0.0383 Y-0.1495
N4290 X0.0434 Y-0.1463
N4295 X0.0484 Y-0.143
N4300 X0.0533 Y-0.1395
N4305 X0.0581 Y-0.1359
N4310 X0.0627 Y-0.1321
N4315 X0.0672 Y-0.1281
N4320 X0.0716 Y-0.124
N4325 X0.0758 Y-0.1197
N4330 X0.0799 Y-0.1153
N4335 X0.0838 Y-0.1108
N4340 X0.0876 Y-0.1061
N4345 X0.0912 Y-0.1013
N4350 X0.0947 Y-0.0964
N4355 X0.098 Y-0.0914
N4360 X0.1011 Y-0.0863
N4365 X0.1041 Y-0.0811
N4370 X0.1069 Y-0.0758
N4375 X0.1096 Y-0.0704
N4380 X0.112 Y-0.065
N4385 X0.1143 Y-0.0594
N4390 X0.1165 Y-0.0538
N4395 X0.1184 Y-0.0481
N4400 X0.1202 Y-0.0424
N4405 X0.1217 Y-0.0366
N4410 X0.1231 Y-0.0308
N4415 X0.1243 Y-0.0249
N4420 X0.1253 Y-0.019
N4425 X0.1261 Y-0.013
N4430 X0.1267 Y-0.0071
N4435 X0.1271 Y-0.0011
N4440 X0.1273 Y0.0049
N4445 X0.1274 Y0.0109
N4450 X0.1272 Y0.0169
N4455 X0.1268 Y0.0229
N4460 X0.1262 Y0.0289
N4465 X0.1254 Y0.0348
N4470 X0.1244 Y0.0407
N4475 X0.1232 Y0.0466
N4480 X0.1218 Y0.0525
N4485 X0.1202 Y0.0582
N4490 X0.1184 Y0.064
N4495 X0.1164 Y0.0696
N4500 X0.1143 Y0.0752
N4505 X0.1119 Y0.0807
N4510 X0.1093 Y0.0862
N4515 X0.1066 Y0.0915
N4520 X0.1037 Y0.0967
N4525 X0.1006 Y0.1019
N4530 X0.0973 Y0.1069
N4535 X0.0938 Y0.1118
N4540 X0.0902 Y0.1166
N4545 X0.0864 Y0.1212
N4550 X0.0825 Y0.1258
N4555 X0.0784 Y0.1302
N4560 X0.0742 Y0.1344
N4565 X0.0698 Y0.1385
N4570 X0.0653 Y0.1425
N4575 X0.0606 Y0.1463
N4580 X0.0559 Y0.1499
N4585 X0.051 Y0.1534
N4590 X0.046 Y0.1567
N4595 X0.0408 Y0.1598
N4600 X0.0356 Y0.1628
N4605 X0.0303 Y0.1656
N4610 X0.0249 Y0.1682
N4615 X0.0194 Y0.1706
N4620 X0.0139 Y0.1728
N4625 X0.0082 Y0.1749
N4630 X0.0025 Y0.1768
N4635 X-0.0032 Y0.1784
N4640 X-0.0091 Y0.1799
N4645 X-0.0149 Y0.1812
N4650 X-0.0208 Y0.1823
N4655 X-0.0268 Y0.1832
N4660 X-0.0327 Y0.1839
N4665 X-0.0387 Y0.1844
N4670 X-0.0447 Y0.1847
N4675 X-0.0507 Y0.1848
N4680 X-0.0567 Y0.1847
N4685 X-0.0627 Y0.1844
N4690 X-0.0687 Y0.184
N4695 X-0.0746 Y0.1833
N4700 X-0.0806 Y0.1824
N4705 X-0.0865 Y0.1813
N4710 X-0.0923 Y0.1801
N4715 X-0.0981 Y0.1786
N4720 X-0.1039 Y0.177
N4725 X-0.1096 Y0.1752
N4730 X-0.1153 Y0.1732
N4735 X-0.1209 Y0.171
N4740 X-0.1264 Y0.1686
N4745 X-0.1318 Y0.166
N4750 X-0.1372 Y0.1633
N4755 X-0.1424 Y0.1604
N4760 X-0.1476 Y0.1573
N4765 X-0.1526 Y0.1541
N4770 X-0.1576 Y0.1507
N4775 X-0.1624 Y0.1472
N4780 X-0.1671 Y0.1434
N4785 X-0.1717 Y0.1396
N4790 X-0.1762 Y0.1356
N4795 X-0.1805 Y0.1314
N4800 X-0.1847 Y0.1271
N4805 X-0.1887 Y0.1227
N4810 X-0.1927 Y0.1182
N4815 X-0.1964 Y0.1135
N4820 X-0.2 Y0.1087
N4825 X-0.2035 Y0.1038
N4830 X-0.2067 Y0.0987
N4835 X-0.2099 Y0.0936
N4840 X-0.2128 Y0.0884
N4845 X-0.2156 Y0.0831
N4850 X-0.2182 Y0.0777
N4855 X-0.2206 Y0.0722
N4860 X-0.2229 Y0.0666
N4865 X-0.225 Y0.061
N4870 X-0.2269 Y0.0553
N4875 X-0.2286 Y0.0496
N4880 X-0.2301 Y0.0438
N4885 X-0.2314 Y0.0379
N4890 X-0.2325 Y0.032
N4895 X-0.2335 Y0.0261
N4900 X-0.2342 Y0.0201
N4905 X-0.2348 Y0.0142
N4910 X-0.2352 Y0.0082
N4915 X-0.2353 Y0.0022
N4920 Y-0.0038
N4925 X-0.2351 Y-0.0098
N4930 X-0.2347 Y-0.0158
N4935 X-0.2341 Y-0.0218
N4940 X-0.2333 Y-0.0277
N4945 X-0.2323 Y-0.0336
N4950 X-0.2311 Y-0.0395
N4955 X-0.2297 Y-0.0454
N4960 X-0.2282 Y-0.0512
N4965 X-0.2264 Y-0.0569
N4970 X-0.2245 Y-0.0626
N4975 X-0.2224 Y-0.0682
N4980 X-0.2201 Y-0.0737
N4985 X-0.2176 Y-0.0792
N4990 X-0.215 Y-0.0846
N4995 X-0.2121 Y-0.0899
N5000 X-0.2092 Y-0.0951
N5005 X-0.206 Y-0.1002
N5010 X-0.2027 Y-0.1052
N5015 X-0.1992 Y-0.1101
N5020 X-0.1956 Y-0.1149
N5025 X-0.1918 Y-0.1195
N5030 X-0.1878 Y-0.124
N5035 X-0.1838 Y-0.1284
N5040 X-0.1795 Y-0.1327
N5045 X-0.1752 Y-0.1368
N5050 X-0.1707 Y-0.1408
N5055 X-0.1661 Y-0.1446
N5060 X-0.1613 Y-0.1483
N5065 X-0.1565 Y-0.1518
N5070 X-0.1515 Y-0.1552
N5075 X-0.1464 Y-0.1584
N5080 X-0.1413 Y-0.1614
N5085 X-0.136 Y-0.1643
N5090 X-0.1306 Y-0.167
N5095 X-0.1252 Y-0.1695
N5100 X-0.1197 Y-0.1719
N5105 X-0.1141 Y-0.174
N5110 X-0.1084 Y-0.176
N5115 X-0.1027 Y-0.1778
N5120 X-0.0969 Y-0.1794
N5125 X-0.0911 Y-0.1808
N5130 X-0.0852 Y-0.1821
N5135 X-0.0793 Y-0.1831
N5140 X-0.0733 Y-0.184
N5145 X-0.0674 Y-0.1846
N5150 X-0.0614 Y-0.1851
N5155 X-0.0554 Y-0.1854
N5160 X-0.0494
N5165 X-0.0434 Y-0.1853
N5170 X-0.0374 Y-0.185
N5175 X-0.0314 Y-0.1845
N5180 X-0.0255 Y-0.1838
N5185 X-0.0195 Y-0.1829
N5190 X-0.0136 Y-0.1819
N5195 X-0.0078 Y-0.1806
N5200 X-0.002 Y-0.1791
N5205 X0.0038 Y-0.1775
N5210 X0.0095 Y-0.1756
N5215 X0.0152 Y-0.1736
N5220 X0.0207 Y-0.1714
N5225 X0.0263 Y-0.169
N5230 X0.0317 Y-0.1665
N5235 X0.037 Y-0.1637
N5240 X0.0423 Y-0.1608
N5245 X0.0474 Y-0.1578
N5250 X0.0525 Y-0.1545
N5255 X0.0574 Y-0.1511
N5260 X0.0623 Y-0.1476
N5265 X0.067 Y-0.1439
N5270 X0.0716 Y-0.14
N5275 X0.0761 Y-0.1361
N5280 X0.0804 Y-0.1319
N5285 X0.0847 Y-0.1277
N5290 X0.0888 Y-0.1233
N5295 X0.0927 Y-0.1188
N5300 X0.0965 Y-0.1141
N5305 X0.1002 Y-0.1094
N5310 X0.1037 Y-0.1045
N5315 X0.1071 Y-0.0995
N5320 X0.1103 Y-0.0945
N5325 X0.1133 Y-0.0893
N5330 X0.1162 Y-0.0841
N5335 X0.119 Y-0.0787
N5340 X0.1216 Y-0.0733
N5345 X0.124 Y-0.0678
N5350 X0.1262 Y-0.0623
N5355 X0.1283 Y-0.0566
N5360 X0.1302 Y-0.0509
N5365 X0.1319 Y-0.0452
N5370 X0.1335 Y-0.0394
N5375 X0.1349 Y-0.0336
N5380 X0.1361 Y-0.0277
N5385 X0.1371 Y-0.0218
N5390 X0.1379 Y-0.0158
N5395 X0.1386 Y-0.0099
N5400 X0.139 Y-0.0039
N5405 X0.1393 Y0.0021
N5410 X0.1394 Y0.0081
N5415 X0.1393 Y0.0141
N5420 X0.139 Y0.0201
N5425 X0.1385 Y0.0261
N5430 X0.1379 Y0.0321
N5435 X0.137 Y0.038
N5440 X0.136 Y0.0439
N5445 X0.1347 Y0.0498
N5450 X0.1333 Y0.0556
N5455 X0.1317 Y0.0614
N5460 X0.1299 Y0.0671
N5465 X0.1279 Y0.0728
N5470 X0.1258 Y0.0784
N5475 X0.1235 Y0.0839
N5480 X0.121 Y0.0894
N5485 X0.1183 Y0.0947
N5490 X0.1154 Y0.1
N5495 X0.1124 Y0.1052
N5500 X0.1092 Y0.1103
N5505 X0.1059 Y0.1153
N5510 X0.1024 Y0.1202
N5515 X0.0988 Y0.1249
N5520 X0.0949 Y0.1296
N5525 X0.091 Y0.1341
N5530 X0.0869 Y0.1385
N5535 X0.0827 Y0.1427
N5540 X0.0783 Y0.1468
N5545 X0.0738 Y0.1508
N5550 X0.0692 Y0.1546
N5555 X0.0645 Y0.1583
N5560 X0.0596 Y0.1618
N5565 X0.0546 Y0.1652
N5570 X0.0496 Y0.1684
N5575 X0.0444 Y0.1715
N5580 X0.0392 Y0.1744
N5585 X0.0338 Y0.1771
N5590 X0.0284 Y0.1797
N5595 X0.0229 Y0.1821
N5600 X0.0173 Y0.1843
N5605 X0.0117 Y0.1863
N5610 X0.006 Y0.1882
N5615 X0.0002 Y0.1899
N5620 X-0.0056 Y0.1914
N5625 X-0.0115 Y0.1927
N5630 X-0.0173 Y0.1938
N5635 X-0.0233 Y0.1948
N5640 X-0.0292 Y0.1956
N5645 X-0.0352 Y0.1961
N5650 X-0.0412 Y0.1965
N5655 X-0.0472 Y0.1968
N5660 X-0.0532
N5665 X-0.0592 Y0.1966
N5670 X-0.0652 Y0.1963
N5675 X-0.0711 Y0.1958
N5680 X-0.0771 Y0.1951
N5685 X-0.083 Y0.1942
N5690 X-0.0889 Y0.1931
N5695 X-0.0948 Y0.1919
N5700 X-0.1006 Y0.1904
N5705 X-0.1064 Y0.1888
N5710 X-0.1121 Y0.187
N5715 X-0.1178 Y0.1851
N5720 X-0.1234 Y0.1829
N5725 X-0.1289 Y0.1806
N5730 X-0.1344 Y0.1781
N5735 X-0.1398 Y0.1755
N5740 X-0.1451 Y0.1727
N5745 X-0.1503 Y0.1698
N5750 X-0.1555 Y0.1666
N5755 X-0.1605 Y0.1634
N5760 X-0.1654 Y0.1599
N5765 X-0.1702 Y0.1564
N5770 X-0.1749 Y0.1526
N5775 X-0.1795 Y0.1488
N5780 X-0.184 Y0.1448
N5785 X-0.1883 Y0.1406
N5790 X-0.1926 Y0.1364
N5795 X-0.1966 Y0.132
N5800 X-0.2006 Y0.1275
N5805 X-0.2044 Y0.1228
N5810 X-0.2081 Y0.1181
N5815 X-0.2116 Y0.1132
N5820 X-0.215 Y0.1083
N5825 X-0.2182 Y0.1032
N5830 X-0.2213 Y0.098
N5835 X-0.2242 Y0.0928
N5840 X-0.2269 Y0.0875
N5845 X-0.2295 Y0.082
N5850 X-0.2319 Y0.0765
N5855 X-0.2342 Y0.071
N5860 X-0.2362 Y0.0654
N5865 X-0.2381 Y0.0597
N5870 X-0.2399 Y0.0539
N5875 X-0.2414 Y0.0481
N5880 X-0.2428 Y0.0423
N5885 X-0.244 Y0.0364
N5890 X-0.245 Y0.0305
N5895 X-0.2459 Y0.0245
N5900 X-0.2465 Y0.0186
N5905 X-0.247 Y0.0126
N5910 X-0.2473 Y0.0066
N5915 X-0.2474 Y0.0006
N5920 Y-0.0054
N5925 X-0.2471 Y-0.0114
N5930 X-0.2467 Y-0.0174
N5935 X-0.2461 Y-0.0233
N5940 X-0.2453 Y-0.0293
N5945 X-0.2443 Y-0.0352
N5950 X-0.2431 Y-0.0411
N5955 X-0.2418 Y-0.0469
N5960 X-0.2403 Y-0.0527
N5965 X-0.2386 Y-0.0585
N5970 X-0.2367 Y-0.0642
N5975 X-0.2347 Y-0.0699
N5980 X-0.2325 Y-0.0754
N5985 X-0.2301 Y-0.0809
N5990 X-0.2276 Y-0.0864
N5995 X-0.2249 Y-0.0917
N6000 X-0.222 Y-0.097
N6005 X-0.219 Y-0.1022
N6010 X-0.2158 Y-0.1073
N6015 X-0.2125 Y-0.1123
N6020 X-0.209 Y-0.1172
N6025 X-0.2054 Y-0.1219
N6030 X-0.2016 Y-0.1266
N6035 X-0.1977 Y-0.1311
N6040 X-0.1936 Y-0.1356
N6045 X-0.1894 Y-0.1399
N6050 X-0.1851 Y-0.144
N6055 X-0.1807 Y-0.1481
N6060 X-0.1761 Y-0.152
N6065 X-0.1715 Y-0.1557
N6070 X-0.1667 Y-0.1594
N6075 X-0.1618 Y-0.1628
N6080 X-0.1568 Y-0.1662
N6085 X-0.1517 Y-0.1693
N6090 X-0.1465 Y-0.1723
N6095 X-0.1412 Y-0.1752
N6100 X-0.1359 Y-0.1779
N6105 X-0.1304 Y-0.1804
N6110 X-0.1249 Y-0.1828
N6115 X-0.1193 Y-0.185
N6120 X-0.1137 Y-0.187
N6125 X-0.108 Y-0.1888
N6130 X-0.1022 Y-0.1905
N6135 X-0.0964 Y-0.192
N6140 X-0.0905 Y-0.1933
N6145 X-0.0846 Y-0.1945
N6150 X-0.0787 Y-0.1954
N6155 X-0.0728 Y-0.1962
N6160 X-0.0668 Y-0.1968
N6165 X-0.0608 Y-0.1972
N6170 X-0.0548 Y-0.1975
N6175 X-0.0488
N6180 X-0.0428 Y-0.1974
N6185 X-0.0368 Y-0.1971
N6190 X-0.0308 Y-0.1966
N6195 X-0.0249 Y-0.1959
N6200 X-0.0189 Y-0.1951
N6205 X-0.013 Y-0.194
N6210 X-0.0072 Y-0.1928
N6215 X-0.0013 Y-0.1914
N6220 X0.0045 Y-0.1898
N6225 X0.0102 Y-0.1881
N6230 X0.0159 Y-0.1862
N6235 X0.0215 Y-0.1841
N6240 X0.0271 Y-0.1818
N6245 X0.0326 Y-0.1794
N6250 X0.038 Y-0.1768
N6255 X0.0433 Y-0.1741
N6260 X0.0486 Y-0.1712
N6265 X0.0537 Y-0.1681
N6270 X0.0588 Y-0.1649
N6275 X0.0637 Y-0.1615
N6280 X0.0686 Y-0.158
N6285 X0.0734 Y-0.1543
N6290 X0.078 Y-0.1505
N6295 X0.0825 Y-0.1466
N6300 X0.0869 Y-0.1425
N6305 X0.0912 Y-0.1383
N6310 X0.0954 Y-0.134
N6315 X0.0994 Y-0.1296
N6320 X0.1034 Y-0.125
N6325 X0.1071 Y-0.1204
N6330 X0.1108 Y-0.1156
N6335 X0.1143 Y-0.1107
N6340 X0.1176 Y-0.1058
N6345 X0.1208 Y-0.1007
N6350 X0.1239 Y-0.0955
N6355 X0.1268 Y-0.0903
N6360 X0.1296 Y-0.085
N6365 X0.1322 Y-0.0796
N6370 X0.1347 Y-0.0741
N6375 X0.137 Y-0.0686
N6380 X0.1391 Y-0.063
N6385 X0.1411 Y-0.0573
N6390 X0.1429 Y-0.0516
N6395 X0.1445 Y-0.0458
N6400 X0.146 Y-0.04
N6405 X0.1473 Y-0.0341
N6410 X0.1484 Y-0.0282
N6415 X0.1494 Y-0.0223
N6420 X0.1502 Y-0.0164
N6425 X0.1508 Y-0.0104
N6430 X0.1513 Y-0.0044
N6435 X0.1515 Y0.0016
N6440 X0.1516 Y0.0076
N6445 X0.1515 Y0.0136
N6450 X0.1513 Y0.0196
N6455 X0.1508 Y0.0256
N6460 X0.1502 Y0.0315
N6465 X0.1494 Y0.0375
N6470 X0.1484 Y0.0434
N6475 X0.1473 Y0.0493
N6480 X0.146 Y0.0551
N6485 X0.1445 Y0.0609
N6490 X0.1428 Y0.0667
N6495 X0.141 Y0.0724
N6500 X0.1389 Y0.0781
N6505 X0.1368 Y0.0837
N6510 X0.1344 Y0.0892
N6515 X0.1319 Y0.0946
N6520 X0.1292 Y0.1
N6525 X0.1264 Y0.1053
N6530 X0.1234 Y0.1105
N6535 X0.1202 Y0.1156
N6540 X0.1169 Y0.1206
N6545 X0.1135 Y0.1255
N6550 X0.1099 Y0.1303
N6555 X0.1062 Y0.135
N6560 X0.1023 Y0.1396
N6565 X0.0983 Y0.1441
N6570 X0.0941 Y0.1484
N6575 X0.0899 Y0.1526
N6580 X0.0855 Y0.1567
N6585 X0.081 Y0.1607
N6590 X0.0763 Y0.1645
N6595 X0.0716 Y0.1682
N6600 X0.0667 Y0.1717
N6605 X0.0618 Y0.1751
N6610 X0.0567 Y0.1783
N6615 X0.0516 Y0.1814
N6620 X0.0464 Y0.1843
N6625 X0.0411 Y0.1871
N6630 X0.0357 Y0.1898
N6635 X0.0302 Y0.1922
N6640 X0.0246 Y0.1945
N6645 X0.019 Y0.1966
N6650 X0.0134 Y0.1986
N6655 X0.0076 Y0.2004
N6660 X0.0019 Y0.2021
N6665 X-0.0039 Y0.2035
N6670 X-0.0098 Y0.2048
N6675 X-0.0157 Y0.2059
N6680 X-0.0216 Y0.2069
N6685 X-0.0276 Y0.2077
N6690 X-0.0335 Y0.2083
N6695 X-0.0395 Y0.2087
N6700 X-0.0455 Y0.209
N6705 X-0.0515
N6710 X-0.0575 Y0.2089
N6715 X-0.0635 Y0.2087
N6720 X-0.0695 Y0.2082
N6725 X-0.0755 Y0.2076
N6730 X-0.0814 Y0.2068
N6735 X-0.0873 Y0.2059
N6740 X-0.0932 Y0.2047
N6745 X-0.0991 Y0.2034
N6750 X-0.1049 Y0.202
N6755 X-0.1107 Y0.2003
N6760 X-0.1164 Y0.1985
N6765 X-0.1221 Y0.1966
N6770 X-0.1277 Y0.1945
N6775 X-0.1332 Y0.1922
N6780 X-0.1387 Y0.1897
N6785 X-0.1441 Y0.1871
N6790 X-0.1494 Y0.1843
N6795 X-0.1547 Y0.1814
N6800 X-0.1598 Y0.1784
N6805 X-0.1649 Y0.1752
N6810 X-0.1699 Y0.1718
N6815 X-0.1748 Y0.1683
N6820 X-0.1795 Y0.1647
N6825 X-0.1842 Y0.1609
N6830 X-0.1888 Y0.157
N6835 X-0.1932 Y0.153
N6840 X-0.1975 Y0.1488
N6845 X-0.2017 Y0.1446
N6850 X-0.2058 Y0.1402
N6855 X-0.2098 Y0.1356
N6860 X-0.2136 Y0.131
N6865 X-0.2173 Y0.1263
N6870 X-0.2208 Y0.1215
N6875 X-0.2243 Y0.1165
N6880 X-0.2275 Y0.1115
N6885 X-0.2306 Y0.1064
N6890 X-0.2336 Y0.1012
N6895 X-0.2364 Y0.0959
N6900 X-0.2391 Y0.0905
N6905 X-0.2416 Y0.085
N6910 X-0.244 Y0.0795
N6915 X-0.2462 Y0.0739
N6920 X-0.2482 Y0.0683
N6925 X-0.2501 Y0.0626
N6930 X-0.2518 Y0.0569
N6935 X-0.2534 Y0.0511
N6940 X-0.2548 Y0.0452
N6945 X-0.256 Y0.0393
N6950 X-0.257 Y0.0334
N6955 X-0.2579 Y0.0275
N6960 X-0.2586 Y0.0215
N6965 X-0.2591 Y0.0156
N6970 X-0.2595 Y0.0096
N6975 X-0.2597 Y0.0036
N6980 Y-0.0024
N6985 X-0.2596 Y-0.0084
N6990 X-0.2592 Y-0.0144
N6995 X-0.2587 Y-0.0204
N7000 X-0.2581 Y-0.0264
N7005 X-0.2572 Y-0.0323
N7010 X-0.2562 Y-0.0382
N7015 X-0.2551 Y-0.0441
N7020 X-0.2537 Y-0.0499
N7025 X-0.2522 Y-0.0558
N7030 X-0.2505 Y-0.0615
N7035 X-0.2487 Y-0.0672
N7040 X-0.2467 Y-0.0729
N7045 X-0.2445 Y-0.0785
N7050 X-0.2422 Y-0.084
N7055 X-0.2397 Y-0.0895
N7060 X-0.2371 Y-0.0949
N7065 X-0.2343 Y-0.1002
N7070 X-0.2314 Y-0.1054
N7075 X-0.2283 Y-0.1106
N7080 X-0.2251 Y-0.1156
N7085 X-0.2217 Y-0.1206
N7090 X-0.2182 Y-0.1254
N7095 X-0.2145 Y-0.1302
N7100 X-0.2107 Y-0.1348
N7105 X-0.2068 Y-0.1394
N7110 X-0.2028 Y-0.1438
N7115 X-0.1986 Y-0.1481
N7120 X-0.1943 Y-0.1523
N7125 X-0.1899 Y-0.1564
N7130 X-0.1854 Y-0.1603
N7135 X-0.1807 Y-0.1641
N7140 X-0.176 Y-0.1678
N7145 X-0.1711 Y-0.1713
N7150 X-0.1662 Y-0.1747
N7155 X-0.1611 Y-0.178
N7160 X-0.156 Y-0.1811
N7165 X-0.1508 Y-0.184
N7170 X-0.1455 Y-0.1869
N7175 X-0.1401 Y-0.1895
N7180 X-0.1346 Y-0.192
N7185 X-0.1291 Y-0.1943
N7190 X-0.1235 Y-0.1965
N7195 X-0.1179 Y-0.1986
N7200 X-0.1122 Y-0.2004
N7205 X-0.1064 Y-0.2021
N7210 X-0.1006 Y-0.2036
N7215 X-0.0948 Y-0.205
N7220 X-0.0889 Y-0.2062
N7225 X-0.083 Y-0.2072
N7230 X-0.0771 Y-0.2081
N7235 X-0.0711 Y-0.2088
N7240 X-0.0651 Y-0.2093
N7245 X-0.0591 Y-0.2096
N7250 X-0.0531 Y-0.2098
N7255 X-0.0471
N7260 X-0.0411 Y-0.2096
N7265 X-0.0351 Y-0.2093
N7270 X-0.0292 Y-0.2088
N7275 X-0.0232 Y-0.2081
N7280 X-0.0173 Y-0.2073
N7285 X-0.0113 Y-0.2062
N7290 X-0.0055 Y-0.2051
N7295 X0.0004 Y-0.2037
N7300 X0.0062 Y-0.2022
N7305 X0.0119 Y-0.2005
N7310 X0.0176 Y-0.1986
N7315 X0.0233 Y-0.1966
N7320 X0.0289 Y-0.1944
N7325 X0.0344 Y-0.1921
N7330 X0.0399 Y-0.1896
N7335 X0.0453 Y-0.187
N7340 X0.0506 Y-0.1842
N7345 X0.0558 Y-0.1812
N7350 X0.0609 Y-0.1782
N7355 X0.066 Y-0.1749
N7360 X0.071 Y-0.1716
N7365 X0.0758 Y-0.168
N7370 X0.0806 Y-0.1644
N7375 X0.0853 Y-0.1606
N7380 X0.0898 Y-0.1567
N7385 X0.0943 Y-0.1527
N7390 X0.0986 Y-0.1485
N7395 X0.1028 Y-0.1443
N7400 X0.1069 Y-0.1399
N7405 X0.1109 Y-0.1354
N7410 X0.1147 Y-0.1308
N7415 X0.1185 Y-0.1261
N7420 X0.1221 Y-0.1213
N7425 X0.1255 Y-0.1164
N7430 X0.1289 Y-0.1114
N7435 X0.1321 Y-0.1063
N7440 X0.1351 Y-0.1011
N7445 X0.138 Y-0.0958
N7450 X0.1408 Y-0.0905
N7455 X0.1434 Y-0.0851
N7460 X0.1459 Y-0.0796
N7465 X0.1482 Y-0.0741
N7470 X0.1504 Y-0.0685
N7475 X0.1524 Y-0.0628
N7480 X0.1543 Y-0.0571
N7485 X0.156 Y-0.0514
N7490 X0.1575 Y-0.0456
N7495 X0.1589 Y-0.0398
N7500 X0.1601 Y-0.0339
N7505 X0.1612 Y-0.028
N7510 X0.1621 Y-0.022
N7515 X0.1628 Y-0.0161
N7520 X0.1634 Y-0.0101
N7525 X0.1638 Y-0.0041
N7530 X0.164 Y0.0019
N7535 X0.1641 Y0.0079
N7540 X0.164 Y0.0139
N7545 X0.1637 Y0.0199
N7550 X0.1633 Y0.0258
N7555 X0.1627 Y0.0318
N7560 X0.1619 Y0.0378
N7565 X0.161 Y0.0437
N7570 X0.1599 Y0.0496
N7575 X0.1586 Y0.0555
N7580 X0.1572 Y0.0613
N7585 X0.1556 Y0.0671
N7590 X0.1539 Y0.0728
N7595 X0.152 Y0.0785
N7600 X0.1499 Y0.0841
N7605 X0.1477 Y0.0897
N7610 X0.1453 Y0.0952
N7615 X0.1427 Y0.1006
N7620 X0.14 Y0.106
N7625 X0.1372 Y0.1113
N7630 X0.1342 Y0.1165
N7635 X0.1311 Y0.1216
N7640 X0.1278 Y0.1266
N7645 X0.1244 Y0.1316
N7650 X0.1208 Y0.1364
N7655 X0.1171 Y0.1411
N7660 X0.1133 Y0.1458
N7665 X0.1094 Y0.1503
N7670 X0.1053 Y0.1547
N7675 X0.1011 Y0.159
N7680 X0.0968 Y0.1631
N7685 X0.0923 Y0.1672
N7690 X0.0878 Y0.1711
N7695 X0.0831 Y0.1749
N7700 X0.0784 Y0.1785
N7705 X0.0735 Y0.1821
N7710 X0.0686 Y0.1855
N7715 X0.0635 Y0.1887
N7720 X0.0584 Y0.1918
N7725 X0.0532 Y0.1948
N7730 X0.0479 Y0.1976
N7735 X0.0425 Y0.2002
N7740 X0.0371 Y0.2028
N7745 X0.0315 Y0.2051
N7750 X0.026 Y0.2073
N7755 X0.0203 Y0.2094
N7760 X0.0146 Y0.2113
N7765 X0.0089 Y0.213
N7770 X0.0031 Y0.2146
N7775 X-0.0027 Y0.216
N7780 X-0.0086 Y0.2173
N7785 X-0.0145 Y0.2184
N7790 X-0.0204 Y0.2193
N7795 X-0.0264 Y0.2201
N7800 X-0.0323 Y0.2207
N7805 X-0.0383 Y0.2211
N7810 X-0.0443 Y0.2214
N7815 X-0.0503 Y0.2215
N7820 X-0.0563
N7825 X-0.0623 Y0.2212
N7830 X-0.0683 Y0.2209
N7835 X-0.0743 Y0.2203
N7840 X-0.0802 Y0.2196
N7845 X-0.0862 Y0.2187
N7850 X-0.0921 Y0.2177
N7855 X-0.098 Y0.2165
N7860 X-0.1039 Y0.2151
N7865 X-0.1097 Y0.2136
N7870 X-0.1155 Y0.2119
N7875 X-0.1212 Y0.2101
N7880 X-0.1269 Y0.2081
N7885 X-0.1325 Y0.206
N7890 X-0.1381 Y0.2037
N7895 X-0.1436 Y0.2012
N7900 X-0.149 Y0.1986
N7905 X-0.1544 Y0.1959
N7910 X-0.1596 Y0.193
N7915 X-0.1648 Y0.19
N7920 X-0.17 Y0.1868
N7925 X-0.175 Y0.1835
N7930 X-0.18 Y0.18
N7935 X-0.1848 Y0.1764
N7940 X-0.1896 Y0.1727
N7945 X-0.1942 Y0.1688
N7950 X-0.1988 Y0.1648
N7955 X-0.2033 Y0.1607
N7960 X-0.2076 Y0.1565
N7965 X-0.2118 Y0.1522
N7970 X-0.2159 Y0.1477
N7975 X-0.2199 Y0.1431
N7980 X-0.2237 Y0.1384
N7985 X-0.2274 Y0.1337
N7990 X-0.231 Y0.1288
N7995 X-0.2345 Y0.1238
N8000 X-0.2378 Y0.1188
N8005 X-0.2409 Y0.1136
N8010 X-0.244 Y0.1084
N8015 X-0.2468 Y0.1031
N8020 X-0.2496 Y0.0977
N8025 X-0.2522 Y0.0922
N8030 X-0.2546 Y0.0866
N8035 X-0.2569 Y0.081
N8040 X-0.259 Y0.0754
N8045 X-0.261 Y0.0696
N8050 X-0.2629 Y0.0638
N8055 X-0.2645 Y0.058
N8060 X-0.266 Y0.0521
N8065 X-0.2674 Y0.0462
N8070 X-0.2686 Y0.0403
N8075 X-0.2696 Y0.0343
N8080 X-0.2704 Y0.0282
N8085 X-0.2711 Y0.0222
N8090 X-0.2717 Y0.0162
N8095 X-0.272 Y0.0101
N8100 X-0.2722 Y0.0041
N8105 X-0.2723 Y-0.002
N8110 X-0.2721 Y-0.0081
N8115 X-0.2718 Y-0.0141
N8120 X-0.2714 Y-0.0201
N8125 X-0.2708 Y-0.0261
N8130 X-0.27 Y-0.0321
N8135 X-0.269 Y-0.0381
N8140 X-0.2679 Y-0.0441
N8145 X-0.2666 Y-0.05
N8150 X-0.2652 Y-0.0559
N8155 X-0.2636 Y-0.0618
N8160 X-0.2618 Y-0.0676
N8165 X-0.2599 Y-0.0733
N8170 X-0.2578 Y-0.079
N8175 X-0.2556 Y-0.0847
N8180 X-0.2532 Y-0.0903
N8185 X-0.2506 Y-0.0958
N8190 X-0.2479 Y-0.1013
N8195 X-0.2451 Y-0.1067
N8200 X-0.2421 Y-0.1119
N8205 X-0.239 Y-0.1171
N8210 X-0.2357 Y-0.1222
N8215 X-0.2323 Y-0.1273
N8220 X-0.2288 Y-0.1322
N8225 X-0.2252 Y-0.137
N8230 X-0.2214 Y-0.1417
N8235 X-0.2174 Y-0.1463
N8240 X-0.2134 Y-0.1508
N8245 X-0.2092 Y-0.1552
N8250 X-0.2049 Y-0.1595
N8255 X-0.2005 Y-0.1637
N8260 X-0.196 Y-0.1677
N8265 X-0.1914 Y-0.1717
N8270 X-0.1866 Y-0.1755
N8275 X-0.1818 Y-0.1791
N8280 X-0.1768 Y-0.1827
N8285 X-0.1718 Y-0.1861
N8290 X-0.1666 Y-0.1893
N8295 X-0.1614 Y-0.1924
N8300 X-0.1561 Y-0.1954
N8305 X-0.1508 Y-0.1982
N8310 X-0.1453 Y-0.2009
N8315 X-0.1398 Y-0.2034
N8320 X-0.1342 Y-0.2058
N8325 X-0.1286 Y-0.208
N8330 X-0.1229 Y-0.2101
N8335 X-0.1172 Y-0.212
N8340 X-0.1114 Y-0.2138
N8345 X-0.1055 Y-0.2153
N8350 X-0.0996 Y-0.2168
N8355 X-0.0937 Y-0.2181
N8360 X-0.0877 Y-0.2192
N8365 X-0.0817 Y-0.2201
N8370 X-0.0757 Y-0.2209
N8375 X-0.0697 Y-0.2215
N8380 X-0.0636 Y-0.222
N8385 X-0.0575 Y-0.2223
N8390 X-0.0515 Y-0.2224
N8395 X-0.0454 Y-0.2223
N8400 X-0.0393 Y-0.2221
N8405 X-0.0332 Y-0.2217
N8410 X-0.0272 Y-0.2212
N8415 X-0.0211 Y-0.2205
N8420 X-0.0151 Y-0.2196
N8425 X-0.0091 Y-0.2186
N8430 X-0.0032 Y-0.2174
N8435 X0.0027 Y-0.216
N8440 X0.0086 Y-0.2145
N8445 X0.0145 Y-0.2128
N8450 X0.0203 Y-0.211
N8455 X0.0261 Y-0.209
N8460 X0.0318 Y-0.2068
N8465 X0.0374 Y-0.2045
N8470 X0.043 Y-0.202
N8475 X0.0486 Y-0.1994
N8480 X0.0541 Y-0.1966
N8485 X0.0595 Y-0.1936
N8490 X0.0648 Y-0.1905
N8495 X0.0701 Y-0.1873
N8500 X0.0753 Y-0.1839
N8505 X0.0804 Y-0.1803
N8510 X0.0854 Y-0.1767
N8515 X0.0903 Y-0.1728
N8520 X0.0951 Y-0.1688
N8525 X0.0998 Y-0.1647
N8530 X0.1044 Y-0.1605
N8535 X0.109 Y-0.1561
N8540 X0.1133 Y-0.1516
N8545 X0.1176 Y-0.147
N8550 X0.1218 Y-0.1422
N8555 X0.1258 Y-0.1373
N8560 X0.1297 Y-0.1323
N8565 X0.1334 Y-0.1273
N8570 X0.137 Y-0.1221
N8575 X0.1405 Y-0.1168
N8580 X0.1438 Y-0.1114
N8585 X0.147 Y-0.1059
N8590 X0.1501 Y-0.1004
N8595 X0.1529 Y-0.0947
N8600 X0.1557 Y-0.089
N8605 X0.1582 Y-0.0832
N8610 X0.1606 Y-0.0773
N8615 X0.1629 Y-0.0714
N8620 X0.1649 Y-0.0655
N8625 X0.1669 Y-0.0594
N8630 X0.1686 Y-0.0534
N8635 X0.1702 Y-0.0473
N8640 X0.1716 Y-0.0411
N8645 X0.1728 Y-0.0349
N8650 X0.1739 Y-0.0287
N8655 X0.1748 Y-0.0225
N8660 X0.1755 Y-0.0163
N8665 X0.1761 Y-0.0101
N8670 X0.1765 Y-0.0038
N8675 X0.1767 Y0.0024
N8680 X0.1768 Y0.0086
N8685 X0.1766 Y0.0149
N8690 X0.1763 Y0.0211
N8695 X0.1759 Y0.0273
N8700 X0.1752 Y0.0335
N8705 X0.1745 Y0.0396
N8710 X0.1735 Y0.0458
N8715 X0.1724 Y0.0519
N8720 X0.1711 Y0.0579
N8725 X0.1696 Y0.0639
N8730 X0.168 Y0.0699
N8735 X0.1662 Y0.0758
N8740 X0.1643 Y0.0816
N8745 X0.1622 Y0.0874
N8750 X0.1599 Y0.0931
N8755 X0.1575 Y0.0988
N8760 X0.1549 Y0.1044
N8765 X0.1522 Y0.1099
N8770 X0.1494 Y0.1154
N8775 X0.1464 Y0.1208
N8780 X0.1432 Y0.126
N8785 X0.1399 Y0.1313
N8790 X0.1364 Y0.1364
N8795 X0.1328 Y0.1414
N8800 X0.1291 Y0.1463
N8805 X0.1253 Y0.1511
N8810 X0.1213 Y0.1559
N8815 X0.1171 Y0.1605
N8820 X0.1129 Y0.165
N8825 X0.1085 Y0.1694
N8830 X0.104 Y0.1736
N8835 X0.0994 Y0.1778
N8840 X0.0947 Y0.1818
N8845 X0.0899 Y0.1857
N8850 X0.0849 Y0.1894
N8855 X0.0799 Y0.193
N8860 X0.0747 Y0.1965
N8865 X0.0695 Y0.1999
N8870 X0.0642 Y0.2031
N8875 X0.0587 Y0.2061
N8880 X0.0532 Y0.2091
N8885 X0.0476 Y0.2118
N8890 X0.0419 Y0.2144
N8895 X0.0362 Y0.2169
N8900 X0.0304 Y0.2192
N8905 X0.0245 Y0.2214
N8910 X0.0185 Y0.2233
N8915 X0.0125 Y0.2252
N8920 X0.0065 Y0.2268
N8925 X0.0004 Y0.2283
N8930 X-0.0058 Y0.2297
N8935 X-0.0119 Y0.2308
N8940 X-0.0181 Y0.2318
N8945 X-0.0244 Y0.2326
N8950 X-0.0306 Y0.2333
N8955 X-0.0369 Y0.2338
N8960 X-0.0432 Y0.2341
N8965 X-0.0495 Y0.2342
N8970 X-0.0559
N8975 X-0.0622 Y0.234
N8980 X-0.0685 Y0.2336
N8985 X-0.0748 Y0.2331
N8990 X-0.0811 Y0.2323
N8995 X-0.0874 Y0.2314
N9000 X-0.0937 Y0.2304
N9005 X-0.0999 Y0.2291
N9010 X-0.1061 Y0.2277
N9015 X-0.1123 Y0.2261
N9020 X-0.1184 Y0.2244
N9025 X-0.1244 Y0.2225
N9030 X-0.1304 Y0.2204
N9035 X-0.1364 Y0.2182
N9040 X-0.1423 Y0.2158
N9045 X-0.1481 Y0.2132
N9050 X-0.1539 Y0.2105
N9055 X-0.1595 Y0.2076
N9060 X-0.1652 Y0.2046
N9065 X-0.1707 Y0.2014
N9070 X-0.1761 Y0.198
N9075 X-0.1815 Y0.1945
N9080 X-0.1867 Y0.1909
N9085 X-0.1919 Y0.1871
N9090 X-0.1969 Y0.1832
N9095 X-0.2019 Y0.1791
N9100 X-0.2067 Y0.1749
N9105 X-0.2114 Y0.1706
N9110 X-0.216 Y0.1662
N9115 X-0.2205 Y0.1616
N9120 X-0.2248 Y0.1569
N9125 X-0.229 Y0.1521
N9130 X-0.2331 Y0.1472
N9135 X-0.2371 Y0.1421
N9140 X-0.2409 Y0.137
N9145 X-0.2445 Y0.1317
N9150 X-0.2481 Y0.1264
N9155 X-0.2514 Y0.121
N9160 X-0.2547 Y0.1154
N9165 X-0.2577 Y0.1098
N9170 X-0.2607 Y0.1041
N9175 X-0.2634 Y0.0983
N9180 X-0.266 Y0.0925
N9185 X-0.2685 Y0.0866
N9190 X-0.2708 Y0.0806
N9195 X-0.2729 Y0.0745
N9200 X-0.2748 Y0.0684
N9205 X-0.2766 Y0.0622
N9210 X-0.2783 Y0.056
N9215 X-0.2797 Y0.0498
N9220 X-0.281 Y0.0435
N9225 X-0.2821 Y0.0372
N9230 X-0.283 Y0.0308
N9235 X-0.2838 Y0.0245
N9240 X-0.2844 Y0.0181
N9245 X-0.2848 Y0.0117
N9250 X-0.285 Y0.0053
N9255 X-0.2851 Y-0.0011
N9260 X-0.285 Y-0.0075
N9265 X-0.2847 Y-0.0139
N9270 X-0.2842 Y-0.0203
N9275 X-0.2836 Y-0.0267
N9280 X-0.2828 Y-0.0331
N9285 X-0.2818 Y-0.0394
N9290 X-0.2806 Y-0.0457
N9295 X-0.2793 Y-0.052
N9300 X-0.2778 Y-0.0582
N9305 X-0.2761 Y-0.0644
N9310 X-0.2743 Y-0.0706
N9315 X-0.2723 Y-0.0767
N9320 X-0.2701 Y-0.0827
N9325 X-0.2677 Y-0.0887
N9330 X-0.2652 Y-0.0946
N9335 X-0.2626 Y-0.1005
N9340 X-0.2598 Y-0.1062
N9345 X-0.2568 Y-0.1119
N9350 X-0.2537 Y-0.1175
N9355 X-0.2504 Y-0.123
N9360 X-0.247 Y-0.1284
N9365 X-0.2434 Y-0.1338
N9370 X-0.2397 Y-0.139
N9375 X-0.2358 Y-0.1441
N9380 X-0.2318 Y-0.1491
N9385 X-0.2277 Y-0.154
N9390 X-0.2234 Y-0.1588
N9395 X-0.219 Y-0.1635
N9400 X-0.2145 Y-0.1681
N9405 X-0.2099 Y-0.1725
N9410 X-0.2051 Y-0.1768
N9415 X-0.2002 Y-0.181
N9420 X-0.1952 Y-0.185
N9425 X-0.1901 Y-0.1889
N9430 X-0.1849 Y-0.1926
N9435 X-0.1796 Y-0.1963
N9440 X-0.1742 Y-0.1997
N9445 X-0.1687 Y-0.203
N9450 X-0.1631 Y-0.2062
N9455 X-0.1574 Y-0.2092
N9460 X-0.1517 Y-0.2121
N9465 X-0.1459 Y-0.2148
N9470 X-0.14 Y-0.2173
N9475 X-0.134 Y-0.2197
N9480 X-0.128 Y-0.2219
N9485 X-0.1219 Y-0.2239
N9490 X-0.1158 Y-0.2258
N9495 X-0.1096 Y-0.2275
N9500 X-0.1034 Y-0.2291
N9505 X-0.0971 Y-0.2304
N9510 X-0.0908 Y-0.2316
N9515 X-0.0845 Y-0.2327
N9520 X-0.0781 Y-0.2335
N9525 X-0.0717 Y-0.2342
N9530 X-0.0653 Y-0.2347
N9535 X-0.0589 Y-0.235
N9540 X-0.0525 Y-0.2352
N9545 X-0.046
N9550 X-0.0396 Y-0.235
N9555 X-0.0332 Y-0.2346
N9560 X-0.0268 Y-0.234
N9565 X-0.0204 Y-0.2333
N9570 X-0.0141 Y-0.2324
N9575 X-0.0077 Y-0.2314
N9580 X-0.0014 Y-0.2301
N9585 X0.0049 Y-0.2287
N9590 X0.0111 Y-0.2271
N9595 X0.0174 Y-0.2254
N9600 X0.0235 Y-0.2234
N9605 X0.0296 Y-0.2213
N9610 X0.0357 Y-0.2191
N9615 X0.0417 Y-0.2166
N9620 X0.0477 Y-0.214
N9625 X0.0536 Y-0.2112
N9630 X0.0594 Y-0.2083
N9635 X0.0651 Y-0.2052
N9640 X0.0708 Y-0.202
N9645 X0.0764 Y-0.1985
N9650 X0.0819 Y-0.195
N9655 X0.0873 Y-0.1912
N9660 X0.0926 Y-0.1874
N9665 X0.0978 Y-0.1833
N9670 X0.1029 Y-0.1792
N9675 X0.1079 Y-0.1748
N9680 X0.1128 Y-0.1704
N9685 X0.1175 Y-0.1658
N9690 X0.1222 Y-0.161
N9695 X0.1267 Y-0.1562
N9700 X0.1311 Y-0.1512
N9705 X0.1354 Y-0.1461
N9710 X0.1395 Y-0.1408
N9715 X0.1435 Y-0.1355
N9720 X0.1473 Y-0.13
N9725 X0.151 Y-0.1245
N9730 X0.1545 Y-0.1188
N9735 X0.1579 Y-0.1131
N9740 X0.1611 Y-0.1072
N9745 X0.1641 Y-0.1013
N9750 X0.167 Y-0.0953
N9755 X0.1698 Y-0.0892
N9760 X0.1723 Y-0.083
N9765 X0.1747 Y-0.0768
N9770 X0.1769 Y-0.0705
N9775 X0.179 Y-0.0642
N9780 X0.1808 Y-0.0578
N9785 X0.1825 Y-0.0514
N9790 X0.184 Y-0.0449
N9795 X0.1854 Y-0.0384
N9800 X0.1865 Y-0.0319
N9805 X0.1875 Y-0.0253
N9810 X0.1883 Y-0.0187
N9815 X0.1889 Y-0.0122
N9820 X0.1894 Y-0.0056
N9825 X0.1896 Y0.001
N9830 X0.1897 Y0.0076
N9835 X0.1896 Y0.0142
N9840 X0.1893 Y0.0208
N9845 X0.1888 Y0.0273
N9850 X0.1882 Y0.0339
N9855 X0.1874 Y0.0404
N9860 X0.1864 Y0.0469
N9865 X0.1852 Y0.0533
N9870 X0.1839 Y0.0597
N9875 X0.1824 Y0.0661
N9880 X0.1807 Y0.0724
N9885 X0.1788 Y0.0786
N9890 X0.1768 Y0.0848
N9895 X0.1746 Y0.091
N9900 X0.1722 Y0.097
N9905 X0.1697 Y0.1031
N9910 X0.167 Y0.109
N9915 X0.1642 Y0.1149
N9920 X0.1611 Y0.1207
N9925 X0.158 Y0.1264
N9930 X0.1547 Y0.132
N9935 X0.1512 Y0.1375
N9940 X0.1475 Y0.1429
N9945 X0.1438 Y0.1483
N9950 X0.1398 Y0.1535
N9955 X0.1358 Y0.1586
N9960 X0.1316 Y0.1636
N9965 X0.1272 Y0.1685
N9970 X0.1228 Y0.1733
N9975 X0.1182 Y0.1779
N9980 X0.1134 Y0.1825
N9985 X0.1086 Y0.1869
N9990 X0.1036 Y0.1911
N9995 X0.0985 Y0.1953
N10000 X0.0933 Y0.1993
N10005 X0.088 Y0.2031
N10010 X0.0826 Y0.2068
N10015 X0.077 Y0.2104
N10020 X0.0714 Y0.2138
N10025 X0.0657 Y0.217
N10030 X0.0599 Y0.2202
N10035 X0.054 Y0.2231
N10040 X0.048 Y0.2259
N10045 X0.0419 Y0.2285
N10050 X0.0358 Y0.231
N10055 X0.0296 Y0.2333
N10060 X0.0233 Y0.2354
N10065 X0.017 Y0.2373
N10070 X0.0106 Y0.2391
N10075 X0.0042 Y0.2407
N10080 X-0.0023 Y0.2421
N10085 X-0.0088 Y0.2434
N10090 X-0.0154 Y0.2445
N10095 X-0.022 Y0.2454
N10100 X-0.0286 Y0.2461
N10105 X-0.0352 Y0.2466
N10110 X-0.0419 Y0.247
N10115 X-0.0486 Y0.2472
N10120 X-0.0552
N10125 X-0.0619 Y0.247
N10130 X-0.0686 Y0.2466
N10135 X-0.0752 Y0.246
N10140 X-0.0819 Y0.2453
N10145 X-0.0885 Y0.2444
N10150 X-0.0951 Y0.2433
N10155 X-0.1017 Y0.242
N10160 X-0.1082 Y0.2406
N10165 X-0.1147 Y0.2389
N10170 X-0.1212 Y0.2371
N10175 X-0.1276 Y0.2351
N10180 X-0.134 Y0.2329
N10185 X-0.1403 Y0.2306
N10190 X-0.1465 Y0.2281
N10195 X-0.1527 Y0.2254
N10200 X-0.1587 Y0.2226
N10205 X-0.1648 Y0.2195
N10210 X-0.1707 Y0.2164
N10215 X-0.1765 Y0.213
N10220 X-0.1823 Y0.2095
N10225 X-0.1879 Y0.2058
N10230 X-0.1935 Y0.202
N10235 X-0.199 Y0.1981
N10240 X-0.2043 Y0.1939
N10245 X-0.2095 Y0.1897
N10250 X-0.2146 Y0.1853
N10255 X-0.2196 Y0.1807
N10260 X-0.2245 Y0.1761
N10265 X-0.2292 Y0.1713
N10270 X-0.2338 Y0.1663
N10275 X-0.2383 Y0.1613
N10280 X-0.2426 Y0.1561
N10285 X-0.2468 Y0.1508
N10290 X-0.2509 Y0.1454
N10295 X-0.2547 Y0.1399
N10300 X-0.2585 Y0.1342
N10305 X-0.2621 Y0.1285
N10310 X-0.2655 Y0.1227
N10315 X-0.2688 Y0.1168
N10320 X-0.2719 Y0.1108
N10325 X-0.2748 Y0.1047
N10330 X-0.2776 Y0.0985
N10335 X-0.2802 Y0.0923
N10340 X-0.2827 Y0.086
N10345 X-0.2849 Y0.0796
N10350 X-0.287 Y0.0731
N10355 X-0.2889 Y0.0666
N10360 X-0.2907 Y0.0601
N10365 X-0.2922 Y0.0535
N10370 X-0.2936 Y0.0469
N10375 X-0.2948 Y0.0402
N10380 X-0.2958 Y0.0336
N10385 X-0.2966 Y0.0268
N10390 X-0.2973 Y0.0201
N10395 X-0.2977 Y0.0134
N10400 X-0.298 Y0.0066
N10405 X-0.2981 Y-0.0002
N10410 X-0.298 Y-0.0069
N10415 X-0.2977 Y-0.0137
N10420 X-0.2973 Y-0.0205
N10425 X-0.2966 Y-0.0272
N10430 X-0.2958 Y-0.0339
N10435 X-0.2948 Y-0.0406
N10440 X-0.2936 Y-0.0473
N10445 X-0.2922 Y-0.0539
N10450 X-0.2906 Y-0.0605
N10455 X-0.2889 Y-0.0671
N10460 X-0.287 Y-0.0736
N10465 X-0.2849 Y-0.08
N10470 X-0.2826 Y-0.0864
N10475 X-0.2802 Y-0.0927
N10480 X-0.2776 Y-0.0989
N10485 X-0.2748 Y-0.1051
N10490 X-0.2719 Y-0.1112
N10495 X-0.2687 Y-0.1172
N10500 X-0.2655 Y-0.1231
N10505 X-0.262 Y-0.129
N10510 X-0.2584 Y-0.1347
N10515 X-0.2547 Y-0.1403
N10520 X-0.2508 Y-0.1459
N10525 X-0.2467 Y-0.1513
N10530 X-0.2425 Y-0.1566
N10535 X-0.2382 Y-0.1618
N10540 X-0.2337 Y-0.1669
N10545 X-0.2291 Y-0.1718
N10550 X-0.2243 Y-0.1767
N10555 X-0.2194 Y-0.1814
N10560 X-0.2144 Y-0.1859
N10565 X-0.2093 Y-0.1903
N10570 X-0.204 Y-0.1946
N10575 X-0.1987 Y-0.1987
N10580 X-0.1932 Y-0.2027
N10585 X-0.1876 Y-0.2066
N10590 X-0.1819 Y-0.2102
N10595 X-0.1761 Y-0.2138
N10600 X-0.1703 Y-0.2171
N10605 X-0.1643 Y-0.2203
N10610 X-0.1583 Y-0.2234
N10615 X-0.1521 Y-0.2262
N10620 X-0.1459 Y-0.2289
N10625 X-0.1396 Y-0.2315
N10630 X-0.1333 Y-0.2338
N10635 X-0.1269 Y-0.236
N10640 X-0.1204 Y-0.238
N10645 X-0.1139 Y-0.2399
N10650 X-0.1073 Y-0.2415
N10655 X-0.1007 Y-0.243
N10660 X-0.094 Y-0.2443
N10665 X-0.0874 Y-0.2454
N10670 X-0.0806 Y-0.2463
N10675 X-0.0739 Y-0.2471
N10680 X-0.0672 Y-0.2476
N10685 X-0.0604 Y-0.248
N10690 X-0.0536 Y-0.2482
N10695 X-0.0468
N10700 X-0.04 Y-0.248
N10705 X-0.0333 Y-0.2477
N10710 X-0.0265 Y-0.2471
N10715 X-0.0197 Y-0.2464
N10720 X-0.013 Y-0.2455
N10725 X-0.0063 Y-0.2444
N10730 X0.0004 Y-0.2431
N10735 X0.007 Y-0.2416
N10740 X0.0136 Y-0.2399
N10745 X0.0202 Y-0.2381
N10750 X0.0267 Y-0.2361
N10755 X0.0332 Y-0.2339
N10760 X0.0396 Y-0.2315
N10765 X0.046 Y-0.229
N10770 X0.0523 Y-0.2263
N10775 X0.0585 Y-0.2234
N10780 X0.0647 Y-0.2203
N10785 X0.0707 Y-0.217
N10790 X0.0767 Y-0.2136
N10795 X0.0826 Y-0.21
N10800 X0.0885 Y-0.2063
N10805 X0.0942 Y-0.2024
N10810 X0.0998 Y-0.1983
N10815 X0.1053 Y-0.1941
N10820 X0.1107 Y-0.1897
N10825 X0.116 Y-0.1852
N10830 X0.1211 Y-0.1805
N10835 X0.1262 Y-0.1757
N10840 X0.1311 Y-0.1707
N10845 X0.1359 Y-0.1656
N10850 X0.1405 Y-0.1604
N10855 X0.145 Y-0.155
N10860 X0.1494 Y-0.1495
N10865 X0.1536 Y-0.1439
N10870 X0.1576 Y-0.1382
N10875 X0.1615 Y-0.1324
N10880 X0.1653 Y-0.1264
N10885 X0.1688 Y-0.1204
N10890 X0.1722 Y-0.1143
N10895 X0.1755 Y-0.108
N10900 X0.1785 Y-0.1017
N10905 X0.1814 Y-0.0953
N10910 X0.1842 Y-0.0889
N10915 X0.1867 Y-0.0823
N10920 X0.1891 Y-0.0757
N10925 X0.1912 Y-0.0691
N10930 X0.1932 Y-0.0624
N10935 X0.195 Y-0.0556
N10940 X0.1967 Y-0.0488
N10945 X0.1981 Y-0.042
N10950 X0.1993 Y-0.0351
N10955 X0.2004 Y-0.0282
N10960 X0.2013 Y-0.0213
N10965 X0.2019 Y-0.0143
N10970 X0.2024 Y-0.0074
N10975 X0.2027 Y-0.0005
N10980 X0.2028 Y0.0065
N10985 Y0.0134
N10990 X0.2025 Y0.0204
N10995 X0.202 Y0.0273
N11000 X0.2014 Y0.0342
N11005 X0.2005 Y0.041
N11010 X0.1995 Y0.0479
N11015 X0.1983 Y0.0547
N11020 X0.1969 Y0.0615
N11025 X0.1953 Y0.0682
N11030 X0.1936 Y0.0748
N11035 X0.1917 Y0.0815
N11040 X0.1895 Y0.088
N11045 X0.1872 Y0.0945
N11050 X0.1848 Y0.101
N11055 X0.1821 Y0.1073
N11060 X0.1793 Y0.1136
N11065 X0.1763 Y0.1198
N11070 X0.1732 Y0.1259
N11075 X0.1698 Y0.132
N11080 X0.1664 Y0.1379
N11085 X0.1627 Y0.1438
N11090 X0.1589 Y0.1495
N11095 X0.1549 Y0.1552
N11100 X0.1508 Y0.1607
N11105 X0.1466 Y0.1661
N11110 X0.1421 Y0.1714
N11115 X0.1376 Y0.1766
N11120 X0.1329 Y0.1817
N11125 X0.128 Y0.1866
N11130 X0.1231 Y0.1914
N11135 X0.118 Y0.196
N11140 X0.1127 Y0.2006
N11145 X0.1074 Y0.205
N11150 X0.1019 Y0.2092
N11155 X0.0963 Y0.2133
N11160 X0.0906 Y0.2172
N11165 X0.0848 Y0.221
N11170 X0.0789 Y0.2246
N11175 X0.0728 Y0.2281
N11180 X0.0667 Y0.2314
N11185 X0.0605 Y0.2345
N11190 X0.0542 Y0.2375
N11195 X0.0478 Y0.2403
N11200 X0.0414 Y0.2429
N11205 X0.0348 Y0.2453
N11210 X0.0282 Y0.2476
N11215 X0.0216 Y0.2497
N11220 X0.0149 Y0.2516
N11225 X0.0081 Y0.2533
N11230 X0.0013 Y0.2548
N11235 X-0.0056 Y0.2562
N11240 X-0.0125 Y0.2573
N11245 X-0.0195 Y0.2583
N11250 X-0.0264 Y0.2591
N11255 X-0.0334 Y0.2597
N11260 X-0.0404 Y0.2601
N11265 X-0.0475 Y0.2603
N11270 X-0.0545
N11275 X-0.0615 Y0.2602
N11280 X-0.0685 Y0.2598
N11285 X-0.0756 Y0.2592
N11290 X-0.0826 Y0.2585
N11295 X-0.0896 Y0.2576
N11300 X-0.0965 Y0.2564
N11305 X-0.1034 Y0.2551
N11310 X-0.1103 Y0.2536
N11315 X-0.1172 Y0.2519
N11320 X-0.124 Y0.25
N11325 X-0.1308 Y0.248
N11330 X-0.1375 Y0.2457
N11335 X-0.1441 Y0.2433
N11340 X-0.1507 Y0.2406
N11345 X-0.1572 Y0.2378
N11350 X-0.1636 Y0.2349
N11355 X-0.17 Y0.2317
N11360 X-0.1762 Y0.2284
N11365 X-0.1824 Y0.2249
N11370 X-0.1885 Y0.2212
N11375 X-0.1944 Y0.2174
N11380 X-0.2003 Y0.2134
N11385 X-0.2061 Y0.2092
N11390 X-0.2117 Y0.2049
N11395 X-0.2172 Y0.2005
N11400 X-0.2226 Y0.1959
N11405 X-0.2279 Y0.1911
N11410 X-0.2331 Y0.1862
N11415 X-0.2381 Y0.1811
N11420 X-0.2429 Y0.176
N11425 X-0.2477 Y0.1707
N11430 X-0.2522 Y0.1652
N11435 X-0.2567 Y0.1597
N11440 X-0.261 Y0.154
N11445 X-0.2651 Y0.1482
N11450 X-0.269 Y0.1423
N11455 X-0.2728 Y0.1362
N11460 X-0.2765 Y0.1301
N11465 X-0.28 Y0.1239
N11470 X-0.2833 Y0.1176
N11475 X-0.2864 Y0.1112
N11480 X-0.2893 Y0.1047
N11485 X-0.2921 Y0.0982
N11490 X-0.2947 Y0.0915
N11495 X-0.2971 Y0.0848
N11500 X-0.2993 Y0.078
N11505 X-0.3014 Y0.0712
N11510 X-0.3032 Y0.0643
N11515 X-0.3049 Y0.0574
N11520 X-0.3064 Y0.0504
N11525 X-0.3077 Y0.0434
N11530 X-0.3088 Y0.0364
N11535 X-0.3097 Y0.0293
N11540 X-0.3104 Y0.0222
N11545 X-0.3109 Y0.0151
N11550 X-0.3112 Y0.008
N11555 X-0.3113 Y0.0009
N11560 Y-0.0063
N11565 X-0.311 Y-0.0134
N11570 X-0.3105 Y-0.0205
N11575 X-0.3099 Y-0.0276
N11580 X-0.309 Y-0.0347
N11585 X-0.308 Y-0.0417
N11590 X-0.3068 Y-0.0488
N11595 X-0.3053 Y-0.0558
N11600 X-0.3037 Y-0.0627
N11605 X-0.3019 Y-0.0696
N11610 X-0.2999 Y-0.0765
N11615 X-0.2978 Y-0.0832
N11620 X-0.2954 Y-0.09
N11625 X-0.2929 Y-0.0966
N11630 X-0.2901 Y-0.1032
N11635 X-0.2872 Y-0.1097
N11640 X-0.2842 Y-0.1162
N11645 X-0.2809 Y-0.1225
N11650 X-0.2775 Y-0.1288
N11655 X-0.2739 Y-0.1349
N11660 X-0.2701 Y-0.141
N11665 X-0.2662 Y-0.147
N11670 X-0.2621 Y-0.1528
N11675 X-0.2579 Y-0.1585
N11680 X-0.2535 Y-0.1641
N11685 X-0.2489 Y-0.1696
N11690 X-0.2442 Y-0.175
N11695 X-0.2394 Y-0.1802
N11700 X-0.2344 Y-0.1853
N11705 X-0.2292 Y-0.1903
N11710 X-0.224 Y-0.1951
N11715 X-0.2186 Y-0.1998
N11720 X-0.2131 Y-0.2043
N11725 X-0.2075 Y-0.2087
N11730 X-0.2017 Y-0.2129
N11735 X-0.1958 Y-0.217
N11740 X-0.1899 Y-0.2209
N11745 X-0.1838 Y-0.2246
N11750 X-0.1776 Y-0.2282
N11755 X-0.1713 Y-0.2316
N11760 X-0.165 Y-0.2348
N11765 X-0.1585 Y-0.2379
N11770 X-0.152 Y-0.2407
N11775 X-0.1454 Y-0.2434
N11780 X-0.1387 Y-0.2459
N11785 X-0.132 Y-0.2483
N11790 X-0.1252 Y-0.2504
N11795 X-0.1183 Y-0.2524
N11800 X-0.1114 Y-0.2541
N11805 X-0.1044 Y-0.2557
N11810 X-0.0974 Y-0.2571
N11815 X-0.0904 Y-0.2583
N11820 X-0.0833 Y-0.2593
N11825 X-0.0762 Y-0.2601
N11830 X-0.0691 Y-0.2608
N11835 X-0.062 Y-0.2612
N11840 X-0.0548 Y-0.2614
N11845 X-0.0477
N11850 X-0.0405 Y-0.2613
N11855 X-0.0334 Y-0.2609
N11860 X-0.0263 Y-0.2604
N11865 X-0.0191 Y-0.2596
N11870 X-0.012 Y-0.2587
N11875 X-0.005 Y-0.2576
N11880 X0.0021 Y-0.2562
N11885 X0.0091 Y-0.2547
N11890 X0.0161 Y-0.253
N11895 X0.023 Y-0.2511
N11900 X0.0299 Y-0.249
N11905 X0.0367 Y-0.2467
N11910 X0.0435 Y-0.2442
N11915 X0.0502 Y-0.2416
N11920 X0.0569 Y-0.2387
N11925 X0.0635 Y-0.2357
N11930 X0.07 Y-0.2325
N11935 X0.0764 Y-0.2291
N11940 X0.0827 Y-0.2255
N11945 X0.0889 Y-0.2218
N11950 X0.0951 Y-0.2179
N11955 X0.1011 Y-0.2138
N11960 X0.107 Y-0.2095
N11965 X0.1128 Y-0.2051
N11970 X0.1185 Y-0.2005
N11975 X0.1241 Y-0.1958
N11980 X0.1296 Y-0.1909
N11985 X0.1349 Y-0.1858
N11990 X0.1401 Y-0.1806
N11995 X0.1451 Y-0.1753
N12000 X0.15 Y-0.1698
N12005 X0.1548 Y-0.1642
N12010 X0.1594 Y-0.1585
N12015 X0.1638 Y-0.1526
N12020 X0.1681 Y-0.1466
N12025 X0.1722 Y-0.1405
N12030 X0.1761 Y-0.1343
N12035 X0.1799 Y-0.1279
N12040 X0.1835 Y-0.1215
N12045 X0.187 Y-0.115
N12050 X0.1902 Y-0.1084
N12055 X0.1933 Y-0.1017
N12060 X0.1962 Y-0.0949
N12065 X0.1988 Y-0.088
N12070 X0.2014 Y-0.0811
N12075 X0.2037 Y-0.0741
N12080 X0.2058 Y-0.0671
N12085 X0.2077 Y-0.06
N12090 X0.2095 Y-0.0528
N12095 X0.211 Y-0.0457
N12100 X0.2123 Y-0.0384
N12105 X0.2135 Y-0.0312
N12110 X0.2144 Y-0.0239
N12115 X0.2152 Y-0.0166
N12120 X0.2157 Y-0.0093
N12125 X0.216 Y-0.002
N12130 X0.2162 Y0.0053
N12135 X0.2161 Y0.0126
N12140 X0.2159 Y0.0199
N12145 X0.2154 Y0.0272
N12150 X0.2148 Y0.0344
N12155 X0.2139 Y0.0417
N12160 X0.2129 Y0.0489
N12165 X0.2116 Y0.056
N12170 X0.2102 Y0.0632
N12175 X0.2086 Y0.0703
N12180 X0.2067 Y0.0773
N12185 X0.2047 Y0.0843
N12190 X0.2025 Y0.0912
N12195 X0.2001 Y0.0981
N12200 X0.1976 Y0.1049
N12205 X0.1948 Y0.1116
N12210 X0.1919 Y0.1182
N12215 X0.1887 Y0.1248
N12220 X0.1854 Y0.1312
N12225 X0.182 Y0.1376
N12230 X0.1783 Y0.1439
N12235 X0.1745 Y0.1501
N12240 X0.1705 Y0.1561
N12245 X0.1664 Y0.1621
N12250 X0.162 Y0.1679
N12255 X0.1576 Y0.1737
N12260 X0.1529 Y0.1793
N12265 X0.1482 Y0.1848
N12270 X0.1432 Y0.1901
N12275 X0.1382 Y0.1953
N12280 X0.1329 Y0.2004
N12285 X0.1276 Y0.2053
N12290 X0.1221 Y0.2101
N12295 X0.1165 Y0.2147
N12300 X0.1107 Y0.2192
N12305 X0.1048 Y0.2236
N12310 X0.0988 Y0.2277
N12315 X0.0927 Y0.2317
N12320 X0.0865 Y0.2356
N12325 X0.0802 Y0.2392
N12330 X0.0738 Y0.2427
N12335 X0.0672 Y0.2461
N12340 X0.0606 Y0.2492
N12345 X0.0539 Y0.2522
N12350 X0.0471 Y0.255
N12355 X0.0403 Y0.2576
N12360 X0.0334 Y0.26
N12365 X0.0263 Y0.2622
N12370 X0.0193 Y0.2642
N12375 X0.0122 Y0.2661
N12380 X0.005 Y0.2677
N12385 X-0.0022 Y0.2691
N12390 X-0.0095 Y0.2704
N12395 X-0.0168 Y0.2715
N12400 X-0.0241 Y0.2723
N12405 X-0.0315 Y0.273
N12410 X-0.0388 Y0.2734
N12415 X-0.0462 Y0.2737
N12420 X-0.0536
N12425 X-0.061 Y0.2736
N12430 X-0.0684 Y0.2732
N12435 X-0.0758 Y0.2727
N12440 X-0.0832 Y0.2719
N12445 X-0.0905 Y0.271
N12450 X-0.0978 Y0.2698
N12455 X-0.1051 Y0.2684
N12460 X-0.1124 Y0.2669
N12465 X-0.1196 Y0.2651
N12470 X-0.1268 Y0.2632
N12475 X-0.1339 Y0.261
N12480 X-0.141 Y0.2587
N12485 X-0.1479 Y0.2561
N12490 X-0.1549 Y0.2534
N12495 X-0.1617 Y0.2505
N12500 X-0.1685 Y0.2474
N12505 X-0.1752 Y0.2441
N12510 X-0.1818 Y0.2406
N12515 X-0.1883 Y0.237
N12520 X-0.1947 Y0.2332
N12525 X-0.201 Y0.2292
N12530 X-0.2071 Y0.225
N12535 X-0.2132 Y0.2207
N12540 X-0.2192 Y0.2161
N12545 X-0.225 Y0.2115
N12550 X-0.2307 Y0.2066
N12555 X-0.2363 Y0.2017
N12560 X-0.2417 Y0.1965
N12565 X-0.247 Y0.1913
N12570 X-0.2521 Y0.1858
N12575 X-0.2571 Y0.1803
N12580 X-0.262 Y0.1746
N12585 X-0.2666 Y0.1687
N12590 X-0.2712 Y0.1628
N12595 X-0.2755 Y0.1567
N12600 X-0.2797 Y0.1505
N12605 X-0.2837 Y0.1442
N12610 X-0.2876 Y0.1378
N12615 X-0.2913 Y0.1313
N12620 X-0.2948 Y0.1246
N12625 X-0.2981 Y0.1179
N12630 X-0.3012 Y0.1111
N12635 X-0.3042 Y0.1042
N12640 X-0.3069 Y0.0973
N12645 X-0.3095 Y0.0902
N12650 X-0.3118 Y0.0831
N12655 X-0.314 Y0.076
N12660 X-0.316 Y0.0687
N12665 X-0.3178 Y0.0615
N12670 X-0.3194 Y0.0541
N12675 X-0.3207 Y0.0468
N12680 X-0.3219 Y0.0394
N12685 X-0.3229 Y0.0319
N12690 X-0.3237 Y0.0245
N12695 X-0.3242 Y0.017
N12700 X-0.3246 Y0.0095
N12705 X-0.3248 Y0.002
N12710 X-0.3247 Y-0.0055
N12715 X-0.3245 Y-0.013
N12720 X-0.324 Y-0.0205
N12725 X-0.3234 Y-0.0279
N12730 X-0.3225 Y-0.0354
N12735 X-0.3215 Y-0.0428
N12740 X-0.3202 Y-0.0502
N12745 X-0.3187 Y-0.0575
N12750 X-0.3171 Y-0.0649
N12755 X-0.3152 Y-0.0721
N12760 X-0.3131 Y-0.0793
N12765 X-0.3109 Y-0.0865
N12770 X-0.3084 Y-0.0936
N12775 X-0.3058 Y-0.1006
N12780 X-0.3029 Y-0.1075
N12785 X-0.2999 Y-0.1144
N12790 X-0.2967 Y-0.1212
N12795 X-0.2933 Y-0.1278
N12800 X-0.2897 Y-0.1344
N12805 X-0.286 Y-0.1409
N12810 X-0.2821 Y-0.1473
N12815 X-0.2779 Y-0.1536
N12820 X-0.2737 Y-0.1598
N12825 X-0.2692 Y-0.1658
N12830 X-0.2646 Y-0.1717
N12835 X-0.2599 Y-0.1775
N12840 X-0.2549 Y-0.1832
N12845 X-0.2499 Y-0.1887
N12850 X-0.2446 Y-0.1941
N12855 X-0.2393 Y-0.1993
N12860 X-0.2338 Y-0.2044
N12865 X-0.2281 Y-0.2094
N12870 X-0.2224 Y-0.2142
N12875 X-0.2164 Y-0.2188
N12880 X-0.2104 Y-0.2232
N12885 X-0.2043 Y-0.2275
N12890 X-0.198 Y-0.2317
N12895 X-0.1916 Y-0.2356
N12900 X-0.1851 Y-0.2394
N12905 X-0.1786 Y-0.243
N12910 X-0.1719 Y-0.2464
N12915 X-0.1651 Y-0.2496
N12920 X-0.1583 Y-0.2527
N12925 X-0.1513 Y-0.2556
N12930 X-0.1443 Y-0.2582
N12935 X-0.1372 Y-0.2607
N12940 X-0.1301 Y-0.263
N12945 X-0.1229 Y-0.2651
N12950 X-0.1156 Y-0.267
N12955 X-0.1083 Y-0.2687
N12960 X-0.1009 Y-0.2702
N12965 X-0.0935 Y-0.2714
N12970 X-0.0861 Y-0.2725
N12975 X-0.0787 Y-0.2734
N12980 X-0.0712 Y-0.2741
N12985 X-0.0637 Y-0.2746
N12990 X-0.0562 Y-0.2749
N12995 X-0.0486
N13000 X-0.0411 Y-0.2748
N13005 X-0.0336 Y-0.2744
N13010 X-0.0261 Y-0.2739
N13015 X-0.0186 Y-0.2731
N13020 X-0.0111 Y-0.2722
N13025 X-0.0037 Y-0.271
N13030 X0.0038 Y-0.2697
N13035 X0.0111 Y-0.2681
N13040 X0.0185 Y-0.2663
N13045 X0.0258 Y-0.2643
N13050 X0.0331 Y-0.2622
N13055 X0.0403 Y-0.2598
N13060 X0.0474 Y-0.2572
N13065 X0.0545 Y-0.2544
N13070 X0.0615 Y-0.2515
N13075 X0.0684 Y-0.2483
N13080 X0.0752 Y-0.245
N13085 X0.082 Y-0.2414
N13090 X0.0887 Y-0.2377
N13095 X0.0952 Y-0.2338
N13100 X0.1017 Y-0.2297
N13105 X0.108 Y-0.2254
N13110 X0.1143 Y-0.221
N13115 X0.1204 Y-0.2164
N13120 X0.1264 Y-0.2116
N13125 X0.1323 Y-0.2066
N13130 X0.138 Y-0.2015
N13135 X0.1436 Y-0.1962
N13140 X0.1491 Y-0.1908
N13145 X0.1544 Y-0.1852
N13150 X0.1596 Y-0.1795
N13155 X0.1646 Y-0.1736
N13160 X0.1694 Y-0.1676
N13165 X0.1741 Y-0.1615
N13170 X0.1786 Y-0.1552
N13175 X0.183 Y-0.1488
N13180 X0.1871 Y-0.1423
N13185 X0.1911 Y-0.1357
N13190 X0.1949 Y-0.129
N13195 X0.1986 Y-0.1221
N13200 X0.202 Y-0.1152
N13205 X0.2052 Y-0.1082
N13210 X0.2083 Y-0.1011
N13215 X0.2112 Y-0.0939
N13220 X0.2138 Y-0.0867
N13225 X0.2163 Y-0.0793
N13230 X0.2185 Y-0.072
N13235 X0.2206 Y-0.0645
N13240 X0.2224 Y-0.057
N13245 X0.2241 Y-0.0495
N13250 X0.2255 Y-0.0419
N13255 X0.2267 Y-0.0343
N13260 X0.2278 Y-0.0267
N13265 X0.2286 Y-0.019
N13270 X0.2292 Y-0.0114
N13275 X0.2296 Y-0.0037
N13280 X0.2297 Y0.004
N13285 Y0.0116
N13290 X0.2295 Y0.0193
N13295 X0.229 Y0.027
N13300 X0.2284 Y0.0346
N13305 X0.2275 Y0.0422
N13310 X0.2264 Y0.0498
N13315 X0.2252 Y0.0573
N13320 X0.2237 Y0.0648
N13325 X0.222 Y0.0723
N13330 X0.2201 Y0.0797
N13335 X0.218 Y0.0871
N13340 X0.2158 Y0.0944
N13345 X0.2133 Y0.1016
N13350 X0.2106 Y0.1087
N13355 X0.2077 Y0.1158
N13360 X0.2046 Y0.1228
N13365 X0.2014 Y0.1297
N13370 X0.1979 Y0.1365
N13375 X0.1943 Y0.1432
N13380 X0.1905 Y0.1499
N13385 X0.1865 Y0.1564
N13390 X0.1824 Y0.1628
N13395 X0.178 Y0.1691
N13400 X0.1735 Y0.1752
N13405 X0.1688 Y0.1813
N13410 X0.164 Y0.1872
N13415 X0.159 Y0.193
N13420 X0.1538 Y0.1986
N13425 X0.1485 Y0.2041
N13430 X0.143 Y0.2095
N13435 X0.1374 Y0.2147
N13440 X0.1317 Y0.2197
N13445 X0.1258 Y0.2246
N13450 X0.1198 Y0.2294
N13455 X0.1136 Y0.234
N13460 X0.1073 Y0.2384
N13465 X0.1009 Y0.2426
N13470 X0.0944 Y0.2467
N13475 X0.0878 Y0.2505
N13480 X0.081 Y0.2542
N13485 X0.0742 Y0.2578
N13490 X0.0673 Y0.2611
N13495 X0.0602 Y0.2642
N13500 X0.0531 Y0.2672
N13505 X0.0459 Y0.2699
N13510 X0.0386 Y0.2725
N13515 X0.0313 Y0.2749
N13520 X0.0239 Y0.277
N13525 X0.0164 Y0.279
N13530 X0.0089 Y0.2808
N13535 X0.0013 Y0.2823
N13540 X-0.0063 Y0.2837
N13545 X-0.014 Y0.2848
N13550 X-0.0217 Y0.2857
N13555 X-0.0294 Y0.2864
N13560 X-0.0371 Y0.287
N13565 X-0.0449 Y0.2872
N13570 X-0.0526 Y0.2873
N13575 X-0.0604 Y0.2872
N13580 X-0.0682 Y0.2869
N13585 X-0.0759 Y0.2863
N13590 X-0.0837 Y0.2856
N13595 X-0.0914 Y0.2846
N13600 X-0.0991 Y0.2834
N13605 X-0.1067 Y0.282
N13610 X-0.1144 Y0.2804
N13615 X-0.122 Y0.2786
N13620 X-0.1295 Y0.2766
N13625 X-0.137 Y0.2743
N13630 X-0.1444 Y0.2719
N13635 X-0.1517 Y0.2693
N13640 X-0.159 Y0.2664
N13645 X-0.1662 Y0.2634
N13650 X-0.1733 Y0.2602
N13655 X-0.1804 Y0.2568
N13660 X-0.1873 Y0.2532
N13665 X-0.1941 Y0.2493
N13670 X-0.2009 Y0.2454
N13675 X-0.2075 Y0.2412
N13680 X-0.214 Y0.2368
N13685 X-0.2204 Y0.2323
N13690 X-0.2267 Y0.2276
N13695 X-0.2328 Y0.2227
N13700 X-0.2388 Y0.2177
N13705 X-0.2447 Y0.2125
N13710 X-0.2504 Y0.2071
N13715 X-0.256 Y0.2016
N13720 X-0.2614 Y0.1959
N13725 X-0.2667 Y0.1901
N13730 X-0.2718 Y0.1841
N13735 X-0.2767 Y0.178
N13740 X-0.2815 Y0.1718
N13745 X-0.2861 Y0.1654
N13750 X-0.2905 Y0.159
N13755 X-0.2948 Y0.1523
N13760 X-0.2988 Y0.1456
N13765 X-0.3027 Y0.1388
N13770 X-0.3064 Y0.1319
N13775 X-0.3099 Y0.1248
N13780 X-0.3132 Y0.1177
N13785 X-0.3163 Y0.1105
N13790 X-0.3193 Y0.1032
N13795 X-0.322 Y0.0958
N13800 X-0.3245 Y0.0884
N13805 X-0.3268 Y0.0808
N13810 X-0.3289 Y0.0733
N13815 X-0.3308 Y0.0656
N13820 X-0.3325 Y0.058
N13825 X-0.334 Y0.0502
N13830 X-0.3353 Y0.0425
N13835 X-0.3363 Y0.0347
N13840 X-0.3372 Y0.0269
N13845 X-0.3378 Y0.019
N13850 X-0.3382 Y0.0112
N13855 X-0.3384 Y0.0033
N13860 Y-0.0046
N13865 X-0.3382 Y-0.0124
N13870 X-0.3377 Y-0.0203
N13875 X-0.3371 Y-0.0281
N13880 X-0.3362 Y-0.036
N13885 X-0.3351 Y-0.0438
N13890 X-0.3338 Y-0.0515
N13895 X-0.3323 Y-0.0593
N13900 X-0.3306 Y-0.0669
N13905 X-0.3287 Y-0.0746
N13910 X-0.3266 Y-0.0821
N13915 X-0.3242 Y-0.0897
N13920 X-0.3217 Y-0.0971
N13925 X-0.3189 Y-0.1045
N13930 X-0.316 Y-0.1118
N13935 X-0.3128 Y-0.119
N13940 X-0.3095 Y-0.1261
N13945 X-0.306 Y-0.1332
N13950 X-0.3022 Y-0.1401
N13955 X-0.2983 Y-0.1469
N13960 X-0.2942 Y-0.1537
N13965 X-0.2899 Y-0.1603
N13970 X-0.2855 Y-0.1668
N13975 X-0.2808 Y-0.1731
N13980 X-0.276 Y-0.1794
N13985 X-0.2711 Y-0.1855
N13990 X-0.2659 Y-0.1914
N13995 X-0.2606 Y-0.1972
N14000 X-0.2552 Y-0.2029
N14005 X-0.2495 Y-0.2084
N14010 X-0.2438 Y-0.2138
N14015 X-0.2379 Y-0.219
N14020 X-0.2318 Y-0.2241
N14025 X-0.2257 Y-0.2289
N14030 X-0.2193 Y-0.2337
N14035 X-0.2129 Y-0.2382
N14040 X-0.2063 Y-0.2425
N14045 X-0.1997 Y-0.2467
N14050 X-0.1929 Y-0.2507
N14055 X-0.186 Y-0.2545
N14060 X-0.179 Y-0.2581
N14065 X-0.1719 Y-0.2616
N14070 X-0.1647 Y-0.2648
N14075 X-0.1574 Y-0.2678
N14080 X-0.1501 Y-0.2707
N14085 X-0.1427 Y-0.2733
N14090 X-0.1352 Y-0.2757
N14095 X-0.1276 Y-0.2779
N14100 X-0.12 Y-0.28
N14105 X-0.1123 Y-0.2818
N14110 X-0.1046 Y-0.2834
N14115 X-0.0969 Y-0.2848
N14120 X-0.0891 Y-0.2859
N14125 X-0.0812 Y-0.2869
N14130 X-0.0734 Y-0.2876
N14135 X-0.0655 Y-0.2882
N14140 X-0.0576 Y-0.2885
N14145 X-0.0497 Y-0.2886
N14150 X-0.0418 Y-0.2885
N14155 X-0.0339 Y-0.2882
N14160 X-0.026 Y-0.2876
N14165 X-0.0181 Y-0.2869
N14170 X-0.0103 Y-0.2859
N14175 X-0.0025 Y-0.2847
N14180 X0.0053 Y-0.2833
N14185 X0.0131 Y-0.2817
N14190 X0.0208 Y-0.2798
N14195 X0.0285 Y-0.2778
N14200 X0.0361 Y-0.2755
N14205 X0.0437 Y-0.2731
N14210 X0.0512 Y-0.2704
N14215 X0.0587 Y-0.2675
N14220 X0.066 Y-0.2645
N14225 X0.0733 Y-0.2612
N14230 X0.0805 Y-0.2577
N14235 X0.0876 Y-0.254
N14240 X0.0946 Y-0.2501
N14245 X0.1015 Y-0.2461
N14250 X0.1083 Y-0.2418
N14255 X0.115 Y-0.2373
N14260 X0.1215 Y-0.2327
N14265 X0.128 Y-0.2279
N14270 X0.1343 Y-0.2229
N14275 X0.1405 Y-0.2177
N14280 X0.1465 Y-0.2124
N14285 X0.1524 Y-0.2069
N14290 X0.1582 Y-0.2012
N14295 X0.1638 Y-0.1954
N14300 X0.1692 Y-0.1894
N14305 X0.1745 Y-0.1833
N14310 X0.1796 Y-0.177
N14315 X0.1845 Y-0.1706
N14320 X0.1893 Y-0.164
N14325 X0.1938 Y-0.1574
N14330 X0.1982 Y-0.1506
N14335 X0.2024 Y-0.1436
N14340 X0.2065 Y-0.1366
N14345 X0.2103 Y-0.1295
N14350 X0.2139 Y-0.1222
N14355 X0.2173 Y-0.1149
N14360 X0.2206 Y-0.1075
N14365 X0.2236 Y-0.1
N14370 X0.2264 Y-0.0924
N14375 X0.229 Y-0.0847
N14380 X0.2314 Y-0.077
N14385 X0.2336 Y-0.0692
N14390 X0.2356 Y-0.0614
N14395 X0.2373 Y-0.0535
N14400 X0.2389 Y-0.0455
N14405 X0.2402 Y-0.0376
N14410 X0.2413 Y-0.0296
N14415 X0.2422 Y-0.0216
N14420 X0.2428 Y-0.0135
N14425 X0.2433 Y-0.0055
N14430 X0.2435 Y0.0026
N14435 Y0.0106
N14440 X0.2433 Y0.0187
N14445 X0.2428 Y0.0267
N14450 X0.2422 Y0.0347
N14455 X0.2413 Y0.0427
N14460 X0.2402 Y0.0507
N14465 X0.2389 Y0.0586
N14470 X0.2374 Y0.0665
N14475 X0.2357 Y0.0743
N14480 X0.2337 Y0.0821
N14485 X0.2316 Y0.0898
N14490 X0.2292 Y0.0975
N14495 X0.2266 Y0.1051
N14500 X0.2238 Y0.1126
N14505 X0.2208 Y0.12
N14510 X0.2177 Y0.1274
N14515 X0.2143 Y0.1346
N14520 X0.2107 Y0.1418
N14525 X0.2069 Y0.1489
N14530 X0.2029 Y0.1559
N14535 X0.1988 Y0.1627
N14540 X0.1944 Y0.1694
N14545 X0.1899 Y0.1761
N14550 X0.1852 Y0.1825
N14555 X0.1803 Y0.1889
N14560 X0.1752 Y0.1951
N14565 X0.17 Y0.2012
N14570 X0.1646 Y0.2072
N14575 X0.1591 Y0.213
N14580 X0.1534 Y0.2186
N14585 X0.1475 Y0.2241
N14590 X0.1415 Y0.2294
N14595 X0.1353 Y0.2346
N14600 X0.129 Y0.2396
N14605 X0.1226 Y0.2444
N14610 X0.116 Y0.2491
N14615 X0.1093 Y0.2535
N14620 X0.1025 Y0.2578
N14625 X0.0955 Y0.2619
N14630 X0.0885 Y0.2658
N14635 X0.0813 Y0.2696
N14640 X0.0741 Y0.2731
N14645 X0.0667 Y0.2764
N14650 X0.0593 Y0.2795
N14655 X0.0517 Y0.2825
N14660 X0.0441 Y0.2852
N14665 X0.0364 Y0.2877
N14670 X0.0286 Y0.29
N14675 X0.0208 Y0.2921
N14680 X0.0129 Y0.294
N14685 X0.005 Y0.2956
N14690 X-0.003 Y0.2971
N14695 X-0.011 Y0.2983
N14700 X-0.0191 Y0.2993
N14705 X-0.0272 Y0.3001
N14710 X-0.0353 Y0.3007
N14715 X-0.0434 Y0.301
N14720 X-0.0515 Y0.3011
N14725 X-0.0597 Y0.301
N14730 X-0.0678 Y0.3007
N14735 X-0.076 Y0.3002
N14740 X-0.0841 Y0.2994
N14745 X-0.0922 Y0.2984
N14750 X-0.1002 Y0.2972
N14755 X-0.1083 Y0.2958
N14760 X-0.1163 Y0.2941
N14765 X-0.1242 Y0.2922
N14770 X-0.1321 Y0.2902
N14775 X-0.14 Y0.2879
N14780 X-0.1478 Y0.2853
N14785 X-0.1555 Y0.2826
N14790 X-0.1631 Y0.2797
N14795 X-0.1707 Y0.2765
N14800 X-0.1782 Y0.2732
N14805 X-0.1855 Y0.2696
N14810 X-0.1928 Y0.2659
N14815 X-0.2 Y0.2619
N14820 X-0.2071 Y0.2578
N14825 X-0.214 Y0.2534
N14830 X-0.2209 Y0.2489
N14835 X-0.2276 Y0.2442
N14840 X-0.2342 Y0.2393
N14845 X-0.2406 Y0.2342
N14850 X-0.2469 Y0.2289
N14855 X-0.2531 Y0.2235
N14860 X-0.2591 Y0.2179
N14865 X-0.265 Y0.2121
N14870 X-0.2707 Y0.2062
N14875 X-0.2762 Y0.2001
N14880 X-0.2816 Y0.1939
N14885 X-0.2868 Y0.1875
N14890 X-0.2918 Y0.181
N14895 X-0.2967 Y0.1744
N14900 X-0.3014 Y0.1676
N14905 X-0.3058 Y0.1607
N14910 X-0.3101 Y0.1537
N14915 X-0.3142 Y0.1465
N14920 X-0.3181 Y0.1393
N14925 X-0.3219 Y0.1319
N14930 X-0.3254 Y0.1245
N14935 X-0.3287 Y0.1169
N14940 X-0.3317 Y0.1093
N14945 X-0.3346 Y0.1016
N14950 X-0.3373 Y0.0938
N14955 X-0.3398 Y0.0859
N14960 X-0.342 Y0.078
N14965 X-0.344 Y0.07
N14970 X-0.3458 Y0.0619
N14975 X-0.3474 Y0.0538
N14980 X-0.3488 Y0.0457
N14985 X-0.3499 Y0.0376
N14990 X-0.3508 Y0.0294
N14995 X-0.3515 Y0.0211
N15000 X-0.352 Y0.0129
N15005 X-0.3522 Y0.0047
N15010 X-0.3523 Y-0.0036
N15015 X-0.3521 Y-0.0118
N15020 X-0.3516 Y-0.0201
N15025 X-0.351 Y-0.0283
N15030 X-0.3501 Y-0.0365
N15035 X-0.349 Y-0.0447
N15040 X-0.3477 Y-0.0528
N15045 X-0.3461 Y-0.0609
N15050 X-0.3444 Y-0.069
N15055 X-0.3424 Y-0.077
N15060 X-0.3402 Y-0.0849
N15065 X-0.3377 Y-0.0928
N15070 X-0.3351 Y-0.1006
N15075 X-0.3323 Y-0.1084
N15080 X-0.3292 Y-0.116
N15085 X-0.3259 Y-0.1236
N15090 X-0.3225 Y-0.1311
N15095 X-0.3188 Y-0.1385
N15100 X-0.3149 Y-0.1458
N15105 X-0.3108 Y-0.1529
N15110 X-0.3066 Y-0.16
N15115 X-0.3021 Y-0.1669
N15120 X-0.2975 Y-0.1738
N15125 X-0.2926 Y-0.1804
N15130 X-0.2876 Y-0.187
N15135 X-0.2824 Y-0.1934
N15140 X-0.2771 Y-0.1997
N15145 X-0.2716 Y-0.2058
N15150 X-0.2659 Y-0.2118
N15155 X-0.26 Y-0.2176
N15160 X-0.254 Y-0.2232
N15165 X-0.2478 Y-0.2287
N15170 X-0.2415 Y-0.234
N15175 X-0.235 Y-0.2392
N15180 X-0.2285 Y-0.2441
N15185 X-0.2217 Y-0.2489
N15190 X-0.2149 Y-0.2535
N15195 X-0.2079 Y-0.2579
N15200 X-0.2008 Y-0.2621
N15205 X-0.1936 Y-0.2662
N15210 X-0.1863 Y-0.27
N15215 X-0.1789 Y-0.2736
N15220 X-0.1713 Y-0.277
N15225 X-0.1637 Y-0.2802
N15230 X-0.156 Y-0.2832
N15235 X-0.1483 Y-0.286
N15240 X-0.1404 Y-0.2886
N15245 X-0.1325 Y-0.2909
N15250 X-0.1245 Y-0.2931
N15255 X-0.1165 Y-0.295
N15260 X-0.1084 Y-0.2967
N15265 X-0.1003 Y-0.2982
N15270 X-0.0921 Y-0.2995
N15275 X-0.0839 Y-0.3005
N15280 X-0.0757 Y-0.3013
N15285 X-0.0674 Y-0.3019
N15290 X-0.0592 Y-0.3023
N15295 X-0.0509 Y-0.3024
N15300 X-0.0426
N15305 X-0.0343 Y-0.3021
N15310 X-0.0261 Y-0.3015
N15315 X-0.0178 Y-0.3008
N15320 X-0.0096 Y-0.2998
N15325 X-0.0013 Y-0.2986
N15330 X0.0068 Y-0.2971
N15335 X0.015 Y-0.2955
N15340 X0.0231 Y-0.2936
N15345 X0.0312 Y-0.2915
N15350 X0.0392 Y-0.2891
N15355 X0.0471 Y-0.2866
N15360 X0.055 Y-0.2838
N15365 X0.0628 Y-0.2808
N15370 X0.0705 Y-0.2776
N15375 X0.0781 Y-0.2742
N15380 X0.0857 Y-0.2706
N15385 X0.0932 Y-0.2668
N15390 X0.1005 Y-0.2627
N15395 X0.1078 Y-0.2585
N15400 X0.1149 Y-0.2541
N15405 X0.1219 Y-0.2494
N15410 X0.1288 Y-0.2446
N15415 X0.1356 Y-0.2396
N15420 X0.1422 Y-0.2344
N15425 X0.1487 Y-0.229
N15430 X0.155 Y-0.2235
N15435 X0.1612 Y-0.2177
N15440 X0.1673 Y-0.2118
N15445 X0.1731 Y-0.2057
N15450 X0.1788 Y-0.1995
N15455 X0.1844 Y-0.1931
N15460 X0.1897 Y-0.1866
N15465 X0.1949 Y-0.1799
N15470 X0.1999 Y-0.173
N15475 X0.2048 Y-0.1661
N15480 X0.2094 Y-0.159
N15485 X0.2138 Y-0.1518
N15490 X0.2181 Y-0.1444
N15495 X0.2221 Y-0.137
N15500 X0.2259 Y-0.1294
N15505 X0.2295 Y-0.1218
N15510 X0.2329 Y-0.114
N15515 X0.2361 Y-0.1062
N15520 X0.2391 Y-0.0982
N15525 X0.2419 Y-0.0902
N15530 X0.2444 Y-0.0821
N15535 X0.2467 Y-0.074
N15540 X0.2488 Y-0.0658
N15545 X0.2507 Y-0.0576
N15550 X0.2523 Y-0.0493
N15555 X0.2538 Y-0.0409
N15560 X0.2549 Y-0.0326
N15565 X0.2559 Y-0.0242
N15570 X0.2566 Y-0.0158
N15575 X0.2571 Y-0.0074
N15580 X0.2574 Y0.0011
N15585 Y0.0095
N15590 X0.2572 Y0.0179
N15595 X0.2568 Y0.0263
N15600 X0.2562 Y0.0347
N15605 X0.2557 Y0.0392
N15610 X0.2553 Y0.0422
N15615 X0.2549 Y0.0452
N15620 X0.2544 Y0.0482
N15625 X0.2502 Y0.0708
N15630 X0.2499 Y0.0723
N15635 X0.2497 Y0.0735
N15640 X0.2469 Y0.0849
N15645 X0.246 Y0.088
N15650 X0.2451 Y0.091
N15655 X0.244 Y0.0939
N15660 G3 X0.2112 Y0.1071 Z-0.262 R0.025
N15665 X0.1969 Y0.0775 R0.025
N15670 G1 X0.2008 Y0.0631
N15675 G3 X0.2287 Y0.045 R0.025
N15680 X0.2497 Y0.0735 Z-0.27 R0.025
N15685 G1 X0.2485 Y0.0796
N15690 X0.2476 Y0.0841
N15695 X0.2461 Y0.0885
N15700 X0.2305 Y0.1287
N15705 X0.2289 Y0.1327
N15710 X0.2259 Y0.1397
N15715 X0.1993 Y0.1826
N15720 X0.1972 Y0.1858
N15725 X0.1904 Y0.1935
N15730 X0.1639 Y0.2227
N15735 X0.1565 Y0.2301
N15740 X0.1151 Y0.2613
N15745 X0.1129 Y0.2629
N15750 X0.1107 Y0.2641
N15755 X0.0664 Y0.2862
N15760 X0.062 Y0.2883
N15765 X0.0576 Y0.2897
N15770 X0.0133 Y0.3023
N15775 X0.0044 Y0.3043
N15780 X-0.0399 Y0.3084
N15785 X-0.0487 Y0.3092
N15790 X-0.0576 Y0.3087
N15795 X-0.1019 Y0.3046
N15800 X-0.1063 Y0.3041
N15805 X-0.1107 Y0.303
N15810 X-0.1594 Y0.2892
N15815 X-0.1639 Y0.2874
N15820 X-0.2081 Y0.2654
N15825 X-0.2126 Y0.2631
N15830 X-0.217 Y0.2599
N15835 X-0.2565 Y0.2301
N15840 X-0.2589 Y0.228
N15845 X-0.2613 Y0.2255
N15850 X-0.2894 Y0.1947
N15855 X-0.2967 Y0.1865
N15860 X-0.2972 Y0.1858
N15865 X-0.3056 Y0.1724
N15870 X-0.3247 Y0.1416
N15875 X-0.3272 Y0.1372
N15880 X-0.3289 Y0.1327
N15885 X-0.3461 Y0.0885
N15890 X-0.3476 Y0.0841
N15895 X-0.3485 Y0.0796
N15900 X-0.3568 Y0.0354
N15905 X-0.3581 Y0.0265
N15910 Y-0.0265
N15915 X-0.3568 Y-0.0354
N15920 X-0.3485 Y-0.0796
N15925 X-0.3476 Y-0.0841
N15930 X-0.3461 Y-0.0885
N15935 X-0.3289 Y-0.1327
N15940 X-0.3272 Y-0.1372
N15945 X-0.3247 Y-0.1416
N15950 X-0.3028 Y-0.177
N15955 X-0.2972 Y-0.1858
N15960 X-0.2967 Y-0.1865
N15965 X-0.2878 Y-0.1964
N15970 X-0.2613 Y-0.2255
N15975 X-0.2589 Y-0.228
N15980 X-0.2565 Y-0.2301
N15985 X-0.217 Y-0.2599
N15990 X-0.2126 Y-0.2631
N15995 X-0.208 Y-0.2655
N16000 X-0.1639 Y-0.2874
N16005 X-0.1594 Y-0.2892
N16010 X-0.1107 Y-0.303
N16015 X-0.1063 Y-0.3041
N16020 X-0.1019 Y-0.3046
N16025 X-0.0576 Y-0.3087
N16030 X-0.0487 Y-0.3092
N16035 X-0.031 Y-0.3076
N16040 X0.0044 Y-0.3043
N16045 X0.0133 Y-0.3023
N16050 X0.0576 Y-0.2897
N16055 X0.062 Y-0.2883
N16060 X0.0664 Y-0.2862
N16065 X0.1107 Y-0.2641
N16070 X0.1129 Y-0.2629
N16075 X0.1151 Y-0.2613
N16080 X0.1565 Y-0.2301
N16085 X0.1639 Y-0.2227
N16090 X0.1904 Y-0.1935
N16095 X0.1972 Y-0.1858
N16100 X0.1993 Y-0.1826
N16105 X0.2259 Y-0.1397
N16110 X0.2289 Y-0.1327
N16115 X0.2461 Y-0.0885
N16120 X0.2476 Y-0.0841
N16125 X0.2485 Y-0.0796
N16130 X0.2568 Y-0.0354
N16135 X0.2581 Y-0.0265
N16140 Y0.0265
N16145 X0.2568 Y0.0354
N16150 X0.2544 Y0.0482
N16155 G3 X0.2328 Y0.0676 R0.025
N16160 G1 X0.229 Y0.068 Z-0.2697
N16165 X0.2252 Y0.0684 Z-0.2688
N16170 X0.2216 Y0.0689 Z-0.2673
N16175 X0.2182 Y0.0692 Z-0.2652
N16180 X0.2153 Y0.0696 Z-0.2627
N16185 X0.2127 Y0.0699 Z-0.2597
N16190 X0.2107 Y0.0701 Z-0.2563
N16195 X0.2092 Y0.0703 Z-0.2527
N16200 X0.2083 Y0.0704 Z-0.2489
N16205 X0.208 Z-0.245
N16210 G0 Z0.6
N16215 M5
N16220 M9
N16225 M30
%
