%
(OUTLINE)
(T1 D=0.25 CR=0. - ZMIN=-0.29 - FLAT END MILL)
N10 G90 G94 G17 G91.1
N15 G20
(-ATTENTION- PROPERTY SAFE RETRACTS IS SET TO CLEARANCE HEIGHT.)
(ENSURE THE CLEARANCE HEIGHT WILL CLEAR THE PART AND OR FIXTURES.)
(RAISE THE Z-AXIS TO A SAFE HEIGHT BEFORE STARTING THE PROGRAM.)
(OUTLINE)
N20 T1 M6
N25 S12000 M3
N30 G17 G90 G94
N35 G54
N40 G64 P0.0004 Q0.0004
N45 M8
N50 G0 X-2.0524 Y1.1018
N55 G43 Z0.6 H1
N60 G0 Z0.2
N65 G1 Z0.0394 F15.827
N70 Z-0.015
N75 X-2.0523 Y1.1015 Z-0.0189 F47.48
N80 X-2.0522 Y1.1005 Z-0.0227
N85 X-2.052 Y1.0991 Z-0.0263
N90 X-2.0517 Y1.097 Z-0.0297
N95 X-2.0513 Y1.0945 Z-0.0327
N100 X-2.0509 Y1.0916 Z-0.0352
N105 X-2.0504 Y1.0883 Z-0.0373
N110 X-2.0499 Y1.0847 Z-0.0388
N115 X-2.0493 Y1.0809 Z-0.0397
N120 X-2.0488 Y1.077 Z-0.04
N125 X-2.0452 Y1.0523
N130 G3 X-2.0354 Y1.0358 R0.025
N135 X-2.0168 Y1.0311 R0.025
N140 G1 X0.2818 Y1.3657 F47.1
N145 G2 X0.5766 Y1.3911 R0.8349
N150 X0.8949 Y1.3167 R1.1925
N155 G1 X2.1949 Y0.8167
N160 G2 X2.225 Y0.8 R0.125
N165 X2.375 Y0.5 R0.375
N170 G1 Y-0.5
N175 G2 X2.225 Y-0.8 R0.375
N180 X2.1949 Y-0.8167 R0.125
N185 G1 X0.8949 Y-1.3167
N190 G2 X0.5766 Y-1.3911 R1.1925
N195 X0.2818 Y-1.3657 R0.8349
N200 G1 X-2.0668 Y-1.0239
N205 G2 X-2.3736 Y-0.7187 R0.3632
N210 X-2.375 Y-0.7 R0.125
N215 G1 Y0.7
N220 G2 X-2.3736 Y0.7187 R0.125
N225 X-2.0668 Y1.0239 R0.3632
N230 G1 X-2.0168 Y1.0311
N235 G3 X-2.0004 Y1.0409 R0.025 F47.48
N240 X-1.9957 Y1.0595 R0.025
N245 G1 X-1.9993 Y1.0842
N250 X-1.9999 Y1.0881 Z-0.0397
N255 X-2.0004 Y1.0919 Z-0.0388
N260 X-2.0009 Y1.0955 Z-0.0373
N265 X-2.0014 Y1.0988 Z-0.0352
N270 X-2.0018 Y1.1017 Z-0.0327
N275 X-2.0022 Y1.1042 Z-0.0297
N280 X-2.0025 Y1.1063 Z-0.0263
N285 X-2.0027 Y1.1078 Z-0.0227
N290 X-2.0029 Y1.1087 Z-0.0189
N295 Y1.109 Z-0.015
N300 G0 Z0.6
N305 X-2.0524 Y1.1018
N310 Z0.2
N315 G1 Z0.0394 F15.827
N320 Z-0.065
N325 X-2.0523 Y1.1015 Z-0.0689 F47.48
N330 X-2.0522 Y1.1005 Z-0.0727
N335 X-2.052 Y1.0991 Z-0.0763
N340 X-2.0517 Y1.097 Z-0.0797
N345 X-2.0513 Y1.0945 Z-0.0827
N350 X-2.0509 Y1.0916 Z-0.0852
N355 X-2.0504 Y1.0883 Z-0.0873
N360 X-2.0499 Y1.0847 Z-0.0888
N365 X-2.0493 Y1.0809 Z-0.0897
N370 X-2.0488 Y1.077 Z-0.09
N375 X-2.0452 Y1.0523
N380 G3 X-2.0354 Y1.0358 R0.025
N385 X-2.0168 Y1.0311 R0.025
N390 G1 X0.2818 Y1.3657 F47.1
N395 G2 X0.5766 Y1.3911 R0.8349
N400 X0.8949 Y1.3167 R1.1925
N405 G1 X2.1949 Y0.8167
N410 G2 X2.225 Y0.8 R0.125
N415 X2.375 Y0.5 R0.375
N420 G1 Y-0.5
N425 G2 X2.225 Y-0.8 R0.375
N430 X2.1949 Y-0.8167 R0.125
N435 G1 X0.8949 Y-1.3167
N440 G2 X0.5766 Y-1.3911 R1.1925
N445 X0.2818 Y-1.3657 R0.8349
N450 G1 X-2.0668 Y-1.0239
N455 G2 X-2.3736 Y-0.7187 R0.3632
N460 X-2.375 Y-0.7 R0.125
N465 G1 Y0.7
N470 G2 X-2.3736 Y0.7187 R0.125
N475 X-2.0668 Y1.0239 R0.3632
N480 G1 X-2.0168 Y1.0311
N485 G3 X-2.0004 Y1.0409 R0.025 F47.48
N490 X-1.9957 Y1.0595 R0.025
N495 G1 X-1.9993 Y1.0842
N500 X-1.9999 Y1.0881 Z-0.0897
N505 X-2.0004 Y1.0919 Z-0.0888
N510 X-2.0009 Y1.0955 Z-0.0873
N515 X-2.0014 Y1.0988 Z-0.0852
N520 X-2.0018 Y1.1017 Z-0.0827
N525 X-2.0022 Y1.1042 Z-0.0797
N530 X-2.0025 Y1.1063 Z-0.0763
N535 X-2.0027 Y1.1078 Z-0.0727
N540 X-2.0029 Y1.1087 Z-0.0689
N545 Y1.109 Z-0.065
N550 G0 Z0.2
N555 X-2.0524 Y1.1018
N560 G1 Z-0.0506 F15.827
N565 Z-0.165
N570 X-2.0523 Y1.1015 Z-0.1689 F47.48
N575 X-2.0522 Y1.1005 Z-0.1727
N580 X-2.052 Y1.0991 Z-0.1763
N585 X-2.0517 Y1.097 Z-0.1797
N590 X-2.0513 Y1.0945 Z-0.1827
N595 X-2.0509 Y1.0916 Z-0.1852
N600 X-2.0504 Y1.0883 Z-0.1873
N605 X-2.0499 Y1.0847 Z-0.1888
N610 X-2.0493 Y1.0809 Z-0.1897
N615 X-2.0488 Y1.077 Z-0.19
N620 X-2.0452 Y1.0523
N625 G3 X-2.0354 Y1.0358 R0.025
N630 X-2.0168 Y1.0311 R0.025
N635 G1 X0.2818 Y1.3657 F47.1
N640 G2 X0.5766 Y1.3911 R0.8349
N645 X0.8949 Y1.3167 R1.1925
N650 G1 X2.1949 Y0.8167
N655 G2 X2.225 Y0.8 R0.125
N660 X2.375 Y0.5 R0.375
N665 G1 Y-0.5
N670 G2 X2.225 Y-0.8 R0.375
N675 X2.1949 Y-0.8167 R0.125
N680 G1 X0.8949 Y-1.3167
N685 G2 X0.5766 Y-1.3911 R1.1925
N690 X0.2818 Y-1.3657 R0.8349
N695 G1 X-2.0668 Y-1.0239
N700 G2 X-2.3736 Y-0.7187 R0.3632
N705 X-2.375 Y-0.7 R0.125
N710 G1 Y0.7
N715 G2 X-2.3736 Y0.7187 R0.125
N720 X-2.0668 Y1.0239 R0.3632
N725 G1 X-2.0168 Y1.0311
N730 G3 X-2.0004 Y1.0409 R0.025 F47.48
N735 X-1.9957 Y1.0595 R0.025
N740 G1 X-1.9993 Y1.0842
N745 X-1.9999 Y1.0881 Z-0.1897
N750 X-2.0004 Y1.0919 Z-0.1888
N755 X-2.0009 Y1.0955 Z-0.1873
N760 X-2.0014 Y1.0988 Z-0.1852
N765 X-2.0018 Y1.1017 Z-0.1827
N770 X-2.0022 Y1.1042 Z-0.1797
N775 X-2.0025 Y1.1063 Z-0.1763
N780 X-2.0027 Y1.1078 Z-0.1727
N785 X-2.0029 Y1.1087 Z-0.1689
N790 Y1.109 Z-0.165
N795 G0 Z0.2
N800 X-2.0524 Y1.1018
N805 G1 Z-0.1506 F15.827
N810 Z-0.265
N815 X-2.0523 Y1.1015 Z-0.2689 F47.48
N820 X-2.0522 Y1.1005 Z-0.2727
N825 X-2.052 Y1.0991 Z-0.2763
N830 X-2.0517 Y1.097 Z-0.2797
N835 X-2.0513 Y1.0945 Z-0.2827
N840 X-2.0509 Y1.0916 Z-0.2852
N845 X-2.0504 Y1.0883 Z-0.2873
N850 X-2.0499 Y1.0847 Z-0.2888
N855 X-2.0493 Y1.0809 Z-0.2897
N860 X-2.0488 Y1.077 Z-0.29
N865 X-2.0452 Y1.0523
N870 G3 X-2.0354 Y1.0358 R0.025
N875 X-2.0168 Y1.0311 R0.025
N880 G1 X0.2818 Y1.3657 F47.1
N885 G2 X0.5766 Y1.3911 R0.8349
N890 X0.8949 Y1.3167 R1.1925
N895 G1 X2.1949 Y0.8167
N900 G2 X2.225 Y0.8 R0.125
N905 X2.375 Y0.5 R0.375
N910 G1 Y-0.5
N915 G2 X2.225 Y-0.8 R0.375
N920 X2.1949 Y-0.8167 R0.125
N925 G1 X0.8949 Y-1.3167
N930 G2 X0.5766 Y-1.3911 R1.1925
N935 X0.2818 Y-1.3657 R0.8349
N940 G1 X-2.0668 Y-1.0239
N945 G2 X-2.3736 Y-0.7187 R0.3632
N950 X-2.375 Y-0.7 R0.125
N955 G1 Y0.7
N960 G2 X-2.3736 Y0.7187 R0.125
N965 X-2.0668 Y1.0239 R0.3632
N970 G1 X-2.0168 Y1.0311
N975 G3 X-2.0004 Y1.0409 R0.025 F47.48
N980 X-1.9957 Y1.0595 R0.025
N985 G1 X-1.9993 Y1.0842
N990 X-1.9999 Y1.0881 Z-0.2897
N995 X-2.0004 Y1.0919 Z-0.2888
N1000 X-2.0009 Y1.0955 Z-0.2873
N1005 X-2.0014 Y1.0988 Z-0.2852
N1010 X-2.0018 Y1.1017 Z-0.2827
N1015 X-2.0022 Y1.1042 Z-0.2797
N1020 X-2.0025 Y1.1063 Z-0.2763
N1025 X-2.0027 Y1.1078 Z-0.2727
N1030 X-2.0029 Y1.1087 Z-0.2689
N1035 Y1.109 Z-0.265
N1040 G0 Z0.6
N1045 M5
N1050 M9
N1055 M30
%
