%
(OUTLINE)
(T2 D=0.25 CR=0. - ZMIN=-0.2 - FLAT END MILL)
N10 G90 G94 G17 G91.1
N15 G20
(-ATTENTION- PROPERTY SAFE RETRACTS IS SET TO CLEARANCE HEIGHT.)
(ENSURE THE CLEARANCE HEIGHT WILL CLEAR THE PART AND OR FIXTURES.)
(RAISE THE Z-AXIS TO A SAFE HEIGHT BEFORE STARTING THE PROGRAM.)
(2D OUTLINE)
N20 T2 M6
N25 S5000 M3
N30 G17 G90 G94
N35 G54
N40 G64 P0.0004 Q0.0004
N45 M8
N50 G0 X-1.6718 Y1.5225
N55 G43 Z0.64 H2
N60 G0 Z0.24
N65 G1 Z0.0794 F13.333
N70 Z0.065
N75 G19 G2 Y1.4975 Z0.04 R0.025 F40.
N80 G1 Y1.4725
N85 G17 G3 X-1.6468 Y1.4475 R0.025
N90 G1 X0.7374
N95 G2 X1.1348 Y1.3299 R0.7301
N100 G1 X1.8133 Y1.0133
N105 G2 X1.8354 Y1. R0.125
N110 X1.9854 Y0.7 R0.375
N115 G1 Y-0.7
N120 G2 X1.8354 Y-1. R0.375
N125 X1.8133 Y-1.0133 R0.125
N130 G1 X1.1348 Y-1.3299
N135 G2 X0.7374 Y-1.4475 R0.7301
N140 G1 X-1.6959
N145 G2 X-1.9078 Y-1.3553 R0.2895
N150 X-1.9847 Y-1.1374 R0.2895
N155 G1 Y1.1374
N160 G2 X-1.9078 Y1.3553 R0.2895
N165 X-1.6959 Y1.4475 R0.2895
N170 G1 X-1.6468
N175 G3 X-1.6218 Y1.4725 R0.025
N180 G1 Y1.4975
N185 G19 G3 Y1.5225 Z0.065 R0.025
N190 G0 Z0.24
N195 X-1.6718
N200 G1 Z0.0794 F13.333
N205 Z-0.015
N210 G2 Y1.4975 Z-0.04 R0.025 F40.
N215 G1 Y1.4725
N220 G17 G3 X-1.6468 Y1.4475 R0.025
N225 G1 X0.7374
N230 G2 X1.1348 Y1.3299 R0.7301
N235 G1 X1.8133 Y1.0133
N240 G2 X1.8354 Y1. R0.125
N245 X1.9854 Y0.7 R0.375
N250 G1 Y-0.7
N255 G2 X1.8354 Y-1. R0.375
N260 X1.8133 Y-1.0133 R0.125
N265 G1 X1.1348 Y-1.3299
N270 G2 X0.7374 Y-1.4475 R0.7301
N275 G1 X-1.6959
N280 G2 X-1.9078 Y-1.3553 R0.2895
N285 X-1.9847 Y-1.1374 R0.2895
N290 G1 Y1.1374
N295 G2 X-1.9078 Y1.3553 R0.2895
N300 X-1.6959 Y1.4475 R0.2895
N305 G1 X-1.6468
N310 G3 X-1.6218 Y1.4725 R0.025
N315 G1 Y1.4975
N320 G19 G3 Y1.5225 Z-0.015 R0.025
N325 G0 Z0.24
N330 X-1.6718
N335 G1 Z-0.0006 F13.333
N340 Z-0.095
N345 G2 Y1.4975 Z-0.12 R0.025 F40.
N350 G1 Y1.4725
N355 G17 G3 X-1.6468 Y1.4475 R0.025
N360 G1 X0.7374
N365 G2 X1.1348 Y1.3299 R0.7301
N370 G1 X1.8133 Y1.0133
N375 G2 X1.8354 Y1. R0.125
N380 X1.9854 Y0.7 R0.375
N385 G1 Y-0.7
N390 G2 X1.8354 Y-1. R0.375
N395 X1.8133 Y-1.0133 R0.125
N400 G1 X1.1348 Y-1.3299
N405 G2 X0.7374 Y-1.4475 R0.7301
N410 G1 X-1.6959
N415 G2 X-1.9078 Y-1.3553 R0.2895
N420 X-1.9847 Y-1.1374 R0.2895
N425 G1 Y1.1374
N430 G2 X-1.9078 Y1.3553 R0.2895
N435 X-1.6959 Y1.4475 R0.2895
N440 G1 X-1.6468
N445 G3 X-1.6218 Y1.4725 R0.025
N450 G1 Y1.4975
N455 G19 G3 Y1.5225 Z-0.095 R0.025
N460 G0 Z0.24
N465 X-1.6718
N470 G1 Z-0.0806 F13.333
N475 Z-0.175
N480 G2 Y1.4975 Z-0.2 R0.025 F40.
N485 G1 Y1.4725
N490 G17 G3 X-1.6468 Y1.4475 R0.025
N495 G1 X0.7374
N500 G2 X1.1348 Y1.3299 R0.7301
N505 G1 X1.8133 Y1.0133
N510 G2 X1.8354 Y1. R0.125
N515 X1.9854 Y0.7 R0.375
N520 G1 Y-0.7
N525 G2 X1.8354 Y-1. R0.375
N530 X1.8133 Y-1.0133 R0.125
N535 G1 X1.1348 Y-1.3299
N540 G2 X0.7374 Y-1.4475 R0.7301
N545 G1 X-1.6959
N550 G2 X-1.9078 Y-1.3553 R0.2895
N555 X-1.9847 Y-1.1374 R0.2895
N560 G1 Y1.1374
N565 G2 X-1.9078 Y1.3553 R0.2895
N570 X-1.6959 Y1.4475 R0.2895
N575 G1 X-1.6468
N580 G3 X-1.6218 Y1.4725 R0.025
N585 G1 Y1.4975
N590 G19 G3 Y1.5225 Z-0.175 R0.025
N595 G0 Z0.64
N600 G17
N605 M5
N610 M9
N615 M30
%
