%
(1001)
(T1 D=0.25 CR=0. - ZMIN=-0.29 - FLAT END MILL)
N10 G90 G94 G17 G91.1
N15 G20
(-ATTENTION- PROPERTY SAFE RETRACTS IS SET TO CLEARANCE HEIGHT.)
(ENSURE THE CLEARANCE HEIGHT WILL CLEAR THE PART AND OR FIXTURES.)
(RAISE THE Z-AXIS TO A SAFE HEIGHT BEFORE STARTING THE PROGRAM.)
(DRILLS)
N20 T1 M6
N25 S12000 M3
N30 G17 G90 G94
N35 G54
N40 M8
N45 G0 X-2.045 Y0.585
N50 G43 Z0.6 H1
N55 G0 Z0.2
N60 G98 G81 X-2.045 Y0.585 Z-0.29 R0.16 F15.827
N65 X-1.85 Y0.
N70 X-2.045 Y-0.585
N75 X-0.645
N80 X-1.05 Y0.
N85 X-0.645 Y0.585
N90 X0.4745 Y1.0668
N95 X0.535 Y0.585
N100 X-0.05 Y0.
N105 X0.535 Y-0.585
N110 X0.4745 Y-1.0668
N115 X1.985 Y-0.4
N120 X1.77 Y0.
N125 X1.985 Y0.4
N130 G80
N135 G0 Z0.6
N140 M5
N145 M9
N150 M30
%
