%
(1001)
(T1 D=0.1181 CR=0. - ZMIN=-0.27 - FLAT END MILL)
N10 G90 G94 G17 G91.1
N15 G20
(-ATTENTION- PROPERTY SAFE RETRACTS IS SET TO CLEARANCE HEIGHT.)
(ENSURE THE CLEARANCE HEIGHT WILL CLEAR THE PART AND OR FIXTURES.)
(RAISE THE Z-AXIS TO A SAFE HEIGHT BEFORE STARTING THE PROGRAM.)
(SMALLHOLES)
N20 T1 M6
N25 S12000 M3
N30 G17 G90 G94
N35 G54
N40 G64 P0.004 Q0.004
N45 M8
N50 G0 X-1.4316 Y0.1538
N55 G43 Z0.6 H1
N60 G0 Z0.2
N65 Z0.102
N70 G3 X-1.4366 Y0.242 Z0.0986 R0.0625 F47.48
N75 X-1.4615 Y0.2556 Z0.0976 R0.0625
N80 X-1.5384 Y0.2122 Z0.0941 R0.0624
N85 X-1.5396 Y0.1839 Z0.0931 R0.0624
N90 X-1.4667 Y0.1342 Z0.0897 R0.0624
N95 X-1.4408 Y0.1456 Z0.0887 R0.0624
N100 X-1.4284 Y0.2328 Z0.0853 R0.0623
N105 X-1.45 Y0.251 Z0.0843 R0.0623
N110 X-1.5337 Y0.2236 Z0.0809 R0.0622
N115 X-1.5404 Y0.1962 Z0.0799 R0.0622
N120 X-1.479 Y0.1333 Z0.0764 R0.0621
N125 X-1.4515 Y0.1394 Z0.0754 R0.0621
N130 X-1.4222 Y0.2221 Z0.072 R0.0621
N135 X-1.4398 Y0.2441 Z0.071 R0.0621
N140 X-1.5268 Y0.2339 Z0.0676 R0.062
N145 X-1.5388 Y0.2084 Z0.0666 R0.062
N150 X-1.4912 Y0.1349 Z0.0631 R0.0619
N155 X-1.4631 Y0.1355 Z0.0621 R0.0619
N160 X-1.4183 Y0.2105 Z0.0587 R0.0618
N165 X-1.4311 Y0.2354 Z0.0577 R0.0618
N170 X-1.5182 Y0.2425 Z0.0543 R0.0618
N175 X-1.5348 Y0.22 Z0.0533 R0.0618
N180 X-1.5028 Y0.1389 Z0.0499 R0.0617
N185 X-1.4753 Y0.1339 Z0.0489 R0.0617
N190 X-1.4167 Y0.1984 Z0.0454 R0.0616
N195 X-1.4244 Y0.2253 Z0.0444 R0.0616
N200 X-1.508 Y0.2493 Z0.041 R0.0615
N205 X-1.5287 Y0.2306 Z0.04 R0.0615
N210 X-1.5133 Y0.145 Z0.0366 R0.0614
N215 X-1.4874 Y0.1347 Z0.0356 R0.0614
N220 X-1.4176 Y0.1863 Z0.0321 R0.0614
N225 X-1.4198 Y0.214 Z0.0311 R0.0614
N230 X-1.4967 Y0.2538 Z0.0277 R0.0613
N235 X-1.5206 Y0.2396 Z0.0267 R0.0613
N240 X-1.5224 Y0.1531 Z0.0233 R0.0612
N245 X-1.4991 Y0.138 Z0.0223 R0.0612
N250 X-1.4208 Y0.1746 Z0.0189 R0.0611
N255 X-1.4175 Y0.2021 Z0.0179 R0.0611
N260 X-1.4848 Y0.2561 Z0.0144 R0.0611
N265 X-1.511 Y0.2469 Z0.0134 R0.0611
N270 X-1.5297 Y0.1628 Z0.01 R0.061
N275 X-1.5099 Y0.1434 Z0.009 R0.061
N280 X-1.4262 Y0.1638 Z0.0056 R0.0609
N285 X-1.4176 Y0.19 Z0.0046 R0.0609
N290 X-1.4728 Y0.256 Z0.0011 R0.0608
N295 X-1.5001 Y0.2522 Z0.0001 R0.0608
N300 X-1.5349 Y0.1736 Z-0.0033 R0.0607
N305 X-1.5194 Y0.1508 Z-0.0043 R0.0607
N310 X-1.4337 Y0.1543 Z-0.0077 R0.0607
N315 X-1.4201 Y0.1782 Z-0.0087 R0.0607
N320 X-1.461 Y0.2535 Z-0.0121 R0.0606
N325 X-1.4885 Y0.2551 Z-0.0131 R0.0606
N330 X-1.5379 Y0.1853 Z-0.0166 R0.0605
N335 X-1.5272 Y0.16 Z-0.0176 R0.0605
N340 X-1.4428 Y0.1465 Z-0.021 R0.0604
N345 X-1.4248 Y0.1672 Z-0.022 R0.0604
N350 X-1.45 Y0.2488 Z-0.0254 R0.0604
N355 X-1.4765 Y0.2557 Z-0.0264 R0.0604
N360 X-1.5385 Y0.1972 Z-0.0299 R0.0603
N365 X-1.533 Y0.1704 Z-0.0309 R0.0603
N370 X-1.4532 Y0.1407 Z-0.0343 R0.0602
N375 X-1.4316 Y0.1574 Z-0.0353 R0.0602
N380 X-1.4402 Y0.242 Z-0.0387 R0.0601
N385 X-1.4647 Y0.254 Z-0.0397 R0.0601
N390 X-1.5367 Y0.209 Z-0.0431 R0.0601
N395 Y0.1817 Z-0.0441 R0.0601
N400 X-1.4646 Y0.1371 Z-0.0476 R0.06
N405 X-1.4402 Y0.1491 Z-0.0486 R0.06
N410 X-1.432 Y0.2334 Z-0.052 R0.0599
N415 X-1.4535 Y0.25 Z-0.053 R0.0599
N420 X-1.5327 Y0.2201 Z-0.0564 R0.0598
N425 X-1.538 Y0.1935 Z-0.0574 R0.0598
N430 X-1.4763 Y0.1358 Z-0.0609 R0.0597
N435 X-1.4502 Y0.1428 Z-0.0619 R0.0597
N440 X-1.4256 Y0.2235 Z-0.0653 R0.0597
N445 X-1.4434 Y0.2438 Z-0.0663 R0.0597
N450 X-1.5266 Y0.2303 Z-0.0697 R0.0596
N455 X-1.537 Y0.2053 Z-0.0707 R0.0596
N460 X-1.4881 Y0.1368 Z-0.0741 R0.0595
N465 X-1.4612 Y0.1385 Z-0.0751 R0.0595
N470 X-1.4213 Y0.2125 Z-0.0786 R0.0594
N475 X-1.4347 Y0.2359 Z-0.0796 R0.0594
N480 X-1.5186 Y0.2389 Z-0.083 R0.0594
N485 X-1.5336 Y0.2166 Z-0.084 R0.0594
N490 X-1.4994 Y0.1401 Z-0.0874 R0.0593
N495 X-1.4728 Y0.1365 Z-0.0884 R0.0593
N500 X-1.4193 Y0.2009 Z-0.0919 R0.0592
N505 X-1.4278 Y0.2264 Z-0.0929 R0.0592
N510 X-1.5091 Y0.2458 Z-0.0963 R0.0591
N515 X-1.5282 Y0.227 Z-0.0973 R0.0591
N520 X-1.5098 Y0.1455 Z-0.1007 R0.059
N525 X-1.4845 Y0.1368 Z-0.1017 R0.059
N530 X-1.4196 Y0.1892 Z-0.1051 R0.059
N535 X-1.4229 Y0.2158 Z-0.1061 R0.059
N540 X-1.4985 Y0.2507 Z-0.1096 R0.0589
N545 X-1.5208 Y0.2361 Z-0.1106 R0.0589
N550 X-1.5188 Y0.1529 Z-0.114 R0.0588
N555 X-1.4958 Y0.1394 Z-0.115 R0.0588
N560 X-1.4222 Y0.1779 Z-0.1184 R0.0587
N565 X-1.4202 Y0.2044 Z-0.1194 R0.0587
N570 X-1.4872 Y0.2534 Z-0.1229 R0.0587
N575 X-1.5119 Y0.2435 Z-0.1239 R0.0587
N580 X-1.5262 Y0.1619 Z-0.1273 R0.0586
N585 X-1.5064 Y0.1441 Z-0.1283 R0.0586
N590 X-1.427 Y0.1673 Z-0.1317 R0.0585
N595 X-1.4198 Y0.1928 Z-0.1327 R0.0585
N600 X-1.4756 Y0.2538 Z-0.1361 R0.0584
N605 X-1.5016 Y0.2489 Z-0.1371 R0.0584
N610 X-1.5317 Y0.1721 Z-0.1406 R0.0584
N615 X-1.5158 Y0.1509 Z-0.1416 R0.0584
N620 X-1.4337 Y0.1579 Z-0.145 R0.0583
N625 X-1.4217 Y0.1814 Z-0.146 R0.0583
N630 X-1.4642 Y0.2519 Z-0.1494 R0.0582
N635 X-1.4906 Y0.2523 Z-0.1504 R0.0582
N640 X-1.535 Y0.1831 Z-0.1539 R0.0581
N645 X-1.5237 Y0.1593 Z-0.1549 R0.0581
N650 X-1.4421 Y0.15 Z-0.1583 R0.058
N655 X-1.4258 Y0.1707 Z-0.1593 R0.058
N660 X-1.4535 Y0.2478 Z-0.1627 R0.058
N665 X-1.4791 Y0.2534 Z-0.1637 R0.058
N670 X-1.5361 Y0.1946 Z-0.1671 R0.0579
N675 X-1.5297 Y0.1691 Z-0.1681 R0.0579
N680 X-1.4519 Y0.144 Z-0.1716 R0.0578
N685 X-1.4319 Y0.1609 Z-0.1726 R0.0578
N690 X-1.4438 Y0.2417 Z-0.176 R0.0577
N695 X-1.4678 Y0.2522 Z-0.177 R0.0577
N700 X-1.5349 Y0.2059 Z-0.1804 R0.0577
N705 X-1.5337 Y0.1798 Z-0.1814 R0.0577
N710 X-1.4626 Y0.1401 Z-0.1849 R0.0576
N715 X-1.4398 Y0.1527 Z-0.1859 R0.0576
N720 X-1.4355 Y0.2339 Z-0.1893 R0.0575
N725 X-1.4569 Y0.2488 Z-0.1903 R0.0575
N730 X-1.5315 Y0.2168 Z-0.1937 R0.0574
N735 X-1.5355 Y0.1911 Z-0.1947 R0.0574
N740 X-1.4739 Y0.1383 Z-0.1981 R0.0573
N745 X-1.4491 Y0.1461 Z-0.1991 R0.0573
N750 X-1.4289 Y0.2246 Z-0.2026 R0.0573
N755 X-1.4469 Y0.2433 Z-0.2036 R0.0573
N760 X-1.5261 Y0.2268 Z-0.207 R0.0572
N765 X-1.535 Y0.2024 Z-0.208 R0.0572
N770 X-1.4852 Y0.1388 Z-0.2114 R0.0571
N775 X-1.4594 Y0.1416 Z-0.2124 R0.0571
N780 X-1.4244 Y0.2142 Z-0.2159 R0.057
N785 X-1.4382 Y0.2361 Z-0.2169 R0.057
N790 X-1.5188 Y0.2354 Z-0.2203 R0.057
N795 X-1.5323 Y0.2134 Z-0.2213 R0.057
N800 X-1.4961 Y0.1415 Z-0.2247 R0.0569
N805 X-1.4705 Y0.1391 Z-0.2257 R0.0569
N810 X-1.422 Y0.2032 Z-0.2291 R0.0568
N815 X-1.4312 Y0.2273 Z-0.2301 R0.0568
N820 X-1.51 Y0.2424 Z-0.2336 R0.0567
N825 X-1.5275 Y0.2235 Z-0.2346 R0.0567
N830 X-1.5063 Y0.1463 Z-0.238 R0.0567
N835 X-1.4817 Y0.1389 Z-0.239 R0.0567
N840 X-1.4218 Y0.192 Z-0.2424 R0.0566
N845 X-1.4261 Y0.2173 Z-0.2434 R0.0566
N850 X-1.5 Y0.2475 Z-0.2469 R0.0565
N855 X-1.5208 Y0.2325 Z-0.2479 R0.0565
N860 X-1.5153 Y0.1529 Z-0.2513 R0.0564
N865 X-1.4927 Y0.141 Z-0.2523 R0.0564
N870 X-1.4238 Y0.181 Z-0.2557 R0.0563
N875 X-1.423 Y0.2065 Z-0.2567 R0.0563
N880 X-1.4893 Y0.2506 Z-0.2601 R0.0563
N885 X-1.5125 Y0.24 Z-0.2611 R0.0563
N890 X-1.5228 Y0.1612 Z-0.2646 R0.0562
N895 X-1.5031 Y0.1451 Z-0.2656 R0.0562
N900 X-1.4279 Y0.1706 Z-0.269 R0.0561
N905 X-1.4222 Y0.1954 Z-0.27 R0.0561
N910 X-1.4783 Y0.2515 R0.0561
N915 X-1.5344 Y0.1954 R0.0561
N920 X-1.4783 Y0.1393 R0.0561
N925 X-1.4222 Y0.1954 R0.0561
N930 G1 X-1.4213 Y0.2135
N935 Y0.2195
N940 X-1.4225 Y0.2253
N945 X-1.4247 Y0.2309
N950 X-1.4276 Y0.2362
N955 X-1.4311 Y0.241
N960 X-1.4352 Y0.2454
N965 X-1.4397 Y0.2494
N970 X-1.4446 Y0.2529
N975 X-1.4498 Y0.2558
N980 X-1.4553 Y0.2583
N985 X-1.461 Y0.2602
N990 X-1.4668 Y0.2616
N995 X-1.4728 Y0.2624
N1000 X-1.4787 Y0.2627
N1005 X-1.4847 Y0.2624
N1010 X-1.4907 Y0.2616
N1015 X-1.4965 Y0.2603
N1020 X-1.5022 Y0.2584
N1025 X-1.5078 Y0.256
N1030 X-1.513 Y0.2532
N1035 X-1.518 Y0.2499
N1040 X-1.5227 Y0.2461
N1045 X-1.5271 Y0.242
N1050 X-1.531 Y0.2374
N1055 X-1.5345 Y0.2326
N1060 X-1.5376 Y0.2274
N1065 X-1.5402 Y0.222
N1070 X-1.5424 Y0.2164
N1075 X-1.544 Y0.2107
N1080 X-1.5451 Y0.2048
N1085 X-1.5456 Y0.1988
N1090 X-1.5457 Y0.1928
N1095 X-1.5452 Y0.1868
N1100 X-1.5441 Y0.1809
N1105 X-1.5426 Y0.1751
N1110 X-1.5405 Y0.1695
N1115 X-1.538 Y0.164
N1120 X-1.5349 Y0.1589
N1125 X-1.5315 Y0.154
N1130 X-1.5276 Y0.1494
N1135 X-1.5233 Y0.1452
N1140 X-1.5186 Y0.1414
N1145 X-1.5137 Y0.138
N1150 X-1.5084 Y0.1351
N1155 X-1.503 Y0.1327
N1160 X-1.4973 Y0.1307
N1165 X-1.4915 Y0.1293
N1170 X-1.4855 Y0.1284
N1175 X-1.4795 Y0.128
N1180 X-1.4735 Y0.1281
N1185 X-1.4676 Y0.1288
N1190 X-1.4617 Y0.13
N1195 X-1.456 Y0.1318
N1200 X-1.4504 Y0.134
N1205 X-1.445 Y0.1367
N1210 X-1.44 Y0.1399
N1215 X-1.4352 Y0.1435
N1220 X-1.4307 Y0.1476
N1225 X-1.4267 Y0.152
N1230 X-1.423 Y0.1567
N1235 X-1.4198 Y0.1618
N1240 X-1.417 Y0.1671
N1245 X-1.4148 Y0.1727
N1250 X-1.4129 Y0.1784
N1255 X-1.4113 Y0.1842
N1260 X-1.41 Y0.19
N1265 X-1.409 Y0.1959
N1270 X-1.4083 Y0.2019
N1275 X-1.4081 Y0.2079
N1280 X-1.4085 Y0.2139
N1285 X-1.4093 Y0.2198
N1290 X-1.4108 Y0.2257
N1295 X-1.4127 Y0.2313
N1300 X-1.4152 Y0.2368
N1305 X-1.4182 Y0.242
N1310 X-1.4216 Y0.2469
N1315 X-1.4255 Y0.2515
N1320 X-1.4298 Y0.2557
N1325 X-1.4344 Y0.2595
N1330 X-1.4393 Y0.263
N1335 X-1.4445 Y0.266
N1340 X-1.4499 Y0.2685
N1345 X-1.4556 Y0.2706
N1350 X-1.4613 Y0.2723
N1355 X-1.463 Y0.2726
N1360 X-1.4661 Y0.2731
N1365 X-1.4691 Y0.2734
N1370 X-1.4722 Y0.2735
N1375 X-1.4804
N1380 X-1.4864 Y0.2732
N1385 X-1.4923 Y0.2726
N1390 X-1.4982 Y0.2715
N1395 X-1.504 Y0.2699
N1400 X-1.5096 Y0.2678
N1405 X-1.5151 Y0.2653
N1410 X-1.5203 Y0.2624
N1415 X-1.5253 Y0.2591
N1420 X-1.53 Y0.2554
N1425 X-1.5345 Y0.2513
N1430 X-1.5386 Y0.2469
N1435 X-1.5423 Y0.2422
N1440 X-1.5457 Y0.2373
N1445 X-1.5486 Y0.2321
N1450 X-1.5512 Y0.2266
N1455 X-1.5534 Y0.221
N1460 X-1.5552 Y0.2151
N1465 X-1.5558 Y0.2118
N1470 X-1.5561 Y0.2084
N1475 X-1.5563 Y0.2051
N1480 G3 X-1.5445 Y0.1937 Z-0.2622 R0.0118
N1485 G1 X-1.544 Z-0.262
N1490 X-1.5414 Y0.1941
N1495 X-1.5389 Y0.1951
N1500 X-1.5366 Y0.1966
N1505 X-1.5347 Y0.1983
N1510 X-1.4738 Y0.2521
N1515 X-1.473 Y0.2529
N1520 X-1.4713 Y0.2546
N1525 X-1.4701 Y0.2567
N1530 X-1.4693 Y0.2589
N1535 X-1.469 Y0.2613
N1540 G3 X-1.4804 Y0.2735 Z-0.27 R0.0118
N1545 G1 X-1.5065
N1550 X-1.5124 Y0.2732
N1555 X-1.5183 Y0.2721
N1560 X-1.524 Y0.2702
N1565 X-1.5295 Y0.2677
N1570 X-1.5346 Y0.2646
N1575 X-1.5395 Y0.2611
N1580 X-1.5401 Y0.2606
N1585 X-1.5469 Y0.2533
N1590 X-1.552 Y0.2447
N1595 X-1.5552 Y0.2352
N1600 X-1.5563 Y0.2252
N1605 G3 X-1.5445 Y0.2138 Z-0.2622 R0.0118
N1610 G1 X-1.544 Z-0.262
N1615 X-1.5419 Y0.2141
N1620 X-1.5399 Y0.2147
N1625 X-1.538 Y0.2158
N1630 X-1.5363 Y0.2171
N1635 X-1.5348 Y0.2185
N1640 X-1.4998 Y0.2521
N1645 X-1.4987 Y0.2532
N1650 X-1.4972 Y0.2549
N1655 X-1.4961 Y0.2569
N1660 X-1.4954 Y0.2591
N1665 X-1.4951 Y0.2613
N1670 G3 X-1.5065 Y0.2735 Z-0.27 R0.0118
N1675 G1 X-1.5247
N1680 X-1.5307 Y0.2732
N1685 X-1.539 Y0.2698
N1690 X-1.5461 Y0.2644
N1695 X-1.5516 Y0.2573
N1700 X-1.5551 Y0.2491
N1705 X-1.5563 Y0.2402
N1710 G3 X-1.5445 Y0.2288 Z-0.2622 R0.0118
N1715 G1 X-1.544 Z-0.262
N1720 X-1.5417 Y0.2291
N1725 X-1.5395 Y0.2298
N1730 X-1.5375 Y0.231
N1735 X-1.5357 Y0.2326
N1740 X-1.5348 Y0.2336
N1745 X-1.518 Y0.252
N1750 X-1.5164 Y0.2537
N1755 X-1.5151 Y0.2554
N1760 X-1.5142 Y0.2573
N1765 X-1.5136 Y0.2592
N1770 X-1.5133 Y0.2613
N1775 G3 X-1.5247 Y0.2735 Z-0.27 R0.0118
N1780 G1 X-1.5361
N1785 X-1.5377
N1790 X-1.5391
N1795 X-1.545 Y0.2731
N1800 X-1.551 Y0.2682
N1805 X-1.5549 Y0.2616
N1810 X-1.5563 Y0.254
N1815 G3 X-1.5466 Y0.2393 Z-0.262 R0.017
N1820 X-1.5328 Y0.2389 R0.017
N1825 X-1.5227 Y0.2496 R0.018
N1830 X-1.5239 Y0.2643 R0.018
N1835 X-1.5391 Y0.2735 Z-0.27 R0.018
N1840 G1 X-1.5456 Y0.2734
N1845 X-1.5472 Y0.2731
N1850 X-1.5488 Y0.2725
N1855 X-1.5505 Y0.2715
N1860 X-1.5513 Y0.2709
N1865 X-1.5521 Y0.2702
N1870 X-1.5536 Y0.2686
N1875 X-1.5547 Y0.2671
N1880 X-1.5554 Y0.2654
N1885 X-1.556 Y0.2638
N1890 X-1.5562 Y0.2622
N1895 X-1.5563 Y0.2605
N1900 Y0.1918
N1905 X-1.556 Y0.1858
N1910 X-1.5552 Y0.1799
N1915 X-1.554 Y0.174
N1920 X-1.5523 Y0.1683
N1925 X-1.5501 Y0.1627
N1930 X-1.5475 Y0.1573
N1935 X-1.5445 Y0.1521
N1940 X-1.541 Y0.1472
N1945 X-1.5373 Y0.1425
N1950 X-1.5331 Y0.1382
N1955 X-1.5286 Y0.1342
N1960 X-1.5239 Y0.1305
N1965 X-1.5188 Y0.1272
N1970 X-1.5136 Y0.1244
N1975 X-1.5081 Y0.1219
N1980 X-1.5025 Y0.1198
N1985 X-1.4967 Y0.1182
N1990 X-1.4908 Y0.117
N1995 X-1.4849 Y0.1163
N2000 X-1.4789 Y0.116
N2005 X-1.4729 Y0.1162
N2010 X-1.4669 Y0.1168
N2015 X-1.461 Y0.1179
N2020 X-1.4552 Y0.1194
N2025 X-1.4495 Y0.1214
N2030 X-1.444 Y0.1238
N2035 X-1.4387 Y0.1266
N2040 X-1.4336 Y0.1298
N2045 X-1.4288 Y0.1333
N2050 X-1.4242 Y0.1372
N2055 X-1.42 Y0.1415
N2060 X-1.4161 Y0.146
N2065 X-1.4125 Y0.1509
N2070 X-1.4093 Y0.1559
N2075 X-1.4065 Y0.1612
N2080 X-1.4039 Y0.1666
N2085 X-1.4036 Y0.1673
N2090 X-1.4017 Y0.173
N2095 X-1.4006 Y0.1789
N2100 X-1.4002 Y0.1849
N2105 Y0.2149
N2110 X-1.4005 Y0.2209
N2115 X-1.4012 Y0.2269
N2120 X-1.4025 Y0.2327
N2125 X-1.4044 Y0.2384
N2130 X-1.4069 Y0.2439
N2135 X-1.4098 Y0.2492
N2140 X-1.4131 Y0.2542
N2145 X-1.4145 Y0.2559
N2150 X-1.4219 Y0.2633
N2155 X-1.4308 Y0.2689
N2160 X-1.4407 Y0.2723
N2165 X-1.4511 Y0.2735
N2170 G3 X-1.4625 Y0.2617 Z-0.2622 R0.0118
N2175 G1 Y0.2613 Z-0.262
N2180 X-1.4621 Y0.2587
N2185 X-1.4612 Y0.2563
N2190 X-1.4598 Y0.2542
N2195 X-1.4579 Y0.2519
N2200 X-1.4216 Y0.2084
N2205 X-1.4211 Y0.2078
N2210 X-1.4193 Y0.2061
N2215 X-1.4172 Y0.2047
N2220 X-1.4148 Y0.2039
N2225 X-1.4124 Y0.2036
N2230 G3 X-1.4002 Y0.2149 Z-0.27 R0.0118
N2235 G1 Y0.2381
N2240 X-1.4005 Y0.2441
N2245 X-1.4018 Y0.2499
N2250 X-1.406 Y0.2577
N2255 X-1.412 Y0.2643
N2260 X-1.4194 Y0.2693
N2265 X-1.4278 Y0.2725
N2270 X-1.4366 Y0.2735
N2275 G3 X-1.448 Y0.2617 Z-0.2622 R0.0118
N2280 G1 Y0.2613 Z-0.262
N2285 X-1.4477 Y0.2591
N2290 X-1.447 Y0.2569
N2295 X-1.4459 Y0.2549
N2300 X-1.4444 Y0.2532
N2305 X-1.4432 Y0.2521
N2310 X-1.4217 Y0.2314
N2315 X-1.4202 Y0.23
N2320 X-1.4185 Y0.2286
N2325 X-1.4166 Y0.2276
N2330 X-1.4145 Y0.2269
N2335 X-1.4124 Y0.2267
N2340 G3 X-1.4002 Y0.2381 Z-0.27 R0.0118
N2345 G1 Y0.2527
N2350 X-1.4005 Y0.2587
N2355 X-1.4043 Y0.2648
N2360 X-1.4096 Y0.2695
N2365 X-1.4161 Y0.2725
N2370 X-1.4231 Y0.2735
N2375 G3 X-1.4389 Y0.2651 Z-0.262 R0.0204
N2380 X-1.4415 Y0.2459 R0.0204
N2385 X-1.4215 Y0.2321 R0.0214
N2390 X-1.4083 Y0.2367 R0.0214
N2395 X-1.4002 Y0.2527 Z-0.27 R0.0214
N2400 G1 Y0.2605
N2405 Y0.2622
N2410 X-1.4005 Y0.2638
N2415 X-1.4013 Y0.2659
N2420 X-1.4018 Y0.2671
N2425 G3 X-1.4127 Y0.2692 R0.0079
N2430 X-1.4162 Y0.2627 R0.0079
N2435 X-1.4083 Y0.2548 R0.0079
N2440 X-1.4018 Y0.2583 R0.0079
N2445 G1 X-1.4009 Y0.26
N2450 X-1.4005 Y0.2619
N2455 Y0.2638
N2460 X-1.401 Y0.2654
N2465 X-1.4018 Y0.2671
N2470 X-1.4021 Y0.2676
N2475 X-1.4035 Y0.2694
N2480 X-1.4044 Y0.2703
N2485 X-1.4054 Y0.2711
N2490 X-1.407 Y0.2722
N2495 X-1.4086 Y0.2729
N2500 X-1.4103 Y0.2733
N2505 X-1.4119 Y0.2735
N2510 X-1.4722
N2515 X-1.4744 Y0.2733 Z-0.2691
N2520 X-1.4764 Y0.2726 Z-0.2681
N2525 X-1.4783 Y0.2716 Z-0.2672
N2530 X-1.48 Y0.2702 Z-0.2663
N2535 X-1.4871 Y0.2633 Z-0.262
N2540 X-1.4948 Y0.2559
N2545 X-1.5381 Y0.214
N2550 X-1.5458 Y0.2065
N2555 X-1.5527 Y0.1999 Z-0.2661
N2560 X-1.5541 Y0.1982 Z-0.2671
N2565 X-1.5552 Y0.1962 Z-0.268
N2570 X-1.556 Y0.1941 Z-0.269
N2575 X-1.5563 Y0.1918 Z-0.27
N2580 Y0.1674
N2585 X-1.556 Y0.1614
N2590 X-1.5549 Y0.1555
N2595 X-1.5531 Y0.1498
N2600 X-1.5506 Y0.1443
N2605 X-1.5475 Y0.1391
N2610 X-1.544 Y0.1343
N2615 X-1.5401 Y0.1297
N2620 X-1.5358 Y0.1255
N2625 X-1.5312 Y0.1216
N2630 X-1.5264 Y0.1181
N2635 X-1.5213 Y0.115
N2640 X-1.516 Y0.1122
N2645 X-1.5105 Y0.1098
N2650 X-1.5048 Y0.1078
N2655 X-1.499 Y0.1062
N2660 X-1.4932 Y0.105
N2665 X-1.4872 Y0.1041
N2670 X-1.4812 Y0.1037
N2675 X-1.4752 Y0.1036
N2680 X-1.4692 Y0.104
N2685 X-1.4633 Y0.1048
N2690 X-1.4574 Y0.1059
N2695 X-1.4516 Y0.1075
N2700 X-1.4459 Y0.1094
N2705 X-1.4404 Y0.1117
N2710 X-1.435 Y0.1143
N2715 X-1.4298 Y0.1173
N2720 X-1.4248 Y0.1206
N2725 X-1.42 Y0.1243
N2730 X-1.4155 Y0.1282
N2735 X-1.414 Y0.1297
N2740 X-1.4081 Y0.1368
N2745 X-1.4038 Y0.145
N2750 X-1.4011 Y0.1538
N2755 X-1.4002 Y0.1629
N2760 Y0.1849
N2765 G3 X-1.4124 Y0.1963 Z-0.262 R0.0118
N2770 G1 X-1.4135 Y0.1962
N2775 X-1.423 Y0.1949
N2780 X-1.5334 Y0.1803
N2785 X-1.5441 Y0.1789
N2790 X-1.546 Y0.1787 Z-0.2628
N2795 G3 X-1.5563 Y0.1674 Z-0.27 R0.0118
N2800 G1 Y0.1478
N2805 X-1.556 Y0.1418
N2810 X-1.5543 Y0.1361
N2815 X-1.5519 Y0.1306
N2820 X-1.5488 Y0.1255
N2825 X-1.5452 Y0.1207
N2830 X-1.5412 Y0.1162
N2835 X-1.5368 Y0.1121
N2840 X-1.5321 Y0.1084
N2845 X-1.5271 Y0.105
N2850 X-1.5219 Y0.102
N2855 X-1.5166 Y0.0993
N2860 X-1.511 Y0.097
N2865 X-1.5053 Y0.0951
N2870 X-1.4996 Y0.0935
N2875 X-1.4937 Y0.0923
N2880 X-1.4877 Y0.0915
N2885 X-1.4818 Y0.091
N2890 X-1.4758 Y0.0909
N2895 X-1.4698 Y0.0911
N2900 X-1.4638 Y0.0917
N2905 X-1.4579 Y0.0927
N2910 X-1.452 Y0.094
N2915 X-1.4462 Y0.0956
N2920 X-1.4406 Y0.0976
N2925 X-1.435 Y0.0999
N2930 X-1.4296 Y0.1025
N2935 X-1.4244 Y0.1054
N2940 X-1.4194 Y0.1087
N2945 X-1.419 Y0.1089
N2950 X-1.4111 Y0.1164
N2955 X-1.4052 Y0.1255
N2960 X-1.4014 Y0.1357
N2965 X-1.4002 Y0.1465
N2970 Y0.1629
N2975 G3 X-1.4124 Y0.1743 Z-0.262 R0.0118
N2980 G1 X-1.4133
N2985 X-1.4231 Y0.1732
N2990 X-1.5334 Y0.1606
N2995 X-1.5441 Y0.1594
N3000 X-1.5458 Y0.1592 Z-0.2628
N3005 G3 X-1.5563 Y0.1478 Z-0.27 R0.0118
N3010 G1 Y0.1334
N3015 X-1.556 Y0.1274
N3020 X-1.5544 Y0.1217
N3025 X-1.5518 Y0.1162
N3030 X-1.5487 Y0.1111
N3035 X-1.5449 Y0.1064
N3040 X-1.5408 Y0.1021
N3045 X-1.5363 Y0.0981
N3050 X-1.5315 Y0.0945
N3055 X-1.5264 Y0.0913
N3060 X-1.5212 Y0.0884
N3065 X-1.5157 Y0.0859
N3070 X-1.5101 Y0.0837
N3075 X-1.5044 Y0.0819
N3080 X-1.4986 Y0.0804
N3085 X-1.4927 Y0.0793
N3090 X-1.4868 Y0.0785
N3095 X-1.4808 Y0.078
N3100 X-1.4748 Y0.0779
N3105 X-1.4688 Y0.0781
N3110 X-1.4628 Y0.0786
N3115 X-1.4569 Y0.0794
N3120 X-1.451 Y0.0806
N3125 X-1.4452 Y0.0821
N3130 X-1.4395 Y0.0839
N3135 X-1.4338 Y0.0859
N3140 X-1.4284 Y0.0884
N3145 X-1.4231 Y0.0912
N3150 X-1.4223 Y0.0917
N3155 X-1.4148 Y0.0975
N3160 X-1.4086 Y0.1047
N3165 X-1.404 Y0.113
N3170 X-1.4011 Y0.122
N3175 X-1.4002 Y0.1315
N3180 Y0.1465
N3185 G3 X-1.4124 Y0.1579 Z-0.262 R0.0118
N3190 G1 X-1.4131 Y0.1578
N3195 X-1.4231 Y0.1568
N3200 X-1.5334 Y0.146
N3205 X-1.5441 Y0.1449
N3210 X-1.5456 Y0.1448 Z-0.2627
N3215 G3 X-1.5563 Y0.1334 Z-0.27 R0.0118
N3220 G1 Y0.1186
N3225 X-1.556 Y0.1126
N3230 X-1.5541 Y0.1069
N3235 X-1.5514 Y0.1015
N3240 X-1.548 Y0.0966
N3245 X-1.5441 Y0.092
N3250 X-1.5398 Y0.0878
N3255 X-1.5352 Y0.084
N3260 X-1.5303 Y0.0805
N3265 X-1.5252 Y0.0774
N3270 X-1.5198 Y0.0746
N3275 X-1.5143 Y0.0722
N3280 X-1.5087 Y0.0702
N3285 X-1.503 Y0.0685
N3290 X-1.4971 Y0.0671
N3295 X-1.4912 Y0.066
N3300 X-1.4853 Y0.0652
N3305 X-1.4793 Y0.0648
N3310 X-1.4733 Y0.0646
N3315 X-1.4673 Y0.0648
N3320 X-1.4613 Y0.0653
N3325 X-1.4554 Y0.0661
N3330 X-1.4495 Y0.0671
N3335 X-1.4436 Y0.0685
N3340 X-1.4379 Y0.0702
N3345 X-1.4322 Y0.0723
N3350 X-1.4268 Y0.0747
N3355 X-1.4247 Y0.0758
N3360 X-1.4165 Y0.0815
N3365 X-1.4096 Y0.0888
N3370 X-1.4045 Y0.0975
N3375 X-1.4013 Y0.107
N3380 X-1.4002 Y0.117
N3385 Y0.1315
N3390 G3 X-1.4124 Y0.1428 Z-0.262 R0.0118
N3395 G1 X-1.4131
N3400 X-1.4231 Y0.1418
N3405 X-1.5334 Y0.1311
N3410 X-1.5441 Y0.1301
N3415 X-1.5456 Y0.1299 Z-0.2627
N3420 G3 X-1.5563 Y0.1186 Z-0.27 R0.0118
N3425 G1 Y0.1055
N3430 X-1.556 Y0.0995
N3435 X-1.5542 Y0.0938
N3440 X-1.5515 Y0.0884
N3445 X-1.5482 Y0.0835
N3450 X-1.5443 Y0.0789
N3455 X-1.54 Y0.0747
N3460 X-1.5353 Y0.0709
N3465 X-1.5304 Y0.0675
N3470 X-1.5253 Y0.0644
N3475 X-1.5199 Y0.0616
N3480 X-1.5144 Y0.0592
N3485 X-1.5088 Y0.0571
N3490 X-1.5031 Y0.0554
N3495 X-1.4973 Y0.0539
N3500 X-1.4914 Y0.0528
N3505 X-1.4854 Y0.052
N3510 X-1.4794 Y0.0515
N3515 X-1.4734 Y0.0512
N3520 X-1.4674 Y0.0513
N3525 X-1.4615 Y0.0517
N3530 X-1.4555 Y0.0523
N3535 X-1.4496 Y0.0533
N3540 X-1.4437 Y0.0545
N3545 X-1.4379 Y0.0562
N3550 X-1.4323 Y0.0582
N3555 X-1.4268 Y0.0606
N3560 X-1.4249 Y0.0616
N3565 X-1.4165 Y0.0673
N3570 X-1.4096 Y0.0746
N3575 X-1.4045 Y0.0832
N3580 X-1.4013 Y0.0928
N3585 X-1.4002 Y0.1028
N3590 Y0.117
N3595 G3 X-1.4124 Y0.1284 Z-0.262 R0.0118
N3600 G1 X-1.413
N3605 X-1.4231 Y0.1275
N3610 X-1.5334 Y0.1179
N3615 X-1.5441 Y0.117
N3620 X-1.5455 Y0.1169 Z-0.2626
N3625 G3 X-1.5563 Y0.1055 Z-0.27 R0.0118
N3630 G1 Y0.0925
N3635 X-1.556 Y0.0865
N3640 X-1.5542 Y0.0808
N3645 X-1.5516 Y0.0754
N3650 X-1.5482 Y0.0704
N3655 X-1.5443 Y0.0658
N3660 X-1.54 Y0.0617
N3665 X-1.5354 Y0.0578
N3670 X-1.5305 Y0.0544
N3675 X-1.5253 Y0.0513
N3680 X-1.52 Y0.0485
N3685 X-1.5145 Y0.0461
N3690 X-1.5089 Y0.044
N3695 X-1.5032 Y0.0422
N3700 X-1.4974 Y0.0407
N3705 X-1.4915 Y0.0395
N3710 X-1.4856 Y0.0386
N3715 X-1.4796 Y0.038
N3720 X-1.4736 Y0.0377
N3725 X-1.4676
N3730 X-1.4616 Y0.038
N3735 X-1.4556 Y0.0386
N3740 X-1.4497 Y0.0395
N3745 X-1.4438 Y0.0406
N3750 X-1.438 Y0.0422
N3755 X-1.4324 Y0.0442
N3760 X-1.4268 Y0.0465
N3765 X-1.4251 Y0.0474
N3770 X-1.4167 Y0.0531
N3775 X-1.4097 Y0.0605
N3780 X-1.4045 Y0.0691
N3785 X-1.4013 Y0.0787
N3790 X-1.4002 Y0.0888
N3795 Y0.1028
N3800 G3 X-1.4124 Y0.1142 Z-0.262 R0.0118
N3805 G1 X-1.4129
N3810 X-1.4231 Y0.1134
N3815 X-1.5334 Y0.1048
N3820 X-1.5441 Y0.104
N3825 X-1.5454 Y0.1039 Z-0.2626
N3830 G3 X-1.5563 Y0.0925 Z-0.27 R0.0118
N3835 G1 Y0.0795
N3840 X-1.556 Y0.0735
N3845 X-1.5543 Y0.0677
N3850 X-1.5516 Y0.0624
N3855 X-1.5483 Y0.0574
N3860 X-1.5444 Y0.0528
N3865 X-1.5401 Y0.0486
N3870 X-1.5355 Y0.0448
N3875 X-1.5306 Y0.0413
N3880 X-1.5254 Y0.0382
N3885 X-1.5201 Y0.0354
N3890 X-1.5146 Y0.033
N3895 X-1.509 Y0.0308
N3900 X-1.5033 Y0.029
N3905 X-1.4975 Y0.0274
N3910 X-1.4917 Y0.0262
N3915 X-1.4857 Y0.0252
N3920 X-1.4798 Y0.0246
N3925 X-1.4738 Y0.0242
N3930 X-1.4678 Y0.0241
N3935 X-1.4618 Y0.0243
N3940 X-1.4558 Y0.0248
N3945 X-1.4499 Y0.0257
N3950 X-1.444 Y0.0268
N3955 X-1.4382 Y0.0283
N3960 X-1.4325 Y0.0303
N3965 X-1.427 Y0.0326
N3970 X-1.4253 Y0.0334
N3975 X-1.4168 Y0.0391
N3980 X-1.4098 Y0.0465
N3985 X-1.4045 Y0.0552
N3990 X-1.4013 Y0.0648
N3995 X-1.4002 Y0.0749
N4000 Y0.0888
N4005 G3 X-1.4124 Y0.1002 Z-0.262 R0.0118
N4010 G1 X-1.4128
N4015 X-1.4231 Y0.0995
N4020 X-1.5334 Y0.0917
N4025 X-1.5441 Y0.0909
N4030 X-1.5453 Z-0.2625
N4035 G3 X-1.5563 Y0.0795 Z-0.27 R0.0118
N4040 G1 Y0.0665
N4045 X-1.556 Y0.0605
N4050 X-1.5543 Y0.0547
N4055 X-1.5516 Y0.0493
N4060 X-1.5483 Y0.0443
N4065 X-1.5444 Y0.0397
N4070 X-1.5402 Y0.0355
N4075 X-1.5355 Y0.0317
N4080 X-1.5307 Y0.0282
N4085 X-1.5256 Y0.0251
N4090 X-1.5203 Y0.0222
N4095 X-1.5148 Y0.0197
N4100 X-1.5092 Y0.0176
N4105 X-1.5035 Y0.0157
N4110 X-1.4977 Y0.0141
N4115 X-1.4919 Y0.0128
N4120 X-1.486 Y0.0118
N4125 X-1.48 Y0.0111
N4130 X-1.474 Y0.0106
N4135 X-1.468 Y0.0105
N4140 X-1.462 Y0.0106
N4145 X-1.456 Y0.0111
N4150 X-1.4501 Y0.0119
N4155 X-1.4442 Y0.013
N4160 X-1.4384 Y0.0145
N4165 X-1.4327 Y0.0164
N4170 X-1.4271 Y0.0187
N4175 X-1.4255 Y0.0195
N4180 X-1.417 Y0.0252
N4185 X-1.4099 Y0.0325
N4190 X-1.4046 Y0.0413
N4195 X-1.4013 Y0.0509
N4200 X-1.4002 Y0.0611
N4205 Y0.0749
N4210 G3 X-1.4124 Y0.0863 Z-0.262 R0.0118
N4215 G1 X-1.4127
N4220 X-1.4231 Y0.0856
N4225 X-1.5333 Y0.0786
N4230 X-1.5441 Y0.0779
N4235 X-1.5452 Y0.0778 Z-0.2625
N4240 G3 X-1.5563 Y0.0665 Z-0.27 R0.0118
N4245 G1 Y0.0534
N4250 X-1.556 Y0.0474
N4255 X-1.5543 Y0.0417
N4260 X-1.5517 Y0.0363
N4265 X-1.5484 Y0.0313
N4270 X-1.5445 Y0.0267
N4275 X-1.5403 Y0.0224
N4280 X-1.5357 Y0.0186
N4285 X-1.5308 Y0.0151
N4290 X-1.5257 Y0.0119
N4295 X-1.5204 Y0.009
N4300 X-1.515 Y0.0065
N4305 X-1.5094 Y0.0043
N4310 X-1.5037 Y0.0023
N4315 X-1.498 Y0.0007
N4320 X-1.4921 Y-0.0006
N4325 X-1.4862 Y-0.0017
N4330 X-1.4803 Y-0.0025
N4335 X-1.4743 Y-0.0029
N4340 X-1.4683 Y-0.0031
N4345 X-1.4623 Y-0.003
N4350 X-1.4563 Y-0.0026
N4355 X-1.4503 Y-0.0018
N4360 X-1.4444 Y-0.0008
N4365 X-1.4386 Y0.0007
N4370 X-1.4329 Y0.0026
N4375 X-1.4274 Y0.0048
N4380 X-1.4257 Y0.0057
N4385 X-1.4171 Y0.0113
N4390 X-1.41 Y0.0187
N4395 X-1.4046 Y0.0274
N4400 X-1.4013 Y0.0371
N4405 X-1.4002 Y0.0473
N4410 Y0.0611
N4415 G3 X-1.4124 Y0.0725 Z-0.262 R0.0118
N4420 G1 X-1.4127
N4425 X-1.4231 Y0.0719
N4430 X-1.5333 Y0.0655
N4435 X-1.5441 Y0.0649
N4440 X-1.5451 Y0.0648 Z-0.2625
N4445 G3 X-1.5563 Y0.0534 Z-0.27 R0.0118
N4450 G1 Y0.0404
N4455 X-1.556 Y0.0344
N4460 X-1.5543 Y0.0286
N4465 X-1.5517 Y0.0232
N4470 X-1.5485 Y0.0182
N4475 X-1.5446 Y0.0136
N4480 X-1.5404 Y0.0093
N4485 X-1.5358 Y0.0054
N4490 X-1.531 Y0.0019
N4495 X-1.5259 Y-0.0013
N4500 X-1.5207 Y-0.0042
N4505 X-1.5152 Y-0.0068
N4510 X-1.5097 Y-0.009
N4515 X-1.504 Y-0.011
N4520 X-1.4983 Y-0.0127
N4525 X-1.4924 Y-0.0141
N4530 X-1.4865 Y-0.0152
N4535 X-1.4806 Y-0.016
N4540 X-1.4746 Y-0.0165
N4545 X-1.4686 Y-0.0167
N4550 X-1.4626 Y-0.0166
N4555 X-1.4566 Y-0.0163
N4560 X-1.4507 Y-0.0155
N4565 X-1.4447 Y-0.0145
N4570 X-1.4389 Y-0.0131
N4575 X-1.4332 Y-0.0113
N4580 X-1.4276 Y-0.0091
N4585 X-1.4259 Y-0.0082
N4590 X-1.4172 Y-0.0025
N4595 X-1.4101 Y0.0048
N4600 X-1.4047 Y0.0136
N4605 X-1.4013 Y0.0234
N4610 X-1.4002 Y0.0336
N4615 Y0.0473
N4620 G3 X-1.4124 Y0.0587 Z-0.262 R0.0118
N4625 G1 X-1.4126
N4630 X-1.4231 Y0.0582
N4635 X-1.5333 Y0.0524
N4640 X-1.5441 Y0.0518
N4645 X-1.5451 Z-0.2624
N4650 G3 X-1.5563 Y0.0404 Z-0.27 R0.0118
N4655 G1 Y0.0261
N4660 X-1.556 Y0.0201
N4665 X-1.5541 Y0.0144
N4670 X-1.5513 Y0.009
N4675 X-1.5479 Y0.0041
N4680 X-1.544 Y-0.0005
N4685 X-1.5397 Y-0.0047
N4690 X-1.5351 Y-0.0085
N4695 X-1.5303 Y-0.012
N4700 X-1.5252 Y-0.0152
N4705 X-1.5199 Y-0.018
N4710 X-1.5145 Y-0.0206
N4715 X-1.5089 Y-0.0228
N4720 X-1.5032 Y-0.0248
N4725 X-1.4974 Y-0.0264
N4730 X-1.4916 Y-0.0278
N4735 X-1.4857 Y-0.0288
N4740 X-1.4798 Y-0.0296
N4745 X-1.4738 Y-0.0301
N4750 X-1.4678 Y-0.0303
N4755 X-1.4618 Y-0.0302
N4760 X-1.4558 Y-0.0298
N4765 X-1.4498 Y-0.0291
N4770 X-1.4439 Y-0.028
N4775 X-1.4381 Y-0.0265
N4780 X-1.4324 Y-0.0247
N4785 X-1.4269 Y-0.0224
N4790 X-1.4254 Y-0.0216
N4795 X-1.417 Y-0.016
N4800 X-1.4099 Y-0.0086
N4805 X-1.4046 Y0.0001
N4810 X-1.4013 Y0.0098
N4815 X-1.4002 Y0.0199
N4820 Y0.0336
N4825 G3 X-1.4124 Y0.045 Z-0.262 R0.0118
N4830 G1 X-1.4127
N4835 X-1.4231 Y0.0444
N4840 X-1.5333 Y0.0381
N4845 X-1.5441 Y0.0375
N4850 X-1.5451 Y0.0374 Z-0.2625
N4855 G3 X-1.5563 Y0.0261 Z-0.27 R0.0118
N4860 G1 Y0.013
N4865 X-1.556 Y0.007
N4870 X-1.5542 Y0.0013
N4875 X-1.5515 Y-0.0041
N4880 X-1.5481 Y-0.009
N4885 X-1.5443 Y-0.0136
N4890 X-1.54 Y-0.0178
N4895 X-1.5354 Y-0.0217
N4900 X-1.5306 Y-0.0253
N4905 X-1.5255 Y-0.0285
N4910 X-1.5202 Y-0.0313
N4915 X-1.5148 Y-0.0339
N4920 X-1.5093 Y-0.0362
N4925 X-1.5036 Y-0.0382
N4930 X-1.4978 Y-0.0398
N4935 X-1.492 Y-0.0412
N4940 X-1.4861 Y-0.0423
N4945 X-1.4802 Y-0.0432
N4950 X-1.4742 Y-0.0437
N4955 X-1.4682 Y-0.0439
N4960 X-1.4622
N4965 X-1.4562 Y-0.0435
N4970 X-1.4502 Y-0.0428
N4975 X-1.4443 Y-0.0417
N4980 X-1.4385 Y-0.0403
N4985 X-1.4328 Y-0.0385
N4990 X-1.4272 Y-0.0362
N4995 X-1.4257 Y-0.0354
N5000 X-1.4171 Y-0.0298
N5005 X-1.41 Y-0.0224
N5010 X-1.4046 Y-0.0137
N5015 X-1.4013 Y-0.004
N5020 X-1.4002 Y0.0062
N5025 Y0.0199
N5030 G3 X-1.4124 Y0.0313 Z-0.262 R0.0118
N5035 G1 X-1.4126
N5040 X-1.4231 Y0.0307
N5045 X-1.5333 Y0.025
N5050 X-1.5441 Y0.0245
N5055 X-1.5451 Y0.0244 Z-0.2624
N5060 G3 X-1.5563 Y0.013 Z-0.27 R0.0118
N5065 G1 Y0.
N5070 X-1.556 Y-0.006
N5075 X-1.5542 Y-0.0117
N5080 X-1.5516 Y-0.0171
N5085 X-1.5483 Y-0.0221
N5090 X-1.5445 Y-0.0268
N5095 X-1.5403 Y-0.031
N5100 X-1.5357 Y-0.0349
N5105 X-1.5309 Y-0.0385
N5110 X-1.5258 Y-0.0417
N5115 X-1.5206 Y-0.0446
N5120 X-1.5152 Y-0.0472
N5125 X-1.5096 Y-0.0495
N5130 X-1.504 Y-0.0516
N5135 X-1.4982 Y-0.0533
N5140 X-1.4924 Y-0.0547
N5145 X-1.4865 Y-0.0558
N5150 X-1.4806 Y-0.0567
N5155 X-1.4746 Y-0.0572
N5160 X-1.4686 Y-0.0575
N5165 X-1.4626
N5170 X-1.4566 Y-0.0571
N5175 X-1.4506 Y-0.0565
N5180 X-1.4447 Y-0.0555
N5185 X-1.4389 Y-0.0541
N5190 X-1.4332 Y-0.0522
N5195 X-1.4276 Y-0.05
N5200 X-1.4259 Y-0.0492
N5205 X-1.4173 Y-0.0436
N5210 X-1.4101 Y-0.0362
N5215 X-1.4047 Y-0.0274
N5220 X-1.4013 Y-0.0177
N5225 X-1.4002 Y-0.0074
N5230 Y0.0062
N5235 G3 X-1.4124 Y0.0176 Z-0.262 R0.0118
N5240 G1 X-1.4125
N5245 X-1.4231 Y0.0171
N5250 X-1.5333 Y0.0119
N5255 X-1.5441 Y0.0114
N5260 X-1.545 Z-0.2624
N5265 G3 X-1.5563 Y0. Z-0.27 R0.0118
N5270 G1 Y-0.013
N5275 X-1.556 Y-0.019
N5280 X-1.5543 Y-0.0248
N5285 X-1.5518 Y-0.0302
N5290 X-1.5485 Y-0.0353
N5295 X-1.5447 Y-0.0399
N5300 X-1.5405 Y-0.0442
N5305 X-1.536 Y-0.0481
N5310 X-1.5312 Y-0.0517
N5315 X-1.5262 Y-0.055
N5320 X-1.5209 Y-0.0579
N5325 X-1.5155 Y-0.0606
N5330 X-1.51 Y-0.0629
N5335 X-1.5044 Y-0.065
N5340 X-1.4986 Y-0.0667
N5345 X-1.4928 Y-0.0682
N5350 X-1.4869 Y-0.0693
N5355 X-1.481 Y-0.0702
N5360 X-1.475 Y-0.0708
N5365 X-1.469 Y-0.0711
N5370 X-1.463
N5375 X-1.457 Y-0.0708
N5380 X-1.4511 Y-0.0701
N5385 X-1.4451 Y-0.0692
N5390 X-1.4393 Y-0.0678
N5395 X-1.4336 Y-0.066
N5400 X-1.428 Y-0.0638
N5405 X-1.4262 Y-0.063
N5410 X-1.4175 Y-0.0573
N5415 X-1.4102 Y-0.0499
N5420 X-1.4047 Y-0.0411
N5425 X-1.4013 Y-0.0313
N5430 X-1.4002 Y-0.021
N5435 Y-0.0074
N5440 G3 X-1.4124 Y0.004 Z-0.262 R0.0118
N5445 G1 X-1.4125
N5450 X-1.4231 Y0.0035
N5455 X-1.5333 Y-0.0011
N5460 X-1.544 Y-0.0016
N5465 X-1.545 Z-0.2624
N5470 G3 X-1.5563 Y-0.013 Z-0.27 R0.0118
N5475 G1 Y-0.028
N5480 X-1.556 Y-0.034
N5485 X-1.554 Y-0.0397
N5490 X-1.5512 Y-0.045
N5495 X-1.5477 Y-0.0499
N5500 X-1.5438 Y-0.0545
N5505 X-1.5396 Y-0.0587
N5510 X-1.535 Y-0.0625
N5515 X-1.5301 Y-0.066
N5520 X-1.525 Y-0.0692
N5525 X-1.5198 Y-0.0721
N5530 X-1.5143 Y-0.0747
N5535 X-1.5088 Y-0.077
N5540 X-1.5031 Y-0.0789
N5545 X-1.4974 Y-0.0806
N5550 X-1.4915 Y-0.082
N5555 X-1.4856 Y-0.0831
N5560 X-1.4797 Y-0.0839
N5565 X-1.4737 Y-0.0845
N5570 X-1.4677 Y-0.0847
N5575 X-1.4617
N5580 X-1.4557 Y-0.0843
N5585 X-1.4498 Y-0.0836
N5590 X-1.4439 Y-0.0825
N5595 X-1.4381 Y-0.081
N5600 X-1.4323 Y-0.0792
N5605 X-1.4268 Y-0.0769
N5610 X-1.4255 Y-0.0762
N5615 X-1.417 Y-0.0706
N5620 X-1.4099 Y-0.0632
N5625 X-1.4046 Y-0.0545
N5630 X-1.4013 Y-0.0448
N5635 X-1.4002 Y-0.0347
N5640 Y-0.021
N5645 G3 X-1.4124 Y-0.0096 Z-0.262 R0.0118
N5650 G1 X-1.4126
N5655 X-1.4231 Y-0.0102
N5660 X-1.5333 Y-0.016
N5665 X-1.5441 Y-0.0166
N5670 X-1.5451 Z-0.2624
N5675 G3 X-1.5563 Y-0.028 Z-0.27 R0.0118
N5680 G1 Y-0.0411
N5685 X-1.556 Y-0.047
N5690 X-1.5541 Y-0.0528
N5695 X-1.5514 Y-0.0581
N5700 X-1.548 Y-0.0631
N5705 X-1.5442 Y-0.0677
N5710 X-1.5399 Y-0.0719
N5715 X-1.5353 Y-0.0758
N5720 X-1.5305 Y-0.0793
N5725 X-1.5254 Y-0.0825
N5730 X-1.5202 Y-0.0855
N5735 X-1.5148 Y-0.0881
N5740 X-1.5092 Y-0.0903
N5745 X-1.5036 Y-0.0924
N5750 X-1.4978 Y-0.0941
N5755 X-1.492 Y-0.0955
N5760 X-1.4861 Y-0.0966
N5765 X-1.4802 Y-0.0975
N5770 X-1.4742 Y-0.098
N5775 X-1.4682 Y-0.0983
N5780 X-1.4622
N5785 X-1.4562 Y-0.0979
N5790 X-1.4502 Y-0.0972
N5795 X-1.4443 Y-0.0962
N5800 X-1.4385 Y-0.0948
N5805 X-1.4328 Y-0.093
N5810 X-1.4272 Y-0.0907
N5815 X-1.4257 Y-0.09
N5820 X-1.4172 Y-0.0843
N5825 X-1.41 Y-0.077
N5830 X-1.4046 Y-0.0682
N5835 X-1.4013 Y-0.0585
N5840 X-1.4002 Y-0.0483
N5845 Y-0.0347
N5850 G3 X-1.4124 Y-0.0233 Z-0.262 R0.0118
N5855 G1 X-1.4126
N5860 X-1.4231 Y-0.0238
N5865 X-1.5333 Y-0.0291
N5870 X-1.5441 Y-0.0296
N5875 X-1.545 Y-0.0297 Z-0.2624
N5880 G3 X-1.5563 Y-0.0411 Z-0.27 R0.0118
N5885 G1 Y-0.0541
N5890 X-1.556 Y-0.0601
N5895 X-1.5542 Y-0.0658
N5900 X-1.5516 Y-0.0712
N5905 X-1.5483 Y-0.0762
N5910 X-1.5444 Y-0.0808
N5915 X-1.5402 Y-0.0851
N5920 X-1.5357 Y-0.089
N5925 X-1.5309 Y-0.0926
N5930 X-1.5258 Y-0.0958
N5935 X-1.5206 Y-0.0988
N5940 X-1.5152 Y-0.1014
N5945 X-1.5097 Y-0.1037
N5950 X-1.504 Y-0.1058
N5955 X-1.4983 Y-0.1075
N5960 X-1.4925 Y-0.109
N5965 X-1.4866 Y-0.1101
N5970 X-1.4806 Y-0.111
N5975 X-1.4747 Y-0.1116
N5980 X-1.4687 Y-0.1119
N5985 X-1.4627
N5990 X-1.4567 Y-0.1115
N5995 X-1.4507 Y-0.1109
N6000 X-1.4448 Y-0.1099
N6005 X-1.439 Y-0.1085
N6010 X-1.4332 Y-0.1067
N6015 X-1.4276 Y-0.1045
N6020 X-1.426 Y-0.1037
N6025 X-1.4173 Y-0.0981
N6030 X-1.4101 Y-0.0907
N6035 X-1.4047 Y-0.0819
N6040 X-1.4013 Y-0.0722
N6045 X-1.4002 Y-0.0619
N6050 Y-0.0483
N6055 G3 X-1.4124 Y-0.0369 Z-0.262 R0.0118
N6060 G1 X-1.4125
N6065 X-1.4231 Y-0.0374
N6070 X-1.5333 Y-0.0422
N6075 X-1.544 Y-0.0427
N6080 X-1.545 Z-0.2624
N6085 G3 X-1.5563 Y-0.0541 Z-0.27 R0.0118
N6090 G1 Y-0.0671
N6095 X-1.556 Y-0.0731
N6100 X-1.5543 Y-0.0789
N6105 X-1.5518 Y-0.0843
N6110 X-1.5485 Y-0.0893
N6115 X-1.5447 Y-0.094
N6120 X-1.5405 Y-0.0983
N6125 X-1.536 Y-0.1022
N6130 X-1.5312 Y-0.1059
N6135 X-1.5262 Y-0.1091
N6140 X-1.521 Y-0.1121
N6145 X-1.5156 Y-0.1148
N6150 X-1.5101 Y-0.1171
N6155 X-1.5045 Y-0.1192
N6160 X-1.4987 Y-0.121
N6165 X-1.4929 Y-0.1224
N6170 X-1.487 Y-0.1236
N6175 X-1.4811 Y-0.1245
N6180 X-1.4751 Y-0.1252
N6185 X-1.4691 Y-0.1255
N6190 X-1.4631
N6195 X-1.4572 Y-0.1252
N6200 X-1.4512 Y-0.1246
N6205 X-1.4453 Y-0.1236
N6210 X-1.4394 Y-0.1223
N6215 X-1.4337 Y-0.1205
N6220 X-1.4281 Y-0.1183
N6225 X-1.4263 Y-0.1175
N6230 X-1.4175 Y-0.1118
N6235 X-1.4102 Y-0.1045
N6240 X-1.4047 Y-0.0956
N6245 X-1.4013 Y-0.0858
N6250 X-1.4002 Y-0.0755
N6255 Y-0.0619
N6260 G3 X-1.4124 Y-0.0505 Z-0.262 R0.0118
N6265 G1 X-1.4125
N6270 X-1.4231 Y-0.0509
N6275 X-1.5333 Y-0.0553
N6280 X-1.544 Y-0.0557
N6285 X-1.5449 Z-0.2624
N6290 G3 X-1.5563 Y-0.0671 Z-0.27 R0.0118
N6295 G1 Y-0.0815
N6300 X-1.556 Y-0.0875
N6305 X-1.5541 Y-0.0932
N6310 X-1.5514 Y-0.0986
N6315 X-1.5481 Y-0.1035
N6320 X-1.5442 Y-0.1081
N6325 X-1.54 Y-0.1124
N6330 X-1.5354 Y-0.1163
N6335 X-1.5306 Y-0.1199
N6340 X-1.5256 Y-0.1231
N6345 X-1.5203 Y-0.126
N6350 X-1.5149 Y-0.1287
N6355 X-1.5094 Y-0.131
N6360 X-1.5037 Y-0.133
N6365 X-1.498 Y-0.1347
N6370 X-1.4922 Y-0.1362
N6375 X-1.4863 Y-0.1373
N6380 X-1.4804 Y-0.1382
N6385 X-1.4744 Y-0.1388
N6390 X-1.4684 Y-0.1391
N6395 X-1.4624
N6400 X-1.4564 Y-0.1387
N6405 X-1.4504 Y-0.1381
N6410 X-1.4445 Y-0.1371
N6415 X-1.4387 Y-0.1356
N6420 X-1.433 Y-0.1338
N6425 X-1.4274 Y-0.1316
N6430 X-1.4259 Y-0.1308
N6435 X-1.4172 Y-0.1252
N6440 X-1.4101 Y-0.1178
N6445 X-1.4047 Y-0.1091
N6450 X-1.4013 Y-0.0993
N6455 X-1.4002 Y-0.0891
N6460 Y-0.0755
N6465 G3 X-1.4124 Y-0.0641 Z-0.262 R0.0118
N6470 G1 X-1.4125
N6475 X-1.4231 Y-0.0646
N6480 X-1.5333 Y-0.0696
N6485 X-1.544 Y-0.0701
N6490 X-1.545 Z-0.2624
N6495 G3 X-1.5563 Y-0.0815 Z-0.27 R0.0118
N6500 G1 Y-0.0945
N6505 X-1.556 Y-0.1005
N6510 X-1.5542 Y-0.1063
N6515 X-1.5516 Y-0.1117
N6520 X-1.5483 Y-0.1167
N6525 X-1.5445 Y-0.1213
N6530 X-1.5403 Y-0.1256
N6535 X-1.5358 Y-0.1296
N6540 X-1.531 Y-0.1332
N6545 X-1.526 Y-0.1364
N6550 X-1.5208 Y-0.1394
N6555 X-1.5154 Y-0.142
N6560 X-1.5098 Y-0.1444
N6565 X-1.5042 Y-0.1464
N6570 X-1.4985 Y-0.1482
N6575 X-1.4927 Y-0.1497
N6580 X-1.4868 Y-0.1508
N6585 X-1.4808 Y-0.1517
N6590 X-1.4749 Y-0.1524
N6595 X-1.4689 Y-0.1527
N6600 X-1.4629
N6605 X-1.4569 Y-0.1523
N6610 X-1.4509 Y-0.1517
N6615 X-1.445 Y-0.1507
N6620 X-1.4392 Y-0.1494
N6625 X-1.4334 Y-0.1476
N6630 X-1.4278 Y-0.1454
N6635 X-1.4261 Y-0.1446
N6640 X-1.4174 Y-0.139
N6645 X-1.4102 Y-0.1316
N6650 X-1.4047 Y-0.1228
N6655 X-1.4013 Y-0.113
N6660 X-1.4002 Y-0.1027
N6665 Y-0.0891
N6670 G3 X-1.4124 Y-0.0777 Z-0.262 R0.0118
N6675 G1 X-1.4125
N6680 X-1.4231 Y-0.0781
N6685 X-1.5333 Y-0.0827
N6690 X-1.544 Y-0.0831
N6695 X-1.5449 Z-0.2624
N6700 G3 X-1.5563 Y-0.0945 Z-0.27 R0.0118
N6705 G1 Y-0.1078
N6710 X-1.556 Y-0.1138
N6715 X-1.5543 Y-0.1196
N6720 X-1.5517 Y-0.125
N6725 X-1.5485 Y-0.13
N6730 X-1.5447 Y-0.1347
N6735 X-1.5405 Y-0.139
N6740 X-1.536 Y-0.1429
N6745 X-1.5312 Y-0.1466
N6750 X-1.5262 Y-0.1498
N6755 X-1.521 Y-0.1528
N6760 X-1.5156 Y-0.1555
N6765 X-1.5101 Y-0.1578
N6770 X-1.5045 Y-0.1599
N6775 X-1.4987 Y-0.1617
N6780 X-1.4929 Y-0.1632
N6785 X-1.487 Y-0.1644
N6790 X-1.4811 Y-0.1653
N6795 X-1.4751 Y-0.1659
N6800 X-1.4692 Y-0.1662
N6805 X-1.4632 Y-0.1663
N6810 X-1.4572 Y-0.166
N6815 X-1.4512 Y-0.1653
N6820 X-1.4453 Y-0.1644
N6825 X-1.4394 Y-0.163
N6830 X-1.4337 Y-0.1613
N6835 X-1.4281 Y-0.1591
N6840 X-1.4263 Y-0.1582
N6845 X-1.4175 Y-0.1526
N6850 X-1.4102 Y-0.1452
N6855 X-1.4047 Y-0.1364
N6860 X-1.4013 Y-0.1266
N6865 X-1.4002 Y-0.1163
N6870 Y-0.1027
N6875 G3 X-1.4124 Y-0.0913 Z-0.262 R0.0118
N6880 G1 X-1.4231 Y-0.0917
N6885 X-1.5333 Y-0.096
N6890 X-1.544 Y-0.0964
N6895 X-1.5449 Z-0.2624
N6900 G3 X-1.5563 Y-0.1078 Z-0.27 R0.0118
N6905 G1 Y-0.1224
N6910 X-1.556 Y-0.1284
N6915 X-1.5541 Y-0.1341
N6920 X-1.5513 Y-0.1395
N6925 X-1.5479 Y-0.1444
N6930 X-1.5441 Y-0.149
N6935 X-1.5398 Y-0.1533
N6940 X-1.5353 Y-0.1571
N6945 X-1.5304 Y-0.1607
N6950 X-1.5254 Y-0.1639
N6955 X-1.5201 Y-0.1669
N6960 X-1.5147 Y-0.1695
N6965 X-1.5092 Y-0.1718
N6970 X-1.5036 Y-0.1738
N6975 X-1.4978 Y-0.1755
N6980 X-1.492 Y-0.177
N6985 X-1.4861 Y-0.1781
N6990 X-1.4802 Y-0.179
N6995 X-1.4742 Y-0.1796
N7000 X-1.4682 Y-0.1798
N7005 X-1.4622
N7010 X-1.4562 Y-0.1795
N7015 X-1.4502 Y-0.1788
N7020 X-1.4443 Y-0.1778
N7025 X-1.4385 Y-0.1764
N7030 X-1.4328 Y-0.1745
N7035 X-1.4272 Y-0.1723
N7040 X-1.4258 Y-0.1716
N7045 X-1.4172 Y-0.1659
N7050 X-1.41 Y-0.1586
N7055 X-1.4046 Y-0.1498
N7060 X-1.4013 Y-0.1401
N7065 X-1.4002 Y-0.1299
N7070 Y-0.1163
N7075 G3 X-1.4124 Y-0.1049 Z-0.262 R0.0118
N7080 G1 X-1.4125
N7085 X-1.4231 Y-0.1054
N7090 X-1.5333 Y-0.1105
N7095 X-1.5441 Y-0.111
N7100 X-1.545 Y-0.1111 Z-0.2624
N7105 G3 X-1.5563 Y-0.1224 Z-0.27 R0.0118
N7110 G1 Y-0.1355
N7115 X-1.556 Y-0.1415
N7120 X-1.5542 Y-0.1472
N7125 X-1.5515 Y-0.1526
N7130 X-1.5482 Y-0.1576
N7135 X-1.5444 Y-0.1622
N7140 X-1.5402 Y-0.1665
N7145 X-1.5357 Y-0.1704
N7150 X-1.5309 Y-0.174
N7155 X-1.5258 Y-0.1773
N7160 X-1.5206 Y-0.1802
N7165 X-1.5152 Y-0.1828
N7170 X-1.5097 Y-0.1852
N7175 X-1.504 Y-0.1872
N7180 X-1.4983 Y-0.189
N7185 X-1.4925 Y-0.1904
N7190 X-1.4866 Y-0.1916
N7195 X-1.4807 Y-0.1925
N7200 X-1.4747 Y-0.1931
N7205 X-1.4687 Y-0.1934
N7210 X-1.4627
N7215 X-1.4567 Y-0.1931
N7220 X-1.4507 Y-0.1925
N7225 X-1.4448 Y-0.1915
N7230 X-1.439 Y-0.1901
N7235 X-1.4333 Y-0.1883
N7240 X-1.4277 Y-0.1861
N7245 X-1.426 Y-0.1853
N7250 X-1.4174 Y-0.1797
N7255 X-1.4101 Y-0.1723
N7260 X-1.4047 Y-0.1635
N7265 X-1.4013 Y-0.1537
N7270 X-1.4002 Y-0.1434
N7275 Y-0.1299
N7280 G3 X-1.4124 Y-0.1185 Z-0.262 R0.0118
N7285 G1 X-1.4125
N7290 X-1.4231 Y-0.1189
N7295 X-1.5333 Y-0.1236
N7300 X-1.544 Y-0.124
N7305 X-1.545 Y-0.1241 Z-0.2624
N7310 G3 X-1.5563 Y-0.1355 Z-0.27 R0.0118
N7315 G1 Y-0.1485
N7320 X-1.556 Y-0.1545
N7325 X-1.5543 Y-0.1603
N7330 X-1.5517 Y-0.1657
N7335 X-1.5485 Y-0.1707
N7340 X-1.5447 Y-0.1754
N7345 X-1.5405 Y-0.1797
N7350 X-1.536 Y-0.1837
N7355 X-1.5313 Y-0.1873
N7360 X-1.5262 Y-0.1906
N7365 X-1.521 Y-0.1935
N7370 X-1.5157 Y-0.1962
N7375 X-1.5101 Y-0.1986
N7380 X-1.5045 Y-0.2006
N7385 X-1.4988 Y-0.2024
N7390 X-1.493 Y-0.2039
N7395 X-1.4871 Y-0.2051
N7400 X-1.4812 Y-0.206
N7405 X-1.4752 Y-0.2067
N7410 X-1.4692 Y-0.207
N7415 X-1.4632
N7420 X-1.4572 Y-0.2067
N7425 X-1.4512 Y-0.2061
N7430 X-1.4453 Y-0.2052
N7435 X-1.4395 Y-0.2038
N7440 X-1.4337 Y-0.2021
N7445 X-1.4281 Y-0.1999
N7450 X-1.4263 Y-0.199
N7455 X-1.4176 Y-0.1934
N7460 X-1.4102 Y-0.186
N7465 X-1.4048 Y-0.1772
N7470 X-1.4013 Y-0.1674
N7475 X-1.4002 Y-0.157
N7480 Y-0.1434
N7485 G3 X-1.4124 Y-0.1321 Z-0.262 R0.0118
N7490 G1 X-1.4231 Y-0.1325
N7495 X-1.5333 Y-0.1367
N7500 X-1.544 Y-0.1371
N7505 X-1.5449 Z-0.2624
N7510 G3 X-1.5563 Y-0.1485 Z-0.27 R0.0118
N7515 G1 Y-0.1628
N7520 X-1.556 Y-0.1688
N7525 X-1.5541 Y-0.1746
N7530 X-1.5514 Y-0.1799
N7535 X-1.5481 Y-0.1849
N7540 X-1.5443 Y-0.1895
N7545 X-1.54 Y-0.1938
N7550 X-1.5355 Y-0.1977
N7555 X-1.5307 Y-0.2013
N7560 X-1.5256 Y-0.2045
N7565 X-1.5204 Y-0.2075
N7570 X-1.515 Y-0.2101
N7575 X-1.5095 Y-0.2124
N7580 X-1.5039 Y-0.2145
N7585 X-1.4981 Y-0.2162
N7590 X-1.4923 Y-0.2177
N7595 X-1.4864 Y-0.2188
N7600 X-1.4805 Y-0.2197
N7605 X-1.4745 Y-0.2203
N7610 X-1.4685 Y-0.2206
N7615 X-1.4625
N7620 X-1.4565 Y-0.2203
N7625 X-1.4506 Y-0.2196
N7630 X-1.4446 Y-0.2186
N7635 X-1.4388 Y-0.2172
N7640 X-1.4331 Y-0.2154
N7645 X-1.4275 Y-0.2132
N7650 X-1.4259 Y-0.2124
N7655 X-1.4173 Y-0.2068
N7660 X-1.4101 Y-0.1994
N7665 X-1.4047 Y-0.1906
N7670 X-1.4013 Y-0.1809
N7675 X-1.4002 Y-0.1706
N7680 Y-0.157
N7685 G3 X-1.4124 Y-0.1456 Z-0.262 R0.0118
N7690 G1 X-1.4125
N7695 X-1.4231 Y-0.1461
N7700 X-1.5333 Y-0.1509
N7705 X-1.544 Y-0.1514
N7710 X-1.545 Z-0.2624
N7715 G3 X-1.5563 Y-0.1628 Z-0.27 R0.0118
N7720 G1 Y-0.1759
N7725 X-1.556 Y-0.1819
N7730 X-1.5543 Y-0.1876
N7735 X-1.5517 Y-0.193
N7740 X-1.5484 Y-0.198
N7745 X-1.5446 Y-0.2027
N7750 X-1.5404 Y-0.207
N7755 X-1.5359 Y-0.2109
N7760 X-1.5311 Y-0.2145
N7765 X-1.5261 Y-0.2178
N7770 X-1.5209 Y-0.2208
N7775 X-1.5155 Y-0.2235
N7780 X-1.51 Y-0.2258
N7785 X-1.5043 Y-0.2279
N7790 X-1.4986 Y-0.2296
N7795 X-1.4928 Y-0.2311
N7800 X-1.4869 Y-0.2323
N7805 X-1.481 Y-0.2332
N7810 X-1.475 Y-0.2339
N7815 X-1.469 Y-0.2342
N7820 X-1.463
N7825 X-1.457 Y-0.2339
N7830 X-1.4511 Y-0.2333
N7835 X-1.4451 Y-0.2323
N7840 X-1.4393 Y-0.2309
N7845 X-1.4336 Y-0.2292
N7850 X-1.428 Y-0.227
N7855 X-1.4262 Y-0.2261
N7860 X-1.4175 Y-0.2205
N7865 X-1.4102 Y-0.2131
N7870 X-1.4047 Y-0.2043
N7875 X-1.4013 Y-0.1945
N7880 X-1.4002 Y-0.1842
N7885 Y-0.1706
N7890 G3 X-1.4124 Y-0.1592 Z-0.262 R0.0118
N7895 G1 X-1.4125
N7900 X-1.4231 Y-0.1597
N7905 X-1.5333 Y-0.164
N7910 X-1.544 Y-0.1644
N7915 X-1.5449 Y-0.1645 Z-0.2624
N7920 G3 X-1.5563 Y-0.1759 Z-0.27 R0.0118
N7925 G1 Y-0.1889
N7930 X-1.556 Y-0.1949
N7935 X-1.5544 Y-0.2007
N7940 X-1.5519 Y-0.2061
N7945 X-1.5487 Y-0.2112
N7950 X-1.5449 Y-0.2159
N7955 X-1.5408 Y-0.2202
N7960 X-1.5363 Y-0.2242
N7965 X-1.5315 Y-0.2278
N7970 X-1.5265 Y-0.2311
N7975 X-1.5213 Y-0.2341
N7980 X-1.5159 Y-0.2368
N7985 X-1.5104 Y-0.2392
N7990 X-1.5048 Y-0.2413
N7995 X-1.4991 Y-0.2431
N8000 X-1.4933 Y-0.2446
N8005 X-1.4874 Y-0.2458
N8010 X-1.4815 Y-0.2468
N8015 X-1.4755 Y-0.2474
N8020 X-1.4695 Y-0.2477
N8025 X-1.4635 Y-0.2478
N8030 X-1.4575 Y-0.2475
N8035 X-1.4515 Y-0.2469
N8040 X-1.4456 Y-0.246
N8045 X-1.4398 Y-0.2447
N8050 X-1.434 Y-0.2429
N8055 X-1.4284 Y-0.2408
N8060 X-1.4265 Y-0.2399
N8065 X-1.4177 Y-0.2343
N8070 X-1.4103 Y-0.2269
N8075 X-1.4048 Y-0.218
N8080 X-1.4013 Y-0.2082
N8085 X-1.4002 Y-0.1978
N8090 Y-0.1842
N8095 G3 X-1.4124 Y-0.1728 Z-0.262 R0.0118
N8100 G1 X-1.4231 Y-0.1732
N8105 X-1.5333 Y-0.1771
N8110 X-1.544 Y-0.1775
N8115 X-1.5449 Z-0.2624
N8120 G3 X-1.5563 Y-0.1889 Z-0.27 R0.0118
N8125 G1 Y-0.2039
N8130 X-1.556 Y-0.2099
N8135 X-1.5541 Y-0.2156
N8140 X-1.5513 Y-0.2209
N8145 X-1.5479 Y-0.2259
N8150 X-1.5441 Y-0.2305
N8155 X-1.5398 Y-0.2347
N8160 X-1.5353 Y-0.2386
N8165 X-1.5305 Y-0.2422
N8170 X-1.5254 Y-0.2454
N8175 X-1.5202 Y-0.2483
N8180 X-1.5148 Y-0.251
N8185 X-1.5092 Y-0.2533
N8190 X-1.5036 Y-0.2553
N8195 X-1.4978 Y-0.257
N8200 X-1.492 Y-0.2585
N8205 X-1.4861 Y-0.2596
N8210 X-1.4802 Y-0.2605
N8215 X-1.4742 Y-0.2611
N8220 X-1.4682 Y-0.2614
N8225 X-1.4622 Y-0.2613
N8230 X-1.4562 Y-0.261
N8235 X-1.4503 Y-0.2603
N8240 X-1.4444 Y-0.2593
N8245 X-1.4385 Y-0.2579
N8250 X-1.4328 Y-0.2561
N8255 X-1.4272 Y-0.2539
N8260 X-1.4258 Y-0.2531
N8265 X-1.4172 Y-0.2475
N8270 X-1.41 Y-0.2401
N8275 X-1.4046 Y-0.2313
N8280 X-1.4013 Y-0.2216
N8285 X-1.4002 Y-0.2114
N8290 Y-0.1978
N8295 G3 X-1.4124 Y-0.1864 Z-0.262 R0.0118
N8300 G1 X-1.4125
N8305 X-1.4231 Y-0.1869
N8310 X-1.5333 Y-0.192
N8315 X-1.5441 Y-0.1925
N8320 X-1.545 Z-0.2624
N8325 G3 X-1.5563 Y-0.2039 Z-0.27 R0.0118
N8330 G1 Y-0.2169
N8335 X-1.556 Y-0.2229
N8340 X-1.5542 Y-0.2286
N8345 X-1.5516 Y-0.234
N8350 X-1.5482 Y-0.239
N8355 X-1.5444 Y-0.2437
N8360 X-1.5402 Y-0.2479
N8365 X-1.5357 Y-0.2519
N8370 X-1.5309 Y-0.2555
N8375 X-1.5258 Y-0.2587
N8380 X-1.5206 Y-0.2617
N8385 X-1.5152 Y-0.2643
N8390 X-1.5097 Y-0.2667
N8395 X-1.5041 Y-0.2687
N8400 X-1.4983 Y-0.2705
N8405 X-1.4925 Y-0.2719
N8410 X-1.4866 Y-0.2731
N8415 X-1.4807 Y-0.274
N8420 X-1.4747 Y-0.2746
N8425 X-1.4687 Y-0.2749
N8430 X-1.4627
N8435 X-1.4568 Y-0.2746
N8440 X-1.4508 Y-0.274
N8445 X-1.4449 Y-0.273
N8450 X-1.439 Y-0.2716
N8455 X-1.4333 Y-0.2698
N8460 X-1.4277 Y-0.2677
N8465 X-1.4261 Y-0.2668
N8470 X-1.4174 Y-0.2612
N8475 X-1.4101 Y-0.2538
N8480 X-1.4047 Y-0.245
N8485 X-1.4013 Y-0.2352
N8490 X-1.4002 Y-0.225
N8495 Y-0.2114
N8500 G3 X-1.4124 Y-0.2 Z-0.262 R0.0118
N8505 G1 X-1.4125
N8510 X-1.4231 Y-0.2004
N8515 X-1.5333 Y-0.205
N8520 X-1.544 Y-0.2055
N8525 X-1.5449 Z-0.2624
N8530 G3 X-1.5563 Y-0.2169 Z-0.27 R0.0118
N8535 G1 Y-0.2299
N8540 X-1.556 Y-0.2359
N8545 X-1.5543 Y-0.2417
N8550 X-1.5518 Y-0.2471
N8555 X-1.5485 Y-0.2522
N8560 X-1.5447 Y-0.2569
N8565 X-1.5406 Y-0.2612
N8570 X-1.5361 Y-0.2651
N8575 X-1.5339 Y-0.2668
N8580 X-1.5252 Y-0.272
N8585 X-1.5156 Y-0.2752
N8590 X-1.5056 Y-0.2763
N8595 G3 X-1.4942 Y-0.2645 Z-0.2622 R0.0118
N8600 G1 Y-0.2641 Z-0.262
N8605 X-1.4945 Y-0.2617
N8610 X-1.4953 Y-0.2595
N8615 X-1.4966 Y-0.2574
N8620 X-1.4982 Y-0.2556
N8625 X-1.499 Y-0.2549
N8630 X-1.5347 Y-0.2232
N8635 X-1.5366 Y-0.2215
N8640 X-1.5388 Y-0.22
N8645 X-1.5414 Y-0.219
N8650 X-1.544 Y-0.2186
N8655 G3 X-1.5563 Y-0.2299 Z-0.27 R0.0118
N8660 G1 Y-0.2443
N8665 X-1.556 Y-0.2503
N8670 X-1.552 Y-0.2588
N8675 X-1.5461 Y-0.2661
N8680 X-1.5385 Y-0.2716
N8685 X-1.5298 Y-0.2751
N8690 X-1.5205 Y-0.2763
N8695 G3 X-1.5091 Y-0.2645 Z-0.2622 R0.0118
N8700 G1 Y-0.2641 Z-0.262
N8705 X-1.5095 Y-0.2616
N8710 X-1.5103 Y-0.2593
N8715 X-1.5116 Y-0.2572
N8720 X-1.5133 Y-0.2554
N8725 X-1.514 Y-0.2549
N8730 X-1.5347 Y-0.2376
N8735 X-1.5369 Y-0.2357
N8740 X-1.539 Y-0.2343
N8745 X-1.5415 Y-0.2333
N8750 X-1.544 Y-0.233
N8755 G3 X-1.5563 Y-0.2443 Z-0.27 R0.0118
N8760 G1 Y-0.256
N8765 X-1.556 Y-0.262
N8770 X-1.5522 Y-0.2678
N8775 X-1.547 Y-0.2724
N8780 X-1.5407 Y-0.2753
N8785 X-1.5339 Y-0.2763
N8790 G3 X-1.5182 Y-0.2677 Z-0.262 R0.0199
N8795 X-1.516 Y-0.2494 R0.0199
N8800 X-1.5428 Y-0.2372 R0.0208
N8805 X-1.548 Y-0.2401 R0.0208
N8810 X-1.5563 Y-0.256 Z-0.27 R0.0208
N8815 G1 Y-0.2638
N8820 X-1.5562 Y-0.2654
N8825 X-1.5558 Y-0.2671
N8830 X-1.5553 Y-0.2685
N8835 X-1.5546 Y-0.27
N8840 X-1.5535 Y-0.2715
N8845 X-1.5521 Y-0.273
N8850 X-1.5515 Y-0.2736
N8855 X-1.55 Y-0.2746
N8860 X-1.5485 Y-0.2754
N8865 X-1.5471 Y-0.2759
N8870 X-1.5456 Y-0.2762
N8875 X-1.5391 Y-0.2763
N8880 X-1.436
N8885 X-1.43 Y-0.276
N8890 X-1.4242 Y-0.2747
N8895 X-1.4162 Y-0.2703
N8900 X-1.4095 Y-0.2642
N8905 X-1.4044 Y-0.2567
N8910 X-1.4013 Y-0.2482
N8915 X-1.4002 Y-0.2392
N8920 G3 X-1.412 Y-0.2278 Z-0.2622 R0.0118
N8925 G1 X-1.4124 Z-0.262
N8930 X-1.4147 Y-0.2281
N8935 X-1.4168 Y-0.2289
N8940 X-1.4188 Y-0.23
N8945 X-1.4205 Y-0.2315
N8950 X-1.4216 Y-0.2326
N8955 X-1.4427 Y-0.2548
N8960 X-1.4442 Y-0.2563
N8965 X-1.4455 Y-0.258
N8970 X-1.4465 Y-0.2599
N8975 X-1.4472 Y-0.2619
N8980 X-1.4474 Y-0.2641
N8985 G3 X-1.436 Y-0.2763 Z-0.27 R0.0118
N8990 G1 X-1.4217
N8995 X-1.4157 Y-0.276
N9000 X-1.4094 Y-0.2722
N9005 X-1.4044 Y-0.2668
N9010 X-1.4013 Y-0.2602
N9015 X-1.4002 Y-0.2529
N9020 G3 X-1.4084 Y-0.2369 Z-0.262 R0.021
N9025 X-1.4283 Y-0.2338 R0.021
N9030 X-1.4415 Y-0.2619 R0.0219
N9035 X-1.4378 Y-0.2683 R0.0219
N9040 X-1.4217 Y-0.2763 Z-0.27 R0.0219
N9045 G1 X-1.4134
N9050 X-1.4119
N9055 X-1.4103 Y-0.2761
N9060 X-1.4083 Y-0.2754
N9065 X-1.4068 Y-0.2748
N9070 G3 X-1.4046 Y-0.2643 R0.0076
N9075 X-1.4152 Y-0.2621 R0.0076
N9080 X-1.4173 Y-0.2727 R0.0076
N9085 X-1.4159 Y-0.2743 R0.0076
N9090 G1 X-1.4142 Y-0.2754
N9095 X-1.4123 Y-0.276
N9100 X-1.4103 Y-0.2761
N9105 X-1.4086 Y-0.2756
N9110 X-1.4068 Y-0.2748
N9115 X-1.4059 Y-0.2743
N9120 X-1.405 Y-0.2736
N9125 X-1.4033 Y-0.272
N9130 X-1.4021 Y-0.2704
N9135 X-1.4012 Y-0.2687
N9140 X-1.4006 Y-0.2671
N9145 X-1.4003 Y-0.2654
N9150 X-1.4002 Y-0.2638
N9155 Y-0.225
N9160 G3 X-1.412 Y-0.2136 R0.0118
N9165 G1 X-1.413
N9170 X-1.4149 Y-0.2143 Z-0.2698
N9175 X-1.4168 Y-0.215 Z-0.2692
N9180 X-1.4186 Y-0.2156 Z-0.2683
N9185 X-1.4199 Y-0.217 Z-0.2669
N9190 X-1.421 Y-0.2182 Z-0.265
N9195 X-1.4218 Y-0.2191 Z-0.2629
N9200 X-1.4223 Y-0.2197 Z-0.2606
N9205 X-1.4224 Y-0.2198 Z-0.2582
N9210 G0 Z0.2
N9215 X1.7349 Y-0.0388
N9220 Z0.102
N9225 G3 X1.8088 Y-0.0351 Z0.0991 R0.0524 F47.48
N9230 X1.8204 Y-0.0141 Z0.0983 R0.0524
N9235 X1.7841 Y0.0504 Z0.0954 R0.0523
N9240 X1.7602 Y0.0514 Z0.0946 R0.0523
N9245 X1.7187 Y-0.0098 Z0.0917 R0.0523
N9250 X1.7286 Y-0.0317 Z0.0908 R0.0523
N9255 X1.8017 Y-0.0414 Z0.088 R0.0522
N9260 X1.8169 Y-0.0229 Z0.0871 R0.0522
N9265 X1.7929 Y0.0468 Z0.0842 R0.0521
N9270 X1.7696 Y0.0521 Z0.0834 R0.0521
N9275 X1.718 Y-0.0004 Z0.0805 R0.0521
N9280 X1.7237 Y-0.0236 Z0.0797 R0.0521
N9285 X1.7936 Y-0.0463 Z0.0768 R0.052
N9290 X1.8118 Y-0.0309 Z0.076 R0.052
N9295 X1.8009 Y0.0417 Z0.0731 R0.0519
N9300 X1.779 Y0.0511 Z0.0722 R0.0519
N9305 X1.719 Y0.009 Z0.0694 R0.0519
N9310 X1.7204 Y-0.0147 Z0.0685 R0.0519
N9315 X1.7848 Y-0.0496 Z0.0656 R0.0518
N9320 X1.8054 Y-0.0378 Z0.0648 R0.0518
N9325 X1.8078 Y0.0353 Z0.0619 R0.0517
N9330 X1.7881 Y0.0485 Z0.0611 R0.0517
N9335 X1.7216 Y0.018 Z0.0582 R0.0517
N9340 X1.7187 Y-0.0055 Z0.0574 R0.0517
N9345 X1.7755 Y-0.0513 Z0.0545 R0.0516
N9350 X1.7978 Y-0.0434 Z0.0536 R0.0516
N9355 X1.8134 Y0.0278 Z0.0508 R0.0515
N9360 X1.7965 Y0.0442 Z0.0499 R0.0515
N9365 X1.7259 Y0.0264 Z0.047 R0.0515
N9370 X1.7187 Y0.0039 Z0.0462 R0.0515
N9375 X1.7661 Y-0.0512 Z0.0433 R0.0514
N9380 X1.7894 Y-0.0476 Z0.0425 R0.0514
N9385 X1.8176 Y0.0194 Z0.0396 R0.0513
N9390 X1.8039 Y0.0386 Z0.0388 R0.0513
N9395 X1.7315 Y0.0338 Z0.0359 R0.0513
N9400 X1.7205 Y0.0131 Z0.035 R0.0513
N9405 X1.757 Y-0.0495 Z0.0322 R0.0512
N9410 X1.7805 Y-0.0501 Z0.0313 R0.0512
N9415 X1.8201 Y0.0104 Z0.0284 R0.0511
N9420 X1.8102 Y0.0317 Z0.0276 R0.0511
N9425 X1.7384 Y0.0401 Z0.0247 R0.0511
N9430 X1.7238 Y0.0218 Z0.0239 R0.0511
N9435 X1.7483 Y-0.0461 Z0.021 R0.051
N9440 X1.7712 Y-0.051 Z0.0202 R0.051
N9445 X1.821 Y0.0012 Z0.0173 R0.051
N9450 X1.8151 Y0.0238 Z0.0164 R0.051
N9455 X1.7463 Y0.045 Z0.0136 R0.0509
N9460 X1.7287 Y0.0296 Z0.0127 R0.0509
N9465 X1.7404 Y-0.0413 Z0.0098 R0.0508
N9470 X1.762 Y-0.0501 Z0.009 R0.0508
N9475 X1.8201 Y-0.008 Z0.0061 R0.0508
N9480 X1.8184 Y0.0152 Z0.0053 R0.0508
N9485 X1.7549 Y0.0484 Z0.0024 R0.0507
N9490 X1.7349 Y0.0365 Z0.0016 R0.0507
N9495 X1.7336 Y-0.0351 Z-0.0013 R0.0506
N9500 X1.7531 Y-0.0477 Z-0.0022 R0.0506
N9505 X1.8177 Y-0.0169 Z-0.005 R0.0506
N9510 X1.8202 Y0.0061 Z-0.0059 R0.0506
N9515 X1.7639 Y0.0501 Z-0.0088 R0.0505
N9520 X1.7422 Y0.0421 Z-0.0096 R0.0505
N9525 X1.728 Y-0.0278 Z-0.0125 R0.0504
N9530 X1.7448 Y-0.0436 Z-0.0133 R0.0504
N9535 X1.8136 Y-0.0252 Z-0.0162 R0.0504
N9540 X1.8203 Y-0.003 Z-0.017 R0.0504
N9545 X1.7731 Y0.0502 Z-0.0199 R0.0503
N9550 X1.7504 Y0.0463 Z-0.0208 R0.0503
N9555 X1.7238 Y-0.0196 Z-0.0236 R0.0502
N9560 X1.7375 Y-0.0382 Z-0.0245 R0.0502
N9565 X1.8082 Y-0.0325 Z-0.0274 R0.0502
N9570 X1.8187 Y-0.012 Z-0.0282 R0.0502
N9575 X1.7821 Y0.0486 Z-0.0311 R0.0501
N9580 X1.7591 Y0.0489 Z-0.0319 R0.0501
N9585 X1.7212 Y-0.0109 Z-0.0348 R0.05
N9590 X1.7312 Y-0.0316 Z-0.0356 R0.05
N9595 X1.8016 Y-0.0388 Z-0.0385 R0.05
N9600 X1.8155 Y-0.0206 Z-0.0394 R0.05
N9605 X1.7906 Y0.0455 Z-0.0422 R0.0499
N9610 X1.7681 Y0.0499 Z-0.0431 R0.0499
N9615 X1.7202 Y-0.0019 Z-0.046 R0.0498
N9620 X1.7263 Y-0.0239 Z-0.0468 R0.0498
N9625 X1.7939 Y-0.0436 Z-0.0497 R0.0498
N9630 X1.8109 Y-0.0284 Z-0.0505 R0.0498
N9635 X1.7984 Y0.0408 Z-0.0534 R0.0497
N9640 X1.7772 Y0.0492 Z-0.0542 R0.0497
N9645 X1.7209 Y0.0072 Z-0.0571 R0.0497
N9650 X1.7229 Y-0.0155 Z-0.058 R0.0497
N9655 X1.7856 Y-0.0471 Z-0.0608 R0.0496
N9660 X1.8049 Y-0.0352 Z-0.0617 R0.0496
N9665 X1.8052 Y0.0349 Z-0.0646 R0.0495
N9670 X1.7859 Y0.0469 Z-0.0654 R0.0495
N9675 X1.7232 Y0.0159 Z-0.0683 R0.0495
N9680 X1.7211 Y-0.0067 Z-0.0691 R0.0495
N9685 X1.7767 Y-0.0489 Z-0.072 R0.0494
N9690 X1.7979 Y-0.0407 Z-0.0728 R0.0494
N9695 X1.8108 Y0.0278 Z-0.0757 R0.0493
N9700 X1.794 Y0.0431 Z-0.0766 R0.0493
N9705 X1.727 Y0.024 Z-0.0794 R0.0493
N9710 X1.7209 Y0.0023 Z-0.0803 R0.0493
N9715 X1.7678 Y-0.0491 Z-0.0832 R0.0492
N9720 X1.79 Y-0.0449 Z-0.084 R0.0492
N9725 X1.8149 Y0.0199 Z-0.0869 R0.0491
N9730 X1.8013 Y0.0379 Z-0.0877 R0.0491
N9735 X1.7322 Y0.0313 Z-0.0906 R0.0491
N9740 X1.7223 Y0.0111 Z-0.0914 R0.0491
N9745 X1.759 Y-0.0477 Z-0.0943 R0.049
N9750 X1.7814 Y-0.0476 Z-0.0952 R0.049
N9755 X1.8176 Y0.0114 Z-0.098 R0.0489
N9760 X1.8075 Y0.0314 Z-0.0989 R0.0489
N9765 X1.7386 Y0.0374 Z-0.1018 R0.0489
N9770 X1.7252 Y0.0195 Z-0.1026 R0.0489
N9775 X1.7506 Y-0.0447 Z-0.1055 R0.0488
N9780 X1.7726 Y-0.0487 Z-0.1063 R0.0488
N9785 X1.8187 Y0.0026 Z-0.1092 R0.0487
N9790 X1.8124 Y0.024 Z-0.11 R0.0487
N9795 X1.746 Y0.0423 Z-0.1129 R0.0487
N9800 X1.7297 Y0.0272 Z-0.1138 R0.0487
N9805 X1.7429 Y-0.0403 Z-0.1166 R0.0486
N9810 X1.7638 Y-0.0482 Z-0.1175 R0.0486
N9815 X1.8182 Y-0.0063 Z-0.1204 R0.0486
N9820 X1.8159 Y0.0159 Z-0.1212 R0.0486
N9825 X1.7542 Y0.0458 Z-0.1241 R0.0485
N9830 X1.7354 Y0.0339 Z-0.1249 R0.0485
N9835 X1.7362 Y-0.0346 Z-0.1278 R0.0484
N9840 X1.7552 Y-0.0461 Z-0.1286 R0.0484
N9845 X1.816 Y-0.0148 Z-0.1315 R0.0484
N9850 X1.8178 Y0.0073 Z-0.1324 R0.0484
N9855 X1.7628 Y0.0477 Z-0.1352 R0.0483
N9860 X1.7422 Y0.0394 Z-0.1361 R0.0483
N9865 X1.7306 Y-0.0278 Z-0.139 R0.0482
N9870 X1.7472 Y-0.0424 Z-0.1398 R0.0482
N9875 X1.8124 Y-0.0228 Z-0.1427 R0.0482
N9880 X1.8181 Y-0.0015 Z-0.1435 R0.0482
N9885 X1.7715 Y0.0481 Z-0.1464 R0.0481
N9890 X1.7499 Y0.0437 Z-0.1472 R0.0481
N9895 X1.7264 Y-0.0201 Z-0.1501 R0.048
N9900 X1.74 Y-0.0374 Z-0.151 R0.048
N9905 X1.8074 Y-0.03 Z-0.1538 R0.048
N9910 X1.8169 Y-0.0101 Z-0.1547 R0.048
N9915 X1.7802 Y0.0468 Z-0.1576 R0.0479
N9920 X1.7582 Y0.0464 Z-0.1584 R0.0479
N9925 X1.7237 Y-0.0118 Z-0.1613 R0.0478
N9930 X1.7339 Y-0.0313 Z-0.1621 R0.0478
N9935 X1.8013 Y-0.0361 Z-0.165 R0.0478
N9940 X1.8141 Y-0.0184 Z-0.1658 R0.0478
N9945 X1.7884 Y0.044 Z-0.1687 R0.0477
N9950 X1.7668 Y0.0476 Z-0.1696 R0.0477
N9955 X1.7225 Y-0.0032 Z-0.1724 R0.0476
N9960 X1.729 Y-0.0241 Z-0.1733 R0.0476
N9965 X1.7941 Y-0.041 Z-0.1762 R0.0476
N9970 X1.8099 Y-0.0259 Z-0.177 R0.0476
N9975 X1.796 Y0.0398 Z-0.1799 R0.0475
N9980 X1.7754 Y0.0472 Z-0.1807 R0.0475
N9985 X1.7229 Y0.0054 Z-0.1836 R0.0474
N9990 X1.7255 Y-0.0162 Z-0.1844 R0.0474
N9995 X1.7862 Y-0.0445 Z-0.1873 R0.0474
N10000 X1.8044 Y-0.0326 Z-0.1882 R0.0474
N10005 X1.8026 Y0.0343 Z-0.191 R0.0473
N10010 X1.7838 Y0.0452 Z-0.1919 R0.0473
N10015 X1.7249 Y0.0138 Z-0.1948 R0.0473
N10020 X1.7235 Y-0.0078 Z-0.1956 R0.0473
N10025 X1.7778 Y-0.0465 Z-0.1985 R0.0472
N10030 X1.7978 Y-0.0381 Z-0.1993 R0.0472
N10035 X1.8081 Y0.0277 Z-0.2022 R0.0471
N10040 X1.7917 Y0.0418 Z-0.203 R0.0471
N10045 X1.7283 Y0.0217 Z-0.2059 R0.0471
N10050 X1.723 Y0.0007 Z-0.2068 R0.0471
N10055 X1.7693 Y-0.047 Z-0.2096 R0.047
N10060 X1.7904 Y-0.0423 Z-0.2105 R0.047
N10065 X1.8123 Y0.0203 Z-0.2134 R0.0469
N10070 X1.7988 Y0.037 Z-0.2142 R0.0469
N10075 X1.7331 Y0.0288 Z-0.2171 R0.0469
N10080 X1.7241 Y0.0092 Z-0.2179 R0.0469
N10085 X1.7608 Y-0.0459 Z-0.2208 R0.0468
N10090 X1.7823 Y-0.0451 Z-0.2216 R0.0468
N10095 X1.8151 Y0.0122 Z-0.2245 R0.0467
N10100 X1.8049 Y0.0311 Z-0.2254 R0.0467
N10105 X1.739 Y0.0348 Z-0.2282 R0.0467
N10110 X1.7267 Y0.0173 Z-0.2291 R0.0467
N10115 X1.7528 Y-0.0432 Z-0.232 R0.0466
N10120 X1.7739 Y-0.0464 Z-0.2328 R0.0466
N10125 X1.8164 Y0.0039 Z-0.2357 R0.0465
N10130 X1.8098 Y0.0242 Z-0.2365 R0.0465
N10135 X1.7459 Y0.0397 Z-0.2394 R0.0465
N10140 X1.7307 Y0.0248 Z-0.2402 R0.0465
N10145 X1.7453 Y-0.0392 Z-0.2431 R0.0464
N10150 X1.7655 Y-0.0461 Z-0.244 R0.0464
N10155 X1.8161 Y-0.0046 Z-0.2468 R0.0463
N10160 X1.8133 Y0.0165 Z-0.2477 R0.0463
N10165 X1.7536 Y0.0432 Z-0.2506 R0.0463
N10170 X1.736 Y0.0313 Z-0.2514 R0.0463
N10175 X1.7387 Y-0.034 Z-0.2543 R0.0462
N10180 X1.7572 Y-0.0444 Z-0.2551 R0.0462
N10185 X1.8144 Y-0.0128 Z-0.258 R0.0461
N10190 X1.8154 Y0.0083 Z-0.2588 R0.0461
N10195 X1.7617 Y0.0453 Z-0.2617 R0.0461
N10200 X1.7424 Y0.0368 Z-0.2626 R0.0461
N10205 X1.7333 Y-0.0276 Z-0.2654 R0.046
N10210 X1.7495 Y-0.0411 Z-0.2663 R0.046
N10215 X1.8111 Y-0.0205 Z-0.2692 R0.046
N10220 X1.816 Y0. Z-0.27 R0.046
N10225 X1.77 Y0.0459 R0.046
N10230 X1.7241 Y0. R0.046
N10235 X1.77 Y-0.046 R0.046
N10240 X1.816 Y0. R0.046
N10245 G1 X1.8165 Y0.016
N10250 X1.8164 Y0.022
N10255 X1.8149 Y0.0278
N10260 X1.8123 Y0.0332
N10265 X1.8089 Y0.0381
N10270 X1.8048 Y0.0425
N10275 X1.8002 Y0.0464
N10280 X1.7952 Y0.0496
N10285 X1.7898 Y0.0522
N10290 X1.7841 Y0.0542
N10295 X1.7783 Y0.0555
N10300 X1.7723 Y0.0562
N10305 X1.7663
N10310 X1.7603 Y0.0555
N10315 X1.7545 Y0.0542
N10320 X1.7488 Y0.0523
N10325 X1.7433 Y0.0498
N10330 X1.7382 Y0.0467
N10335 X1.7334 Y0.0431
N10340 X1.729 Y0.039
N10345 X1.7251 Y0.0344
N10350 X1.7217 Y0.0295
N10355 X1.7189 Y0.0242
N10360 X1.7166 Y0.0186
N10365 X1.7149 Y0.0129
N10370 X1.7139 Y0.007
N10375 X1.7135 Y0.001
N10380 X1.7137 Y-0.005
N10385 X1.7145 Y-0.011
N10390 X1.716 Y-0.0168
N10395 X1.7181 Y-0.0224
N10400 X1.7207 Y-0.0278
N10405 X1.7239 Y-0.0328
N10410 X1.7277 Y-0.0375
N10415 X1.7319 Y-0.0418
N10420 X1.7365 Y-0.0456
N10425 X1.7416 Y-0.0489
N10430 X1.7469 Y-0.0516
N10435 X1.7525 Y-0.0538
N10440 X1.7583 Y-0.0553
N10445 X1.7642 Y-0.0563
N10450 X1.7702 Y-0.0566
N10455 X1.7762 Y-0.0562
N10460 X1.7821 Y-0.0553
N10465 X1.7879 Y-0.0537
N10470 X1.7935 Y-0.0515
N10475 X1.7988 Y-0.0487
N10480 X1.8038 Y-0.0454
N10485 X1.8084 Y-0.0415
N10490 X1.8126 Y-0.0372
N10495 X1.8163 Y-0.0325
N10500 X1.8195 Y-0.0274
N10505 X1.8221 Y-0.022
N10510 X1.8242 Y-0.0164
N10515 X1.8259 Y-0.0107
N10520 X1.8273 Y-0.0048
N10525 X1.8284 Y0.0011
N10530 X1.8285 Y0.0021
N10535 X1.8284 Y0.0108
N10540 X1.8268 Y0.0194
N10545 X1.8236 Y0.0275
N10550 X1.821 Y0.0326
N10555 X1.8195 Y0.0353
N10560 X1.8179 Y0.0372
N10565 X1.8096 Y0.0456
N10570 X1.8064 Y0.0486
N10575 X1.8049 Y0.0497
N10580 X1.8034 Y0.0506
N10585 X1.7901 Y0.0573
N10590 X1.7885 Y0.0579
N10595 X1.7869 Y0.0583
N10600 X1.7738 Y0.0604
N10605 X1.7706 Y0.0608
N10610 X1.7689 Y0.0607
N10615 X1.7673 Y0.0605
N10620 X1.7543 Y0.0585
N10625 X1.751 Y0.0577
N10630 X1.7477 Y0.0562
N10635 X1.7396 Y0.0521
N10640 X1.7347 Y0.0495
N10645 X1.7326 Y0.0477
N10650 X1.7239 Y0.0391
N10655 X1.7217 Y0.0368
N10660 X1.7201 Y0.0347
N10665 X1.7157 Y0.0261
N10670 X1.7125 Y0.0195
N10675 X1.7119 Y0.0179
N10680 X1.7116 Y0.0163
N10685 X1.7101 Y0.0065
N10690 X1.7092 Y0.
N10695 X1.7101 Y-0.0065
N10700 X1.7116 Y-0.0163
N10705 X1.7119 Y-0.0179
N10710 X1.7125 Y-0.0195
N10715 X1.7157 Y-0.0261
N10720 X1.7201 Y-0.0347
N10725 X1.7217 Y-0.0368
N10730 X1.7239 Y-0.0391
N10735 X1.7326 Y-0.0477
N10740 X1.7347 Y-0.0495
N10745 X1.7396 Y-0.0521
N10750 X1.7477 Y-0.0562
N10755 X1.751 Y-0.0577
N10760 X1.7543 Y-0.0585
N10765 X1.7673 Y-0.0605
N10770 X1.7689 Y-0.0607
N10775 X1.7706 Y-0.0608
N10780 X1.7738 Y-0.0604
N10785 X1.7869 Y-0.0583
N10790 X1.7885 Y-0.0579
N10795 X1.7901 Y-0.0573
N10800 X1.8034 Y-0.0506
N10805 X1.8049 Y-0.0497
N10810 X1.8064 Y-0.0486
N10815 X1.8096 Y-0.0456
N10820 X1.8179 Y-0.0372
N10825 X1.8195 Y-0.0353
N10830 X1.821 Y-0.0326
N10835 X1.826 Y-0.0227
N10840 X1.8275 Y-0.0195
N10845 X1.8281 Y-0.0179
N10850 X1.8284 Y-0.0163
N10855 X1.8299 Y-0.0065
N10860 X1.8308 Y0.
N10865 X1.8299 Y0.0065
N10870 X1.8284 Y0.0163
N10875 X1.8281 Y0.0179
N10880 X1.8275 Y0.0195
N10885 X1.826 Y0.0227
N10890 X1.8236 Y0.0275
N10895 G3 X1.8075 Y0.0321 R0.0118
N10900 X1.8014 Y0.022 R0.0118
N10905 G1 Y0.0194 Z-0.2697
N10910 X1.8013 Y0.0169 Z-0.2688
N10915 Y0.0146 Z-0.2674
N10920 Y0.0128 Z-0.2656
N10925 X1.8012 Y0.0114 Z-0.2633
N10930 Y0.0105 Z-0.2608
N10935 Y0.0102 Z-0.2582
N10940 G0 Z0.6
N10945 M5
N10950 M9
N10955 M30
%
