%
(DRILL)
(T3 D=0.063 CR=0. - ZMIN=-0.2 - FLAT END MILL)
N10 G90 G94 G17 G91.1
N15 G20
(-ATTENTION- PROPERTY SAFE RETRACTS IS SET TO CLEARANCE HEIGHT.)
(ENSURE THE CLEARANCE HEIGHT WILL CLEAR THE PART AND OR FIXTURES.)
(RAISE THE Z-AXIS TO A SAFE HEIGHT BEFORE STARTING THE PROGRAM.)
(DRILL)
N20 T3 M6
N25 S5000 M3
N30 G17 G90 G94
N35 G54
N40 M8
N45 G0 X-1.6097 Y-1.05
N50 G43 Z0.64 H3
N55 G0 Z0.24
N60 G98 G81 X-1.6097 Y-1.05 Z-0.2 R0.2 F13.333
N65 Y0.
N70 Y1.05
N75 X-0.4257 Y0.78
N80 X0.1204 Y0.94
N85 X0.4303 Y1.05
N90 X0.4504 Y0.6
N95 X1.2804 Y0.94
N100 X1.6604 Y0.6
N105 X1.0604 Y0.
N110 X1.6604 Y-0.6
N115 X1.2804 Y-0.94
N120 X0.4504 Y-0.6
N125 X0.4303 Y-1.05
N130 X0.1204 Y-0.94
N135 G80
N140 G0 Z0.64
N145 M5
N150 M9
N155 M30
%
