%
(BIGHOLE)
(T2 D=0.25 CR=0. - ZMIN=-0.18 - FLAT END MILL)
N10 G90 G94 G17 G91.1
N15 G20
(-ATTENTION- PROPERTY SAFE RETRACTS IS SET TO CLEARANCE HEIGHT.)
(ENSURE THE CLEARANCE HEIGHT WILL CLEAR THE PART AND OR FIXTURES.)
(RAISE THE Z-AXIS TO A SAFE HEIGHT BEFORE STARTING THE PROGRAM.)
(2D BIGHOLE)
N20 T2 M6
N25 S5000 M3
N30 G17 G90 G94
N35 G54
N40 G64 P0.004 Q0.004
N45 M8
N50 G0 X1.1084 Y0.1146
N55 G43 Z0.64 H2
N60 G0 Z0.24
N65 Z0.142
N70 G3 X0.9458 Y0.0481 Z0.1352 R0.1242 F13.333
N75 X0.9362 Y0.0018 Z0.1335 R0.1242
N80 X1.0584 Y-0.1241 Z0.1267 R0.1241
N85 X1.1048 Y-0.1158 Z0.1251 R0.1241
N90 X1.1759 Y0.0444 Z0.1182 R0.1239
N95 X1.1509 Y0.0844 Z0.1166 R0.1239
N100 X0.976 Y0.0905 Z0.1098 R0.1238
N105 X0.9483 Y0.0525 Z0.1081 R0.1238
N110 X1.0078 Y-0.1119 Z0.1013 R0.1236
N115 X1.0534 Y-0.1234 Z0.0996 R0.1236
N120 X1.1835 Y-0.007 Z0.0928 R0.1235
N125 X1.1772 Y0.0395 Z0.0912 R0.1235
N130 X1.0208 Y0.1167 Z0.0843 R0.1233
N135 X0.9801 Y0.0935 Z0.0827 R0.1233
N140 X0.9668 Y-0.0802 Z0.0759 R0.1232
N145 X1.0035 Y-0.1093 Z0.0742 R0.1232
N150 X1.1694 Y-0.0568 Z0.0674 R0.123
N155 X1.1827 Y-0.0119 Z0.0657 R0.123
N160 X1.0722 Y0.1222 Z0.0589 R0.1229
N165 X1.0257 Y0.1178 Z0.0573 R0.1229
N170 X0.9426 Y-0.0346 Z0.0504 R0.1228
N175 X0.964 Y-0.076 Z0.0488 R0.1228
N180 X1.1362 Y-0.0963 Z0.042 R0.1226
N185 X1.1666 Y-0.061 Z0.0403 R0.1226
N190 X1.1212 Y0.1062 Z0.0335 R0.1225
N195 X1.0771 Y0.1212 Z0.0318 R0.1225
N200 X0.9392 Y0.0168 Z0.025 R0.1223
N205 X0.9417 Y-0.0297 Z0.0234 R0.1223
N210 X1.0899 Y-0.1185 Z0.0166 R0.1222
N215 X1.132 Y-0.0989 Z0.0149 R0.1222
N220 X1.1591 Y0.0715 Z0.0081 R0.122
N225 X1.1252 Y0.1032 Z0.0064 R0.122
N230 X0.9572 Y0.0648 Z-0.0004 R0.1219
N235 X0.9404 Y0.0216 Z-0.0021 R0.1219
N240 X1.0387 Y-0.1198 Z-0.0089 R0.1217
N245 X1.0849 Y-0.1192 Z-0.0105 R0.1217
N250 X1.1793 Y0.0245 Z-0.0173 R0.1216
N255 X1.1615 Y0.0672 Z-0.019 R0.1216
N260 X0.9932 Y0.1011 Z-0.0258 R0.1214
N265 X0.9603 Y0.0687 Z-0.0275 R0.1214
N270 X0.9916 Y-0.0999 Z-0.0343 R0.1213
N275 X1.0339 Y-0.1183 Z-0.0359 R0.1213
N280 X1.1785 Y-0.0264 Z-0.0428 R0.1211
N285 X1.1797 Y0.0196 Z-0.0444 R0.1211
N290 X1.0407 Y0.1193 Z-0.0512 R0.121
N295 X0.9976 Y0.1033 Z-0.0529 R0.121
N300 X0.957 Y-0.0627 Z-0.0597 R0.1208
N305 X0.9879 Y-0.0967 Z-0.0614 R0.1208
N310 X1.1568 Y-0.0724 Z-0.0682 R0.1207
N315 X1.1768 Y-0.0311 Z-0.0698 R0.1207
N320 X1.0913 Y0.1164 Z-0.0767 R0.1205
N325 X1.0456 Y0.1195 Z-0.0783 R0.1205
N330 X0.9409 Y-0.0147 Z-0.0851 R0.1204
N335 X0.955 Y-0.0582 Z-0.0868 R0.1204
N340 X1.1184 Y-0.1053 Z-0.0936 R0.1202
N345 X1.1535 Y-0.0759 Z-0.0953 R0.1202
N350 X1.1361 Y0.093 Z-0.1021 R0.1201
N355 X1.0959 Y0.1146 Z-0.1037 R0.1201
N360 X0.9458 Y0.0355 Z-0.1106 R0.1199
N365 X0.9408 Y-0.0098 Z-0.1122 R0.1199
N370 X1.07 Y-0.1194 Z-0.119 R0.1198
N375 X1.1139 Y-0.1071 Z-0.1207 R0.1198
N380 X1.1673 Y0.0534 Z-0.1275 R0.1196
N385 X1.1396 Y0.0895 Z-0.1292 R0.1196
N390 X0.9709 Y0.0791 Z-0.136 R0.1195
N395 X0.9478 Y0.04 Z-0.1376 R0.1195
N400 X1.0203 Y-0.1124 Z-0.1444 R0.1193
N405 X1.0651 Y-0.1192 Z-0.1461 R0.1193
N410 X1.1794 Y0.0047 Z-0.1529 R0.1192
N415 X1.1689 Y0.0488 Z-0.1546 R0.1192
N420 X1.0115 Y0.1085 Z-0.1614 R0.1191
N425 X0.9745 Y0.0824 Z-0.1631 R0.1191
N430 X0.9779 Y-0.0857 Z-0.1699 R0.1189
N435 X1.0159 Y-0.1103 Z-0.1715 R0.1189
N440 X1.1704 Y-0.0444 Z-0.1783 R0.1188
N445 X1.179 Y-0.0001 Z-0.18 R0.1188
N450 X1.0602 Y0.1187 R0.1188
N455 X0.9415 Y-0.0001 R0.1188
N460 X1.0602 Y-0.1189 R0.1188
N465 X1.179 Y-0.0001 R0.1188
N470 G1 X1.1791 Y0.0096 F40.
N475 X1.1863 Y0.048
N480 X1.188 Y0.0537
N485 X1.1891 Y0.0596
N490 X1.1897 Y0.0656
N495 Y0.0717
N500 X1.1892 Y0.0782
N505 X1.1882 Y0.085
N510 X1.1864 Y0.0923
N515 X1.184 Y0.0998
N520 X1.1807 Y0.1075
N525 X1.1767 Y0.1153
N530 X1.1718 Y0.1232
N535 X1.1661 Y0.1309
N540 X1.1594 Y0.1385
N545 X1.1519 Y0.1459
N550 X1.1435 Y0.1528
N555 X1.1343 Y0.1593
N560 X1.1243 Y0.1652
N565 X1.1135 Y0.1704
N570 X1.1021 Y0.1748
N575 X1.0901 Y0.1784
N580 X1.0775 Y0.1811
N585 X1.0645 Y0.1828
N590 X1.0512 Y0.1835
N595 X1.0377 Y0.1831
N600 X1.0241 Y0.1815
N605 X1.0104 Y0.1789
N610 X0.9969 Y0.1751
N615 X0.9836 Y0.1702
N620 X0.9706 Y0.1642
N625 X0.958 Y0.1572
N630 X0.9459 Y0.149
N635 X0.9345 Y0.1399
N640 X0.9238 Y0.1298
N645 X0.9139 Y0.1189
N650 X0.9048 Y0.1072
N655 X0.8967 Y0.0947
N660 X0.8896 Y0.0815
N665 X0.8836 Y0.0678
N670 X0.8786 Y0.0536
N675 X0.8748 Y0.0391
N680 X0.8722 Y0.0242
N685 X0.8708 Y0.0092
N690 X0.8706 Y-0.0059
N695 X0.8716 Y-0.021
N700 X0.8738 Y-0.036
N705 X0.8773 Y-0.0508
N710 X0.8819 Y-0.0653
N715 X0.8876 Y-0.0793
N720 X0.8945 Y-0.0929
N725 X0.9024 Y-0.1059
N730 X0.9114 Y-0.1182
N735 X0.9213 Y-0.1298
N740 X0.9321 Y-0.1405
N745 X0.9438 Y-0.1503
N750 X0.9562 Y-0.1592
N755 X0.9693 Y-0.167
N760 X0.9829 Y-0.1738
N765 X0.9971 Y-0.1794
N770 X1.0117 Y-0.1839
N775 X1.0266 Y-0.1872
N780 X1.0417 Y-0.1893
N785 X1.0569 Y-0.1902
N790 X1.0722 Y-0.1899
N795 X1.0874 Y-0.1883
N800 X1.1024 Y-0.1855
N805 X1.1171 Y-0.1815
N810 X1.1315 Y-0.1764
N815 X1.1454 Y-0.1701
N820 X1.1588 Y-0.1627
N825 X1.1715 Y-0.1543
N830 X1.1835 Y-0.1449
N835 X1.1947 Y-0.1345
N840 X1.2051 Y-0.1233
N845 X1.2145 Y-0.1112
N850 X1.2229 Y-0.0985
N855 X1.2375 Y-0.0721
N860 X1.2499 Y-0.0446
N865 X1.2578 Y-0.0225
N870 X1.2631 Y-0.0027
N875 X1.2666 Y0.0159
N880 X1.2684 Y0.0339
N885 X1.2688 Y0.0512
N890 X1.2678 Y0.0681
N895 X1.2655 Y0.0846
N900 X1.2619 Y0.1007
N905 X1.257 Y0.1164
N910 X1.2509 Y0.1317
N915 X1.2436 Y0.1465
N920 X1.235 Y0.1608
N925 X1.2252 Y0.1745
N930 X1.2143 Y0.1874
N935 X1.2022 Y0.1996
N940 X1.189 Y0.2109
N945 X1.1747 Y0.2213
N950 X1.1595 Y0.2306
N955 X1.1433 Y0.2388
N960 X1.1263 Y0.2457
N965 X1.1086 Y0.2513
N970 X1.0902 Y0.2556
N975 X1.0714 Y0.2583
N980 X1.0521 Y0.2596
N985 X1.0326 Y0.2593
N990 X1.013 Y0.2575
N995 X0.9935 Y0.254
N1000 X0.9741 Y0.249
N1005 X0.9551 Y0.2423
N1010 X0.9365 Y0.2341
N1015 X0.9185 Y0.2244
N1020 X0.9013 Y0.2132
N1025 X0.8849 Y0.2005
N1030 X0.8695 Y0.1866
N1035 X0.8553 Y0.1713
N1040 X0.8422 Y0.1549
N1045 X0.8304 Y0.1375
N1050 X0.8201 Y0.1191
N1055 X0.8112 Y0.0998
N1060 X0.8039 Y0.0799
N1065 X0.7982 Y0.0594
N1070 X0.7942 Y0.0384
N1075 X0.7918 Y0.0172
N1080 X0.7912 Y-0.0042
N1085 X0.7923 Y-0.0256
N1090 X0.7951 Y-0.0469
N1095 X0.7996 Y-0.0679
N1100 X0.8057 Y-0.0885
N1105 X0.8136 Y-0.1086
N1110 X0.823 Y-0.128
N1115 X0.8339 Y-0.1466
N1120 X0.8464 Y-0.1643
N1125 X0.8602 Y-0.1809
N1130 X0.8752 Y-0.1963
N1135 X0.8915 Y-0.2105
N1140 X0.9089 Y-0.2234
N1145 X0.9273 Y-0.2348
N1150 X0.9465 Y-0.2447
N1155 X0.9665 Y-0.2531
N1160 X0.9871 Y-0.2598
N1165 X1.0081 Y-0.2648
N1170 X1.0295 Y-0.2682
N1175 X1.0511 Y-0.2698
N1180 X1.0728 Y-0.2696
N1185 X1.0944 Y-0.2678
N1190 X1.1157 Y-0.2642
N1195 X1.1367 Y-0.2589
N1200 X1.1573 Y-0.2519
N1205 X1.1771 Y-0.2433
N1210 X1.1963 Y-0.2331
N1215 X1.2145 Y-0.2215
N1220 X1.2318 Y-0.2084
N1225 X1.2502 Y-0.192
N1230 X1.2685 Y-0.1728
N1235 X1.2856 Y-0.1516
N1240 X1.3013 Y-0.1287
N1245 X1.3151 Y-0.1046
N1250 X1.3266 Y-0.0802
N1255 X1.3359 Y-0.0555
N1260 X1.343 Y-0.0307
N1265 X1.348 Y-0.006
N1270 X1.3509 Y0.0186
N1275 X1.3518 Y0.043
N1280 X1.3508 Y0.0671
N1285 X1.3479 Y0.0909
N1290 X1.3431 Y0.1142
N1295 X1.3365 Y0.137
N1300 X1.3281 Y0.1591
N1305 X1.3179 Y0.1805
N1310 X1.306 Y0.2011
N1315 X1.2925 Y0.2207
N1320 X1.2773 Y0.2392
N1325 X1.2607 Y0.2566
N1330 X1.2423 Y0.2728
N1335 X1.241 Y0.2738
N1340 X1.2396 Y0.2747
N1345 X1.2382 Y0.2756
N1350 X1.2179 Y0.2884
N1355 X1.2109 Y0.292
N1360 X1.1825 Y0.3052
N1365 X1.1736 Y0.3093
N1370 X1.1725 Y0.3097
N1375 X1.1647 Y0.3118
N1380 X1.1293 Y0.3213
N1385 X1.1205 Y0.3236
N1390 X1.1116 Y0.3246
N1395 X1.0939 Y0.3264
N1400 X1.085 Y0.3272
N1405 X1.0585 Y0.329
N1410 X1.0496 Y0.3285
N1415 X1.0319 Y0.3269
N1420 X1.023 Y0.3261
N1425 X0.9965 Y0.3222
N1430 X0.9876 Y0.3203
N1435 X0.9522 Y0.3108
N1440 X0.9483 Y0.3097
N1445 X0.9433 Y0.3075
N1450 X0.899 Y0.2869
N1455 X0.8931 Y0.2831
N1460 X0.8801 Y0.2743
N1465 X0.8724 Y0.269
N1470 X0.8503 Y0.2535
N1475 X0.8459 Y0.2496
N1480 X0.8193 Y0.223
N1485 X0.8096 Y0.2123
N1490 X0.8023 Y0.2035
N1495 X0.7775 Y0.1681
N1500 X0.775 Y0.1644
N1505 X0.7726 Y0.1593
N1510 X0.7519 Y0.115
N1515 X0.7503 Y0.1106
N1520 X0.7396 Y0.0707
N1525 X0.7378 Y0.0619
N1530 X0.7362 Y0.0531
N1535 X0.7348 Y0.0442
N1540 X0.7325 Y0.0177
N1545 X0.7324 Y0.0088
N1550 Y-0.0088
N1555 X0.7325 Y-0.0177
N1560 X0.7348 Y-0.0442
N1565 X0.7362 Y-0.0531
N1570 X0.7378 Y-0.0619
N1575 X0.7396 Y-0.0708
N1580 X0.7503 Y-0.1106
N1585 X0.7519 Y-0.115
N1590 X0.7726 Y-0.1593
N1595 X0.775 Y-0.1644
N1600 X0.7775 Y-0.1681
N1605 X0.8023 Y-0.2035
N1610 X0.8096 Y-0.2123
N1615 X0.8193 Y-0.223
N1620 X0.8459 Y-0.2496
N1625 X0.8503 Y-0.2535
N1630 X0.8724 Y-0.269
N1635 X0.8813 Y-0.2751
N1640 X0.8931 Y-0.2831
N1645 X0.899 Y-0.2869
N1650 X0.9433 Y-0.3075
N1655 X0.9483 Y-0.3097
N1660 X0.9522 Y-0.3108
N1665 X0.9876 Y-0.3203
N1670 X0.9965 Y-0.3222
N1675 X1.023 Y-0.3261
N1680 X1.0319 Y-0.3269
N1685 X1.0496 Y-0.3285
N1690 X1.0585 Y-0.329
N1695 X1.085 Y-0.3272
N1700 X1.0939 Y-0.3264
N1705 X1.1116 Y-0.3246
N1710 X1.1205 Y-0.3236
N1715 X1.1293 Y-0.3213
N1720 X1.1647 Y-0.3118
N1725 X1.1725 Y-0.3097
N1730 X1.1736 Y-0.3093
N1735 X1.1825 Y-0.3052
N1740 X1.2109 Y-0.292
N1745 X1.2179 Y-0.2884
N1750 X1.2445 Y-0.2717
N1755 X1.2535 Y-0.2654
N1760 X1.271 Y-0.2532
N1765 X1.2768 Y-0.2477
N1770 X1.3065 Y-0.2181
N1775 X1.3119 Y-0.2123
N1780 X1.3153 Y-0.208
N1785 X1.3186 Y-0.2035
N1790 X1.3434 Y-0.1681
N1795 X1.3462 Y-0.1637
N1800 X1.3483 Y-0.1593
N1805 X1.3689 Y-0.115
N1810 X1.3706 Y-0.1106
N1815 X1.3788 Y-0.0796
N1820 X1.3846 Y-0.0531
N1825 X1.386 Y-0.0442
N1830 X1.3883 Y-0.0177
N1835 X1.3885 Y-0.0088
N1840 Y0.0088
N1845 X1.3883 Y0.0177
N1850 X1.386 Y0.0442
N1855 X1.3846 Y0.0531
N1860 X1.3788 Y0.0796
N1865 X1.3706 Y0.1106
N1870 X1.3689 Y0.115
N1875 X1.3483 Y0.1593
N1880 X1.3462 Y0.1637
N1885 X1.3434 Y0.1681
N1890 X1.3186 Y0.2035
N1895 X1.3153 Y0.208
N1900 X1.3119 Y0.2123
N1905 X1.3065 Y0.2181
N1910 X1.2768 Y0.2477
N1915 X1.271 Y0.2532
N1920 X1.2533 Y0.2656
N1925 X1.2445 Y0.2717
N1930 X1.2382 Y0.2756
N1935 G3 X1.2093 Y0.2729 R0.025
N1940 G1 X1.2064 Y0.2704 Z-0.1797
N1945 X1.2035 Y0.2679 Z-0.1788
N1950 X1.2007 Y0.2655 Z-0.1773
N1955 X1.1982 Y0.2633 Z-0.1752
N1960 X1.196 Y0.2614 Z-0.1727
N1965 X1.194 Y0.2597 Z-0.1697
N1970 X1.1925 Y0.2584 Z-0.1663
N1975 X1.1913 Y0.2574 Z-0.1627
N1980 X1.1906 Y0.2568 Z-0.1589
N1985 X1.1904 Y0.2566 Z-0.155
N1990 G0 Z0.64
N1995 M5
N2000 M9
N2005 M30
%
