%
(DRILL)
(T3 D=0.063 CR=0. - ZMIN=-0.2 - FLAT END MILL)
N10 G90 G94 G17 G91.1
N15 G20
(-ATTENTION- PROPERTY SAFE RETRACTS IS SET TO CLEARANCE HEIGHT.)
(ENSURE THE CLEARANCE HEIGHT WILL CLEAR THE PART AND OR FIXTURES.)
(RAISE THE Z-AXIS TO A SAFE HEIGHT BEFORE STARTING THE PROGRAM.)
(DRILL)
N20 T3 M6
N25 S5000 M3
N30 G17 G90 G94
N35 G54
N40 M8
N45 G0 X0.4303 Y-1.05
N50 G43 Z0.64 H3
N55 G0 Z0.24
N60 G98 G81 X0.4303 Y-1.05 Z-0.2 R0.2 F13.333
N65 X0.9974 Y0.
N70 X0.4303 Y1.05
N75 X-1.6097
N80 X-1.0097 Y0.378
N85 X-1.6097 Y0.
N90 X-1.0097 Y-0.378
N95 X-1.6097 Y-1.05
N100 G80
N105 G0 Z0.64
N110 M5
N115 M9
N120 M30
%
