%
(SMALLHOLE)
(T3 D=0.063 CR=0. - ZMIN=-0.18 - FLAT END MILL)
N10 G90 G94 G17 G91.1
N15 G20
(-ATTENTION- PROPERTY SAFE RETRACTS IS SET TO CLEARANCE HEIGHT.)
(ENSURE THE CLEARANCE HEIGHT WILL CLEAR THE PART AND OR FIXTURES.)
(RAISE THE Z-AXIS TO A SAFE HEIGHT BEFORE STARTING THE PROGRAM.)
(2D SMALLHOLES)
N20 T3 M6
N25 S5000 M3
N30 G17 G90 G94
N35 G54
N40 G64 P0.004 Q0.004
N45 M8
N50 G0 X-1.627 Y-0.031
N55 G43 Z0.64 H3
N60 G0 Z0.24
N65 Z0.142
N70 G3 X-1.5787 Y-0.0174 Z0.1401 R0.0355 F13.333
N75 X-1.5742 Y-0.0007 Z0.1394 R0.0355
N80 X-1.6089 Y0.0355 Z0.1375 R0.0355
N85 X-1.6257 Y0.0316 Z0.1369 R0.0355
N90 X-1.6412 Y-0.016 Z0.1349 R0.0354
N95 X-1.63 Y-0.029 Z0.1343 R0.0354
N100 X-1.5807 Y-0.0203 Z0.1324 R0.0354
N105 X-1.5746 Y-0.0042 Z0.1318 R0.0354
N110 X-1.6054 Y0.0351 Z0.1298 R0.0353
N115 X-1.6224 Y0.0329 Z0.1292 R0.0353
N120 X-1.6426 Y-0.0127 Z0.1273 R0.0353
N125 X-1.6327 Y-0.0267 Z0.1267 R0.0353
N130 X-1.583 Y-0.023 Z0.1247 R0.0352
N135 X-1.5753 Y-0.0077 Z0.1241 R0.0352
N140 X-1.6019 Y0.0343 Z0.1222 R0.0352
N145 X-1.619 Y0.0339 Z0.1216 R0.0352
N150 X-1.6435 Y-0.0093 Z0.1196 R0.0352
N155 X-1.6351 Y-0.0242 Z0.119 R0.0352
N160 X-1.5855 Y-0.0254 Z0.1171 R0.0351
N165 X-1.5764 Y-0.0111 Z0.1164 R0.0351
N170 X-1.5986 Y0.0333 Z0.1145 R0.0351
N175 X-1.6156 Y0.0346 Z0.1139 R0.0351
N180 X-1.6442 Y-0.0059 Z0.1119 R0.035
N185 X-1.6373 Y-0.0214 Z0.1113 R0.035
N190 X-1.5882 Y-0.0276 Z0.1094 R0.035
N195 X-1.5778 Y-0.0143 Z0.1088 R0.035
N200 X-1.5954 Y0.0319 Z0.1068 R0.0349
N205 X-1.6121 Y0.0348 Z0.1062 R0.0349
N210 X-1.6444 Y-0.0024 Z0.1043 R0.0349
N215 X-1.6392 Y-0.0185 Z0.1037 R0.0349
N220 X-1.5912 Y-0.0295 Z0.1017 R0.0348
N225 X-1.5795 Y-0.0173 Z0.1011 R0.0348
N230 X-1.5923 Y0.0302 Z0.0992 R0.0348
N235 X-1.6086 Y0.0348 Z0.0986 R0.0348
N240 X-1.6444 Y0.0011 Z0.0966 R0.0347
N245 X-1.6408 Y-0.0154 Z0.096 R0.0347
N250 X-1.5943 Y-0.0311 Z0.0941 R0.0347
N255 X-1.5815 Y-0.0202 Z0.0934 R0.0347
N260 X-1.5895 Y0.0282 Z0.0915 R0.0347
N265 X-1.6051 Y0.0344 Z0.0909 R0.0347
N270 X-1.644 Y0.0045 Z0.0889 R0.0346
N275 X-1.642 Y-0.0122 Z0.0883 R0.0346
N280 X-1.5975 Y-0.0323 Z0.0864 R0.0346
N285 X-1.5837 Y-0.0228 Z0.0858 R0.0346
N290 X-1.5869 Y0.0259 Z0.0838 R0.0345
N295 X-1.6018 Y0.0336 Z0.0832 R0.0345
N300 X-1.6432 Y0.0079 Z0.0813 R0.0345
N305 X-1.643 Y-0.0088 Z0.0807 R0.0345
N310 X-1.6008 Y-0.0333 Z0.0787 R0.0344
N315 X-1.5862 Y-0.0252 Z0.0781 R0.0344
N320 X-1.5845 Y0.0234 Z0.0762 R0.0344
N325 X-1.5985 Y0.0325 Z0.0756 R0.0344
N330 X-1.6421 Y0.0112 Z0.0736 R0.0343
N335 X-1.6435 Y-0.0054 Z0.073 R0.0343
N340 X-1.6042 Y-0.0338 Z0.0711 R0.0343
N345 X-1.5889 Y-0.0273 Z0.0704 R0.0343
N350 X-1.5824 Y0.0207 Z0.0685 R0.0343
N355 X-1.5954 Y0.0311 Z0.0679 R0.0343
N360 X-1.6407 Y0.0143 Z0.0659 R0.0342
N365 X-1.6438 Y-0.002 Z0.0653 R0.0342
N370 X-1.6076 Y-0.0341 Z0.0634 R0.0342
N375 X-1.5918 Y-0.0291 Z0.0628 R0.0342
N380 X-1.5806 Y0.0178 Z0.0608 R0.0341
N385 X-1.5924 Y0.0294 Z0.0602 R0.0341
N390 X-1.639 Y0.0173 Z0.0583 R0.0341
N395 X-1.6437 Y0.0014 Z0.0577 R0.0341
N400 X-1.6111 Y-0.034 Z0.0557 R0.034
N405 X-1.5949 Y-0.0306 Z0.0551 R0.034
N410 X-1.5791 Y0.0148 Z0.0532 R0.034
N415 X-1.5896 Y0.0274 Z0.0526 R0.034
N420 X-1.6371 Y0.02 Z0.0506 R0.0339
N425 X-1.6432 Y0.0048 Z0.05 R0.0339
N430 X-1.6144 Y-0.0335 Z0.0481 R0.0339
N435 X-1.5981 Y-0.0318 Z0.0474 R0.0339
N440 X-1.5779 Y0.0116 Z0.0455 R0.0339
N445 X-1.5871 Y0.0252 Z0.0449 R0.0339
N450 X-1.6348 Y0.0226 Z0.0429 R0.0338
N455 X-1.6425 Y0.0081 Z0.0423 R0.0338
N460 X-1.6177 Y-0.0328 Z0.0404 R0.0338
N465 X-1.6013 Y-0.0327 Z0.0398 R0.0338
N470 X-1.577 Y0.0083 Z0.0378 R0.0337
N475 X-1.5848 Y0.0227 Z0.0372 R0.0337
N480 X-1.6323 Y0.0249 Z0.0353 R0.0337
N485 X-1.6414 Y0.0113 Z0.0347 R0.0337
N490 X-1.6209 Y-0.0317 Z0.0327 R0.0336
N495 X-1.6047 Y-0.0332 Z0.0321 R0.0336
N500 X-1.5765 Y0.005 Z0.0302 R0.0336
N505 X-1.5827 Y0.0201 Z0.0296 R0.0336
N510 X-1.6297 Y0.0269 Z0.0276 R0.0335
N515 X-1.64 Y0.0143 Z0.027 R0.0335
N520 X-1.624 Y-0.0303 Z0.0251 R0.0335
N525 X-1.608 Y-0.0334 Z0.0244 R0.0335
N530 X-1.5763 Y0.0017 Z0.0225 R0.0335
N535 X-1.581 Y0.0172 Z0.0219 R0.0335
N540 X-1.6268 Y0.0287 Z0.0199 R0.0334
N545 X-1.6383 Y0.0172 Z0.0193 R0.0334
N550 X-1.6268 Y-0.0286 Z0.0174 R0.0334
N555 X-1.6113 Y-0.0333 Z0.0168 R0.0334
N560 X-1.5764 Y-0.0017 Z0.0148 R0.0333
N565 X-1.5795 Y0.0142 Z0.0142 R0.0333
N570 X-1.6238 Y0.0301 Z0.0123 R0.0333
N575 X-1.6363 Y0.0199 Z0.0117 R0.0333
N580 X-1.6295 Y-0.0266 Z0.0097 R0.0332
N585 X-1.6146 Y-0.0328 Z0.0091 R0.0332
N590 X-1.5769 Y-0.005 Z0.0072 R0.0332
N595 X-1.5784 Y0.0111 Z0.0066 R0.0332
N600 X-1.6207 Y0.0313 Z0.0046 R0.0331
N605 X-1.6341 Y0.0224 Z0.004 R0.0331
N610 X-1.632 Y-0.0244 Z0.0021 R0.0331
N615 X-1.6179 Y-0.032 Z0.0014 R0.0331
N620 X-1.5777 Y-0.0082 Z-0.0005 R0.0331
N625 X-1.5776 Y0.0078 Z-0.0011 R0.0331
N630 X-1.6175 Y0.0321 Z-0.0031 R0.033
N635 X-1.6317 Y0.0246 Z-0.0037 R0.033
N640 X-1.6342 Y-0.0219 Z-0.0056 R0.033
N645 X-1.621 Y-0.0309 Z-0.0062 R0.033
N650 X-1.5788 Y-0.0113 Z-0.0082 R0.0329
N655 X-1.5771 Y0.0046 Z-0.0088 R0.0329
N660 X-1.6142 Y0.0326 Z-0.0107 R0.0329
N665 X-1.629 Y0.0266 Z-0.0113 R0.0329
N670 X-1.6362 Y-0.0193 Z-0.0133 R0.0328
N675 X-1.624 Y-0.0295 Z-0.0139 R0.0328
N680 X-1.5802 Y-0.0143 Z-0.0158 R0.0328
N685 X-1.5769 Y0.0013 Z-0.0164 R0.0328
N690 X-1.6109 Y0.0327 Z-0.0184 R0.0327
N695 X-1.6262 Y0.0282 Z-0.019 R0.0327
N700 X-1.6379 Y-0.0165 Z-0.0209 R0.0327
N705 X-1.6268 Y-0.0278 Z-0.0216 R0.0327
N710 X-1.5819 Y-0.0171 Z-0.0235 R0.0327
N715 X-1.5771 Y-0.002 Z-0.0241 R0.0327
N720 X-1.6077 Y0.0325 Z-0.0261 R0.0326
N725 X-1.6232 Y0.0296 Z-0.0267 R0.0326
N730 X-1.6393 Y-0.0135 Z-0.0286 R0.0326
N735 X-1.6294 Y-0.0259 Z-0.0292 R0.0326
N740 X-1.5838 Y-0.0197 Z-0.0312 R0.0325
N745 X-1.5776 Y-0.0052 Z-0.0318 R0.0325
N750 X-1.6045 Y0.0321 Z-0.0337 R0.0325
N755 X-1.6202 Y0.0307 Z-0.0343 R0.0325
N760 X-1.6403 Y-0.0105 Z-0.0363 R0.0324
N765 X-1.6318 Y-0.0237 Z-0.0369 R0.0324
N770 X-1.586 Y-0.0221 Z-0.0388 R0.0324
N775 X-1.5784 Y-0.0083 Z-0.0394 R0.0324
N780 X-1.6013 Y0.0312 Z-0.0414 R0.0323
N785 X-1.617 Y0.0315 Z-0.042 R0.0323
N790 X-1.6411 Y-0.0073 Z-0.0439 R0.0323
N795 X-1.6339 Y-0.0213 Z-0.0446 R0.0323
N800 X-1.5884 Y-0.0242 Z-0.0465 R0.0323
N805 X-1.5795 Y-0.0114 Z-0.0471 R0.0323
N810 X-1.5983 Y0.0301 Z-0.0491 R0.0322
N815 X-1.6138 Y0.0319 Z-0.0497 R0.0322
N820 X-1.6415 Y-0.0041 Z-0.0516 R0.0322
N825 X-1.6358 Y-0.0187 Z-0.0522 R0.0322
N830 X-1.591 Y-0.0261 Z-0.0542 R0.0321
N835 X-1.5809 Y-0.0143 Z-0.0548 R0.0321
N840 X-1.5954 Y0.0287 Z-0.0567 R0.0321
N845 X-1.6106 Y0.032 Z-0.0573 R0.0321
N850 X-1.6417 Y-0.0009 Z-0.0593 R0.032
N855 X-1.6374 Y-0.0159 Z-0.0599 R0.032
N860 X-1.5938 Y-0.0277 Z-0.0618 R0.032
N865 X-1.5826 Y-0.017 Z-0.0624 R0.032
N870 X-1.5927 Y0.027 Z-0.0644 R0.0319
N875 X-1.6074 Y0.0319 Z-0.065 R0.0319
N880 X-1.6415 Y0.0023 Z-0.0669 R0.0319
N885 X-1.6388 Y-0.013 Z-0.0676 R0.0319
N890 X-1.5967 Y-0.0291 Z-0.0695 R0.0318
N895 X-1.5845 Y-0.0195 Z-0.0701 R0.0318
N900 X-1.5901 Y0.0251 Z-0.0721 R0.0318
N905 X-1.6043 Y0.0313 Z-0.0727 R0.0318
N910 X-1.6409 Y0.0054 Z-0.0746 R0.0318
N915 X-1.6398 Y-0.01 Z-0.0752 R0.0318
N920 X-1.5997 Y-0.0301 Z-0.0772 R0.0317
N925 X-1.5867 Y-0.0218 Z-0.0778 R0.0317
N930 X-1.5878 Y0.0229 Z-0.0797 R0.0317
N935 X-1.6012 Y0.0305 Z-0.0803 R0.0317
N940 X-1.6401 Y0.0085 Z-0.0823 R0.0316
N945 X-1.6405 Y-0.0069 Z-0.0829 R0.0316
N950 X-1.6028 Y-0.0308 Z-0.0848 R0.0316
N955 X-1.5891 Y-0.0239 Z-0.0854 R0.0316
N960 X-1.5857 Y0.0206 Z-0.0874 R0.0315
N965 X-1.5982 Y0.0294 Z-0.088 R0.0315
N970 X-1.639 Y0.0114 Z-0.0899 R0.0315
N975 X-1.6409 Y-0.0037 Z-0.0906 R0.0315
N980 X-1.6059 Y-0.0312 Z-0.0925 R0.0314
N985 X-1.5917 Y-0.0257 Z-0.0931 R0.0314
N990 X-1.5839 Y0.018 Z-0.0951 R0.0314
N995 X-1.5954 Y0.028 Z-0.0957 R0.0314
N1000 X-1.6376 Y0.0142 Z-0.0976 R0.0314
N1005 X-1.641 Y-0.0006 Z-0.0982 R0.0314
N1010 X-1.6091 Y-0.0313 Z-0.1002 R0.0313
N1015 X-1.5944 Y-0.0273 Z-0.1008 R0.0313
N1020 X-1.5824 Y0.0153 Z-0.1027 R0.0313
N1025 X-1.5928 Y0.0263 Z-0.1033 R0.0313
N1030 X-1.6359 Y0.0169 Z-0.1053 R0.0312
N1035 X-1.6408 Y0.0025 Z-0.1059 R0.0312
N1040 X-1.6122 Y-0.0311 Z-0.1078 R0.0312
N1045 X-1.5972 Y-0.0286 Z-0.1084 R0.0312
N1050 X-1.5811 Y0.0124 Z-0.1104 R0.0311
N1055 X-1.5903 Y0.0244 Z-0.111 R0.0311
N1060 X-1.634 Y0.0193 Z-0.1129 R0.0311
N1065 X-1.6402 Y0.0056 Z-0.1136 R0.0311
N1070 X-1.6152 Y-0.0305 Z-0.1155 R0.031
N1075 X-1.6002 Y-0.0295 Z-0.1161 R0.031
N1080 X-1.5801 Y0.0094 Z-0.1181 R0.031
N1085 X-1.5881 Y0.0222 Z-0.1187 R0.031
N1090 X-1.6318 Y0.0216 Z-0.1206 R0.031
N1095 X-1.6394 Y0.0086 Z-0.1212 R0.031
N1100 X-1.6182 Y-0.0297 Z-0.1232 R0.0309
N1105 X-1.6032 Y-0.0302 Z-0.1238 R0.0309
N1110 X-1.5795 Y0.0064 Z-0.1257 R0.0309
N1115 X-1.5861 Y0.0199 Z-0.1263 R0.0309
N1120 X-1.6295 Y0.0236 Z-0.1283 R0.0308
N1125 X-1.6383 Y0.0115 Z-0.1289 R0.0308
N1130 X-1.6211 Y-0.0285 Z-0.1308 R0.0308
N1135 X-1.6063 Y-0.0306 Z-0.1314 R0.0308
N1140 X-1.5791 Y0.0034 Z-0.1334 R0.0307
N1145 X-1.5843 Y0.0173 Z-0.134 R0.0307
N1150 X-1.627 Y0.0253 Z-0.1359 R0.0307
N1155 X-1.6369 Y0.0142 Z-0.1366 R0.0307
N1160 X-1.6238 Y-0.0271 Z-0.1385 R0.0306
N1165 X-1.6094 Y-0.0306 Z-0.1391 R0.0306
N1170 X-1.5791 Y0.0003 Z-0.1411 R0.0306
N1175 X-1.5828 Y0.0147 Z-0.1417 R0.0306
N1180 X-1.6243 Y0.0268 Z-0.1436 R0.0306
N1185 X-1.6352 Y0.0168 Z-0.1442 R0.0306
N1190 X-1.6264 Y-0.0255 Z-0.1462 R0.0305
N1195 X-1.6124 Y-0.0304 Z-0.1468 R0.0305
N1200 X-1.5793 Y-0.0027 Z-0.1487 R0.0305
N1205 X-1.5816 Y0.0119 Z-0.1493 R0.0305
N1210 X-1.6215 Y0.028 Z-0.1513 R0.0304
N1215 X-1.6333 Y0.0191 Z-0.1519 R0.0304
N1220 X-1.6288 Y-0.0236 Z-0.1538 R0.0304
N1225 X-1.6154 Y-0.0298 Z-0.1544 R0.0304
N1230 X-1.5799 Y-0.0057 Z-0.1564 R0.0303
N1235 X-1.5807 Y0.009 Z-0.157 R0.0303
N1240 X-1.6186 Y0.0289 Z-0.1589 R0.0303
N1245 X-1.6312 Y0.0213 Z-0.1596 R0.0303
N1250 X-1.6309 Y-0.0215 Z-0.1615 R0.0302
N1255 X-1.6183 Y-0.0289 Z-0.1621 R0.0302
N1260 X-1.5807 Y-0.0086 Z-0.1641 R0.0302
N1265 X-1.5801 Y0.006 Z-0.1647 R0.0302
N1270 X-1.6156 Y0.0296 Z-0.1666 R0.0302
N1275 X-1.6288 Y0.0233 Z-0.1672 R0.0302
N1280 X-1.6329 Y-0.0191 Z-0.1692 R0.0301
N1285 X-1.6211 Y-0.0278 Z-0.1698 R0.0301
N1290 X-1.5819 Y-0.0114 Z-0.1717 R0.0301
N1295 X-1.5798 Y0.003 Z-0.1723 R0.0301
N1300 X-1.6126 Y0.0299 Z-0.1743 R0.03
N1305 X-1.6263 Y0.0249 Z-0.1749 R0.03
N1310 X-1.6346 Y-0.0166 Z-0.1768 R0.03
N1315 X-1.6238 Y-0.0264 Z-0.1774 R0.03
N1320 X-1.5833 Y-0.0141 Z-0.1794 R0.0299
N1325 X-1.5797 Y0. Z-0.18 R0.0299
N1330 X-1.6097 Y0.0299 R0.0299
N1335 X-1.6396 Y0. R0.0299
N1340 X-1.6097 Y-0.0299 R0.0299
N1345 X-1.5797 Y0. R0.0299
N1350 G1 X-1.5784 Y0.0178 F40.
N1355 X-1.5785 Y0.0238
N1360 X-1.5804 Y0.0295
N1365 X-1.5837 Y0.0345
N1370 X-1.5879 Y0.0388
N1375 X-1.5929 Y0.0422
N1380 X-1.5983 Y0.0447
N1385 X-1.6041 Y0.0463
N1390 X-1.61 Y0.0471
N1395 X-1.616 Y0.047
N1400 X-1.622 Y0.046
N1405 X-1.6277 Y0.0443
N1410 X-1.6332 Y0.0419
N1415 X-1.6383 Y0.0387
N1420 X-1.6429 Y0.0349
N1425 X-1.6471 Y0.0306
N1430 X-1.6506 Y0.0257
N1435 X-1.6535 Y0.0205
N1440 X-1.6558 Y0.0149
N1445 X-1.6573 Y0.0091
N1450 X-1.658 Y0.0031
N1455 X-1.6581 Y-0.0029
N1460 X-1.6574 Y-0.0088
N1465 X-1.6559 Y-0.0146
N1470 X-1.6538 Y-0.0202
N1475 X-1.6509 Y-0.0255
N1480 X-1.6475 Y-0.0304
N1485 X-1.6434 Y-0.0349
N1490 X-1.6389 Y-0.0388
N1495 X-1.6339 Y-0.0421
N1500 X-1.6285 Y-0.0447
N1505 X-1.6228 Y-0.0467
N1510 X-1.617 Y-0.048
N1515 X-1.611 Y-0.0485
N1520 X-1.605 Y-0.0483
N1525 X-1.5991 Y-0.0474
N1530 X-1.5933 Y-0.0457
N1535 X-1.5878 Y-0.0433
N1540 X-1.5826 Y-0.0403
N1545 X-1.5779 Y-0.0367
N1550 X-1.5736 Y-0.0324
N1555 X-1.5698 Y-0.0277
N1560 X-1.5667 Y-0.0226
N1565 X-1.5641 Y-0.017
N1570 X-1.5614 Y-0.0097
N1575 X-1.5593 Y-0.0022
N1580 X-1.5581 Y0.0036
N1585 X-1.5575 Y0.0096
N1590 X-1.5574 Y0.0156
N1595 X-1.558 Y0.0216
N1600 X-1.5592 Y0.0274
N1605 X-1.5612 Y0.0331
N1610 X-1.5637 Y0.0385
N1615 X-1.5669 Y0.0436
N1620 X-1.5707 Y0.0483
N1625 X-1.575 Y0.0525
N1630 X-1.5797 Y0.0562
N1635 X-1.5848 Y0.0594
N1640 X-1.5902 Y0.062
N1645 X-1.5958 Y0.0641
N1650 X-1.6016 Y0.0655
N1655 X-1.6076 Y0.0664
N1660 X-1.6136 Y0.0666
N1665 X-1.6195 Y0.0663
N1670 X-1.6255 Y0.0654
N1675 X-1.6313 Y0.0639
N1680 X-1.637 Y0.0619
N1685 X-1.6424 Y0.0594
N1690 X-1.6476 Y0.0564
N1695 X-1.6525 Y0.053
N1700 X-1.657 Y0.0491
N1705 X-1.6612 Y0.0448
N1710 X-1.665 Y0.0401
N1715 X-1.6684 Y0.0351
N1720 X-1.6713 Y0.0299
N1725 X-1.6737 Y0.0244
N1730 X-1.6756 Y0.0187
N1735 X-1.677 Y0.0129
N1740 X-1.6779 Y0.0069
N1745 X-1.6783 Y0.0009
N1750 X-1.6781 Y-0.005
N1755 X-1.6774 Y-0.011
N1760 X-1.6763 Y-0.0169
N1765 X-1.6745 Y-0.0226
N1770 X-1.6723 Y-0.0282
N1775 X-1.6696 Y-0.0336
N1780 X-1.6665 Y-0.0387
N1785 X-1.6629 Y-0.0435
N1790 X-1.6589 Y-0.048
N1795 X-1.6545 Y-0.0521
N1800 X-1.6498 Y-0.0558
N1805 X-1.6448 Y-0.0591
N1810 X-1.6395 Y-0.0619
N1815 X-1.634 Y-0.0643
N1820 X-1.6283 Y-0.0662
N1825 X-1.6225 Y-0.0675
N1830 X-1.6165 Y-0.0684
N1835 X-1.6105 Y-0.0687
N1840 X-1.6045 Y-0.0685
N1845 X-1.5986 Y-0.0678
N1850 X-1.5927 Y-0.0666
N1855 X-1.587 Y-0.0649
N1860 X-1.5814 Y-0.0627
N1865 X-1.576 Y-0.06
N1870 X-1.5709 Y-0.0568
N1875 X-1.5661 Y-0.0532
N1880 X-1.5616 Y-0.0492
N1885 X-1.5575 Y-0.0448
N1890 X-1.5534 Y-0.0396
N1895 X-1.5494 Y-0.0337
N1900 X-1.5458 Y-0.0273
N1905 X-1.5427 Y-0.0208
N1910 X-1.5403 Y-0.0141
N1915 X-1.5384 Y-0.0074
N1920 X-1.5371 Y-0.0007
N1925 X-1.5364 Y0.006
N1930 X-1.5362 Y0.0122
N1935 X-1.5365 Y0.0183
N1940 X-1.5373 Y0.0245
N1945 X-1.5386 Y0.0306
N1950 X-1.5403 Y0.0364
N1955 X-1.5425 Y0.042
N1960 X-1.5452 Y0.0475
N1965 X-1.5482 Y0.0527
N1970 X-1.5517 Y0.0576
N1975 X-1.5556 Y0.0622
N1980 X-1.5599 Y0.0666
N1985 X-1.5646 Y0.0706
N1990 X-1.5694 Y0.0742
N1995 X-1.5747 Y0.0774
N2000 X-1.5804 Y0.0803
N2005 X-1.5863 Y0.0827
N2010 X-1.5922 Y0.0846
N2015 X-1.5984 Y0.0861
N2020 X-1.6048 Y0.087
N2025 X-1.6115 Y0.0875
N2030 X-1.6182 Y0.0874
N2035 X-1.6248 Y0.0868
N2040 X-1.6313 Y0.0857
N2045 X-1.6378 Y0.084
N2050 X-1.6442 Y0.0818
N2055 X-1.6505 Y0.079
N2060 X-1.6567 Y0.0757
N2065 X-1.6626 Y0.0719
N2070 X-1.6681 Y0.0676
N2075 X-1.6732 Y0.063
N2080 X-1.678 Y0.0579
N2085 X-1.6824 Y0.0524
N2090 X-1.6864 Y0.0466
N2095 X-1.6899 Y0.0404
N2100 X-1.6929 Y0.0339
N2105 X-1.6954 Y0.0272
N2110 X-1.6973 Y0.0203
N2115 X-1.6987 Y0.0132
N2120 X-1.6995 Y0.0061
N2125 X-1.6997 Y-0.0011
N2130 X-1.6994 Y-0.0082
N2135 X-1.6985 Y-0.0153
N2140 X-1.697 Y-0.0223
N2145 X-1.6949 Y-0.0292
N2150 X-1.6923 Y-0.0359
N2155 X-1.6892 Y-0.0425
N2160 X-1.6855 Y-0.0487
N2165 X-1.6813 Y-0.0547
N2170 X-1.6767 Y-0.0603
N2175 X-1.6717 Y-0.0655
N2180 X-1.6662 Y-0.0703
N2185 X-1.6605 Y-0.0745
N2190 X-1.6544 Y-0.0783
N2195 X-1.648 Y-0.0817
N2200 X-1.6413 Y-0.0845
N2205 X-1.6345 Y-0.0867
N2210 X-1.6274 Y-0.0884
N2215 X-1.6202 Y-0.0896
N2220 X-1.613 Y-0.0901
N2225 X-1.6057
N2230 X-1.5984 Y-0.0895
N2235 X-1.5912 Y-0.0883
N2240 X-1.5842 Y-0.0866
N2245 X-1.5774 Y-0.0843
N2250 X-1.5708 Y-0.0814
N2255 X-1.5644 Y-0.078
N2260 X-1.5582 Y-0.0741
N2265 X-1.5522 Y-0.0695
N2270 X-1.5463 Y-0.0643
N2275 X-1.5406 Y-0.0584
N2280 X-1.5353 Y-0.0519
N2285 X-1.5305 Y-0.0449
N2290 X-1.5262 Y-0.0374
N2295 X-1.5225 Y-0.0297
N2300 X-1.5214 Y-0.0267
N2305 X-1.521 Y-0.0257
N2310 X-1.5208 Y-0.0247
N2315 X-1.5206 Y-0.0237
N2320 X-1.5176 Y-0.005
N2325 X-1.5169 Y0.
N2330 X-1.5177 Y0.0052
N2335 X-1.5213 Y0.0282
N2340 X-1.5215 Y0.0288
N2345 X-1.5229 Y0.0316
N2350 X-1.5341 Y0.0537
N2355 X-1.5345 Y0.0544
N2360 X-1.5351 Y0.055
N2365 X-1.5386 Y0.0586
N2370 X-1.5543 Y0.0743
N2375 X-1.555 Y0.0749
N2380 X-1.5556 Y0.0753
N2385 X-1.5569 Y0.0761
N2390 X-1.5753 Y0.0854
N2395 X-1.5805 Y0.088
N2400 X-1.5818 Y0.0884
N2405 X-1.6067 Y0.0924
N2410 X-1.6094 Y0.0927
N2415 X-1.612 Y0.0925
N2420 X-1.6335 Y0.0891
N2425 X-1.6382 Y0.0882
N2430 X-1.6388 Y0.088
N2435 X-1.6395 Y0.0877
N2440 X-1.6592 Y0.0777
N2445 X-1.6644 Y0.0749
N2450 X-1.666 Y0.0734
N2455 X-1.6838 Y0.0556
N2460 X-1.6847 Y0.0545
N2465 X-1.6851 Y0.054
N2470 X-1.6966 Y0.0314
N2475 X-1.6978 Y0.0288
N2480 X-1.698 Y0.0282
N2485 X-1.6982 Y0.0275
N2490 X-1.7017 Y0.0052
N2495 X-1.7025 Y0.
N2500 X-1.7017 Y-0.0052
N2505 X-1.6982 Y-0.0275
N2510 X-1.698 Y-0.0282
N2515 X-1.6978 Y-0.0288
N2520 X-1.6966 Y-0.0314
N2525 X-1.6851 Y-0.054
N2530 X-1.6847 Y-0.0545
N2535 X-1.6838 Y-0.0556
N2540 X-1.666 Y-0.0734
N2545 X-1.6644 Y-0.0749
N2550 X-1.6592 Y-0.0777
N2555 X-1.6395 Y-0.0877
N2560 X-1.6388 Y-0.088
N2565 X-1.6382 Y-0.0882
N2570 X-1.6329 Y-0.0892
N2575 X-1.612 Y-0.0925
N2580 X-1.6094 Y-0.0927
N2585 X-1.6067 Y-0.0924
N2590 X-1.5818 Y-0.0884
N2595 X-1.5805 Y-0.088
N2600 X-1.5722 Y-0.0838
N2605 X-1.5569 Y-0.0761
N2610 X-1.5556 Y-0.0753
N2615 X-1.555 Y-0.0749
N2620 X-1.5543 Y-0.0743
N2625 X-1.5376 Y-0.0576
N2630 X-1.5351 Y-0.055
N2635 X-1.5345 Y-0.0544
N2640 X-1.5341 Y-0.0537
N2645 X-1.5228 Y-0.0314
N2650 X-1.5215 Y-0.0288
N2655 X-1.5213 Y-0.0282
N2660 X-1.5206 Y-0.0237
N2665 Y-0.022
N2670 X-1.5211 Y-0.0203
N2675 X-1.5221 Y-0.0188
N2680 X-1.5234 Y-0.0177
N2685 X-1.5251 Y-0.0169
N2690 X-1.5268 Y-0.0167
N2695 G3 X-1.5331 Y-0.023 R0.0063
N2700 X-1.5269 Y-0.0293 R0.0063
N2705 G1 X-1.5268
N2710 X-1.5264
N2715 G0 Z0.64
N2720 M5
N2725 M9
N2730 M30
%
